; generated by Slic3r 0.9.9 on 2013-06-09 at 00:39:43

; layer_height = 0.21
; perimeters = 3
; top_solid_layers = 3
; bottom_solid_layers = 3
; fill_density = 0.2
; perimeter_speed = 35
; infill_speed = 45
; travel_speed = 150
; nozzle_diameter = 0.35
; filament_diameter = 2.8
; extrusion_multiplier = 1.088
; perimeters extrusion width = 0.49mm
; infill extrusion width = 0.49mm
; solid infill extrusion width = 0.49mm
; top infill extrusion width = 0.49mm
; support material extrusion width = 0.49mm
; first layer extrusion width = 0.42mm

G21 ; set units to millimeters
M190 S70 ; wait for bed temperature to be reached
M104 S200 ; set temperature
G28 ; home all axes
M109 S200 ; wait for temperature to be reached
G90 ; use absolute coordinates
G92 E0
M82 ; use absolute distances for extrusion
M106 S331
G1 F600.000 E-1.00000
G92 E0
G1 Z0.210 F9000.000
G1 X64.843 Y77.313
G1 F600.000 E1.00000
G1 X69.652 Y73.819 F840.000 E1.08931
G1 X70.001 Y73.618 E1.09537
G1 X75.430 Y71.200 E1.18468
G1 X75.814 Y71.076 E1.19074
G1 X81.627 Y69.840 E1.28005
G1 X82.028 Y69.798 E1.28611
G1 X87.972 Y69.798 E1.37542
G1 X88.373 Y69.840 E1.38148
G1 X94.186 Y71.076 E1.47079
G1 X94.570 Y71.200 E1.47685
G1 X99.999 Y73.618 E1.56616
G1 X100.348 Y73.819 E1.57222
G1 X105.157 Y77.313 E1.66153
G1 X105.456 Y77.583 E1.66759
G1 X109.433 Y81.999 E1.75690
G1 X109.670 Y82.325 E1.76296
G1 X112.642 Y87.472 E1.85227
G1 X112.806 Y87.841 E1.85833
G1 X114.642 Y93.493 E1.94764
G1 X114.726 Y93.888 E1.95370
G1 X115.347 Y99.798 E2.04301
G1 X115.347 Y100.202 E2.04906
G1 X114.726 Y106.112 E2.13837
G1 X114.642 Y106.507 E2.14443
G1 X112.806 Y112.159 E2.23374
G1 X112.642 Y112.528 E2.23980
G1 X109.670 Y117.675 E2.32911
G1 X109.433 Y118.001 E2.33517
G1 X105.456 Y122.417 E2.42448
G1 X105.157 Y122.687 E2.43054
G1 X100.348 Y126.181 E2.51985
G1 X99.999 Y126.382 E2.52591
G1 X94.570 Y128.800 E2.61522
G1 X94.186 Y128.924 E2.62128
G1 X88.373 Y130.160 E2.71059
G1 X87.972 Y130.202 E2.71665
G1 X82.028 Y130.202 E2.80596
G1 X81.627 Y130.160 E2.81202
G1 X75.814 Y128.924 E2.90133
G1 X75.430 Y128.800 E2.90739
G1 X70.001 Y126.382 E2.99670
G1 X69.652 Y126.181 E3.00276
G1 X64.843 Y122.687 E3.09207
G1 X64.544 Y122.417 E3.09813
G1 X60.567 Y118.001 E3.18744
G1 X60.330 Y117.675 E3.19350
G1 X57.358 Y112.528 E3.28281
G1 X57.194 Y112.159 E3.28887
G1 X55.358 Y106.507 E3.37818
G1 X55.274 Y106.112 E3.38424
G1 X54.653 Y100.202 E3.47355
G1 X54.653 Y99.798 E3.47961
G1 X55.274 Y93.888 E3.56892
G1 X55.358 Y93.493 E3.57498
G1 X57.194 Y87.841 E3.66428
G1 X57.358 Y87.472 E3.67034
G1 X60.330 Y82.325 E3.75966
G1 X60.567 Y81.999 E3.76571
G1 X64.544 Y77.583 E3.85502
G1 X64.798 Y77.353 E3.86017
G1 X65.099 Y77.628 F9000.000
G1 X69.873 Y74.159 F840.000 E3.94884
G1 X70.185 Y73.979 E3.95426
G1 X75.576 Y71.579 E4.04294
G1 X75.919 Y71.467 E4.04836
G1 X81.691 Y70.241 E4.13703
G1 X82.050 Y70.203 E4.14245
G1 X87.950 Y70.203 E4.23112
G1 X88.309 Y70.241 E4.23655
G1 X94.081 Y71.467 E4.32522
G1 X94.424 Y71.579 E4.33064
G1 X99.815 Y73.979 E4.41931
G1 X100.127 Y74.159 E4.42473
G1 X104.901 Y77.628 E4.51341
G1 X105.169 Y77.869 E4.51883
G1 X109.118 Y82.254 E4.60750
G1 X109.330 Y82.546 E4.61292
G1 X112.280 Y87.657 E4.70159
G1 X112.427 Y87.986 E4.70701
G1 X114.250 Y93.598 E4.79569
G1 X114.325 Y93.951 E4.80111
G1 X114.942 Y99.820 E4.88978
G1 X114.942 Y100.180 E4.89520
G1 X114.325 Y106.049 E4.98387
G1 X114.250 Y106.402 E4.98929
G1 X112.427 Y112.014 E5.07797
G1 X112.280 Y112.343 E5.08339
G1 X109.330 Y117.454 E5.17206
G1 X109.118 Y117.746 E5.17748
G1 X105.169 Y122.131 E5.26615
G1 X104.901 Y122.372 E5.27157
G1 X100.127 Y125.841 E5.36025
G1 X99.815 Y126.021 E5.36567
G1 X94.424 Y128.421 E5.45434
G1 X94.081 Y128.533 E5.45976
G1 X88.309 Y129.759 E5.54844
G1 X87.950 Y129.797 E5.55386
G1 X82.050 Y129.797 E5.64253
G1 X81.691 Y129.759 E5.64795
G1 X75.919 Y128.533 E5.73662
G1 X75.576 Y128.421 E5.74204
G1 X70.185 Y126.021 E5.83072
G1 X69.873 Y125.841 E5.83614
G1 X65.099 Y122.372 E5.92481
G1 X64.831 Y122.131 E5.93023
G1 X60.882 Y117.746 E6.01890
G1 X60.670 Y117.454 E6.02432
G1 X57.720 Y112.343 E6.11300
G1 X57.573 Y112.014 E6.11842
G1 X55.750 Y106.402 E6.20709
G1 X55.675 Y106.049 E6.21251
G1 X55.058 Y100.180 E6.30118
G1 X55.058 Y99.820 E6.30661
G1 X55.675 Y93.951 E6.39528
G1 X55.750 Y93.598 E6.40070
G1 X57.573 Y87.986 E6.48937
G1 X57.720 Y87.657 E6.49479
G1 X60.670 Y82.546 E6.58347
G1 X60.882 Y82.254 E6.58889
G1 X64.831 Y77.869 E6.67756
G1 X65.054 Y77.669 E6.68207
G1 X65.354 Y77.943 F9000.000
G1 X70.093 Y74.499 F840.000 E6.77010
G1 X70.369 Y74.340 E6.77489
G1 X75.721 Y71.958 E6.86292
G1 X76.024 Y71.859 E6.86770
G1 X81.754 Y70.641 E6.95574
G1 X82.071 Y70.608 E6.96052
G1 X87.929 Y70.608 E7.04856
G1 X88.246 Y70.641 E7.05334
G1 X93.976 Y71.859 E7.14137
G1 X94.279 Y71.958 E7.14616
G1 X99.631 Y74.340 E7.23419
G1 X99.907 Y74.499 E7.23898
G1 X104.646 Y77.943 E7.32701
G1 X104.883 Y78.156 E7.33180
G1 X108.803 Y82.510 E7.41983
G1 X108.990 Y82.767 E7.42461
G1 X111.919 Y87.841 E7.51265
G1 X112.048 Y88.132 E7.51743
G1 X113.859 Y93.703 E7.60546
G1 X113.925 Y94.015 E7.61025
G1 X114.537 Y99.841 E7.69828
G1 X114.537 Y100.159 E7.70307
G1 X113.925 Y105.985 E7.79110
G1 X113.859 Y106.297 E7.79588
G1 X112.048 Y111.868 E7.88392
G1 X111.919 Y112.159 E7.88870
G1 X108.990 Y117.233 E7.97674
G1 X108.803 Y117.490 E7.98152
G1 X104.883 Y121.844 E8.06955
G1 X104.646 Y122.057 E8.07434
G1 X99.907 Y125.501 E8.16237
G1 X99.631 Y125.660 E8.16716
G1 X94.279 Y128.042 E8.25519
G1 X93.976 Y128.141 E8.25997
G1 X88.246 Y129.359 E8.34801
G1 X87.929 Y129.392 E8.35279
G1 X82.071 Y129.392 E8.44083
G1 X81.754 Y129.359 E8.44561
G1 X76.024 Y128.141 E8.53364
G1 X75.721 Y128.042 E8.53843
G1 X70.369 Y125.660 E8.62646
G1 X70.093 Y125.501 E8.63125
G1 X65.354 Y122.057 E8.71928
G1 X65.117 Y121.844 E8.72406
G1 X61.197 Y117.490 E8.81210
G1 X61.010 Y117.233 E8.81688
G1 X58.081 Y112.159 E8.90492
G1 X57.952 Y111.868 E8.90970
G1 X56.141 Y106.297 E8.99773
G1 X56.075 Y105.985 E9.00252
G1 X55.463 Y100.159 E9.09055
G1 X55.463 Y99.841 E9.09534
G1 X56.075 Y94.015 E9.18337
G1 X56.141 Y93.703 E9.18815
G1 X57.952 Y88.132 E9.27619
G1 X58.081 Y87.841 E9.28097
G1 X61.010 Y82.767 E9.36901
G1 X61.197 Y82.510 E9.37379
G1 X65.117 Y78.156 E9.46182
G1 X65.309 Y77.984 E9.46569
G1 X65.609 Y78.258 F9000.000
G1 X70.314 Y74.840 F840.000 E9.55309
G1 X70.553 Y74.702 E9.55724
G1 X75.866 Y72.336 E9.64463
G1 X76.129 Y72.251 E9.64878
G1 X81.818 Y71.042 E9.73617
G1 X82.092 Y71.013 E9.74032
G1 X87.908 Y71.013 E9.82772
G1 X88.182 Y71.042 E9.83186
G1 X93.871 Y72.251 E9.91926
G1 X94.134 Y72.336 E9.92340
G1 X99.447 Y74.702 E10.01080
G1 X99.686 Y74.840 E10.01495
G1 X104.391 Y78.258 E10.10234
G1 X104.596 Y78.443 E10.10649
G1 X108.487 Y82.765 E10.19389
G1 X108.650 Y82.988 E10.19803
G1 X111.558 Y88.025 E10.28543
G1 X111.670 Y88.277 E10.28957
G1 X113.467 Y93.808 E10.37697
G1 X113.524 Y94.078 E10.38112
G1 X114.132 Y99.862 E10.46851
G1 X114.132 Y100.138 E10.47266
G1 X113.524 Y105.922 E10.56005
G1 X113.467 Y106.192 E10.56420
G1 X111.670 Y111.723 E10.65160
G1 X111.558 Y111.975 E10.65574
G1 X108.650 Y117.012 E10.74314
G1 X108.487 Y117.235 E10.74729
G1 X104.596 Y121.557 E10.83468
G1 X104.391 Y121.742 E10.83883
G1 X99.686 Y125.160 E10.92622
G1 X99.447 Y125.298 E10.93037
G1 X94.134 Y127.664 E11.01777
G1 X93.871 Y127.749 E11.02191
G1 X88.182 Y128.958 E11.10931
G1 X87.908 Y128.987 E11.11345
G1 X82.092 Y128.987 E11.20085
G1 X81.818 Y128.958 E11.20500
G1 X76.129 Y127.749 E11.29239
G1 X75.866 Y127.664 E11.29654
G1 X70.553 Y125.298 E11.38393
G1 X70.314 Y125.160 E11.38808
G1 X65.609 Y121.742 E11.47548
G1 X65.404 Y121.557 E11.47962
G1 X61.513 Y117.235 E11.56702
G1 X61.350 Y117.012 E11.57116
G1 X58.442 Y111.975 E11.65856
G1 X58.330 Y111.723 E11.66271
G1 X56.533 Y106.192 E11.75010
G1 X56.476 Y105.922 E11.75425
G1 X55.868 Y100.138 E11.84165
G1 X55.868 Y99.862 E11.84579
G1 X56.476 Y94.078 E11.93319
G1 X56.533 Y93.808 E11.93733
G1 X58.330 Y88.277 E12.02473
G1 X58.442 Y88.025 E12.02888
G1 X61.350 Y82.988 E12.11627
G1 X61.513 Y82.765 E12.12042
G1 X65.404 Y78.443 E12.20781
G1 X65.564 Y78.299 E12.21105
G1 X65.864 Y78.573 F9000.000
G1 X70.535 Y75.180 F840.000 E12.29781
G1 X70.737 Y75.063 E12.30131
G1 X76.012 Y72.715 E12.38807
G1 X76.234 Y72.643 E12.39158
G1 X81.881 Y71.442 E12.47834
G1 X82.113 Y71.418 E12.48185
G1 X87.887 Y71.418 E12.56860
G1 X88.119 Y71.442 E12.57211
G1 X93.766 Y72.643 E12.65887
G1 X93.988 Y72.715 E12.66238
G1 X99.263 Y75.063 E12.74914
G1 X99.465 Y75.180 E12.75265
G1 X104.136 Y78.573 E12.83941
G1 X104.309 Y78.730 E12.84291
G1 X108.172 Y83.020 E12.92967
G1 X108.309 Y83.209 E12.93318
G1 X111.196 Y88.209 E13.01994
G1 X111.291 Y88.422 E13.02345
G1 X113.075 Y93.913 E13.11020
G1 X113.124 Y94.141 E13.11371
G1 X113.727 Y99.883 E13.20047
G1 X113.727 Y100.117 E13.20398
G1 X113.124 Y105.859 E13.29074
G1 X113.075 Y106.087 E13.29424
G1 X111.291 Y111.578 E13.38100
G1 X111.196 Y111.791 E13.38451
G1 X108.309 Y116.791 E13.47127
G1 X108.172 Y116.980 E13.47478
G1 X104.309 Y121.270 E13.56154
G1 X104.136 Y121.427 E13.56504
G1 X99.465 Y124.820 E13.65180
G1 X99.263 Y124.937 E13.65531
G1 X93.988 Y127.285 E13.74207
G1 X93.766 Y127.357 E13.74558
G1 X88.119 Y128.558 E13.83234
G1 X87.887 Y128.582 E13.83584
G1 X82.113 Y128.582 E13.92260
G1 X81.881 Y128.558 E13.92611
G1 X76.234 Y127.357 E14.01287
G1 X76.012 Y127.285 E14.01638
G1 X70.737 Y124.937 E14.10313
G1 X70.535 Y124.820 E14.10664
G1 X65.864 Y121.427 E14.19340
G1 X65.691 Y121.270 E14.19691
G1 X61.828 Y116.980 E14.28367
G1 X61.691 Y116.791 E14.28718
G1 X58.804 Y111.791 E14.37393
G1 X58.709 Y111.578 E14.37744
G1 X56.925 Y106.087 E14.46420
G1 X56.876 Y105.859 E14.46771
G1 X56.273 Y100.117 E14.55447
G1 X56.273 Y99.883 E14.55798
G1 X56.876 Y94.141 E14.64473
G1 X56.925 Y93.913 E14.64824
G1 X58.709 Y88.422 E14.73500
G1 X58.804 Y88.209 E14.73851
G1 X61.691 Y83.209 E14.82527
G1 X61.828 Y83.020 E14.82878
G1 X65.691 Y78.730 E14.91553
G1 X65.819 Y78.614 E14.91813
G1 X66.120 Y78.888 F9000.000
G1 X70.756 Y75.520 F840.000 E15.00425
G1 X70.922 Y75.424 E15.00712
G1 X76.157 Y73.093 E15.09324
G1 X76.339 Y73.034 E15.09611
G1 X81.945 Y71.843 E15.18223
G1 X82.134 Y71.823 E15.18510
G1 X87.866 Y71.823 E15.27122
G1 X88.055 Y71.843 E15.27409
G1 X93.661 Y73.034 E15.36021
G1 X93.843 Y73.093 E15.36308
G1 X99.078 Y75.424 E15.44920
G1 X99.244 Y75.520 E15.45207
G1 X103.880 Y78.888 E15.53819
G1 X104.022 Y79.016 E15.54107
G1 X107.857 Y83.275 E15.62718
G1 X107.969 Y83.430 E15.63005
G1 X110.835 Y88.393 E15.71618
G1 X110.913 Y88.568 E15.71905
G1 X112.684 Y94.018 E15.80517
G1 X112.723 Y94.205 E15.80804
G1 X113.322 Y99.905 E15.89416
G1 X113.322 Y100.096 E15.89703
G1 X112.723 Y105.795 E15.98315
G1 X112.684 Y105.982 E15.98602
G1 X110.913 Y111.432 E16.07214
G1 X110.835 Y111.607 E16.07501
G1 X107.969 Y116.570 E16.16113
G1 X107.857 Y116.725 E16.16400
G1 X104.022 Y120.984 E16.25012
G1 X103.880 Y121.112 E16.25299
G1 X99.244 Y124.480 E16.33911
G1 X99.078 Y124.576 E16.34198
G1 X93.843 Y126.907 E16.42810
G1 X93.661 Y126.966 E16.43097
G1 X88.055 Y128.157 E16.51709
G1 X87.866 Y128.177 E16.51996
G1 X82.134 Y128.177 E16.60608
G1 X81.945 Y128.157 E16.60895
G1 X76.339 Y126.966 E16.69507
G1 X76.157 Y126.907 E16.69794
G1 X70.922 Y124.576 E16.78406
G1 X70.756 Y124.480 E16.78693
G1 X66.120 Y121.112 E16.87306
G1 X65.978 Y120.984 E16.87593
G1 X62.143 Y116.725 E16.96205
G1 X62.031 Y116.570 E16.96492
G1 X59.165 Y111.607 E17.05104
G1 X59.087 Y111.432 E17.05391
G1 X57.316 Y105.982 E17.14003
G1 X57.277 Y105.795 E17.14290
G1 X56.678 Y100.096 E17.22902
G1 X56.678 Y99.904 E17.23189
G1 X57.277 Y94.205 E17.31801
G1 X57.316 Y94.018 E17.32088
G1 X59.087 Y88.568 E17.40700
G1 X59.165 Y88.393 E17.40987
G1 X62.031 Y83.430 E17.49599
G1 X62.143 Y83.275 E17.49886
G1 X65.978 Y79.016 E17.58498
G1 X66.074 Y78.929 E17.58694
G1 X66.375 Y79.204 F9000.000
G1 X70.977 Y75.860 F840.000 E17.67242
G1 X71.106 Y75.786 E17.67465
G1 X76.302 Y73.472 E17.76014
G1 X76.444 Y73.426 E17.76237
G1 X82.008 Y72.243 E17.84785
G1 X82.156 Y72.228 E17.85008
G1 X87.844 Y72.228 E17.93557
G1 X87.992 Y72.243 E17.93780
G1 X93.556 Y73.426 E18.02328
G1 X93.698 Y73.472 E18.02551
G1 X98.894 Y75.786 E18.11100
G1 X99.023 Y75.860 E18.11323
G1 X103.625 Y79.204 E18.19871
G1 X103.736 Y79.303 E18.20094
G1 X107.542 Y83.530 E18.28643
G1 X107.629 Y83.651 E18.28866
G1 X110.474 Y88.577 E18.37414
G1 X110.534 Y88.713 E18.37637
G1 X112.292 Y94.123 E18.46186
G1 X112.323 Y94.268 E18.46409
G1 X112.917 Y99.926 E18.54957
G1 X112.917 Y100.074 E18.55180
G1 X112.323 Y105.732 E18.63729
G1 X112.292 Y105.877 E18.63952
G1 X110.534 Y111.287 E18.72500
G1 X110.474 Y111.423 E18.72723
G1 X107.629 Y116.349 E18.81272
G1 X107.542 Y116.470 E18.81495
G1 X103.736 Y120.697 E18.90043
G1 X103.625 Y120.796 E18.90266
G1 X99.023 Y124.140 E18.98815
G1 X98.894 Y124.214 E18.99038
G1 X93.698 Y126.528 E19.07586
G1 X93.556 Y126.574 E19.07809
G1 X87.992 Y127.757 E19.16358
G1 X87.844 Y127.772 E19.16581
G1 X82.156 Y127.772 E19.25129
G1 X82.008 Y127.757 E19.25352
G1 X76.444 Y126.574 E19.33901
G1 X76.302 Y126.528 E19.34124
G1 X71.106 Y124.214 E19.42672
G1 X70.977 Y124.140 E19.42895
G1 X66.375 Y120.796 E19.51444
G1 X66.264 Y120.697 E19.51667
G1 X62.458 Y116.470 E19.60215
G1 X62.371 Y116.349 E19.60438
G1 X59.526 Y111.423 E19.68987
G1 X59.466 Y111.287 E19.69210
G1 X57.708 Y105.877 E19.77758
G1 X57.677 Y105.732 E19.77981
G1 X57.083 Y100.074 E19.86530
G1 X57.083 Y99.926 E19.86753
G1 X57.677 Y94.268 E19.95301
G1 X57.708 Y94.123 E19.95524
G1 X59.466 Y88.713 E20.04073
G1 X59.526 Y88.577 E20.04296
G1 X62.371 Y83.651 E20.12844
G1 X62.458 Y83.530 E20.13067
G1 X66.330 Y79.244 E20.21747
G1 X66.630 Y79.519 F9000.000
G1 X71.290 Y76.147 F840.000 E20.30390
G1 X76.549 Y73.818 E20.39033
G1 X82.177 Y72.633 E20.47676
G1 X87.929 Y72.644 E20.56319
G1 X93.552 Y73.851 E20.64962
G1 X98.802 Y76.200 E20.73605
G1 X103.370 Y79.519 E20.82090
G1 X107.227 Y83.786 E20.90733
G1 X110.155 Y88.858 E20.99534
G1 X111.922 Y94.332 E21.08177
G1 X112.512 Y100.053 E21.16821
G1 X111.900 Y105.772 E21.25464
G1 X110.112 Y111.239 E21.34107
G1 X107.227 Y116.214 E21.42750
G1 X103.370 Y120.481 E21.51393
G1 X98.710 Y123.853 E21.60036
G1 X93.451 Y126.182 E21.68679
G1 X87.823 Y127.367 E21.77322
G1 X82.071 Y127.356 E21.85965
G1 X76.448 Y126.149 E21.94608
G1 X71.198 Y123.800 E22.03251
G1 X66.630 Y120.481 E22.11736
G1 X62.773 Y116.214 E22.20379
G1 X59.845 Y111.142 E22.29180
G1 X58.078 Y105.668 E22.37824
G1 X57.488 Y99.947 E22.46467
G1 X58.100 Y94.228 E22.55110
G1 X59.888 Y88.761 E22.63753
G1 X62.773 Y83.786 E22.72396
G1 X66.585 Y79.559 E22.80948
G1 X66.838 Y79.877 F9000.000
G1 X71.474 Y76.508 F840.000 E22.89559
G1 X76.654 Y74.209 E22.98075
G1 X82.198 Y73.038 E23.06591
G1 X87.865 Y73.044 E23.15107
G1 X93.407 Y74.229 E23.23622
G1 X98.581 Y76.540 E23.32138
G1 X103.162 Y79.877 E23.40654
G1 X106.949 Y84.092 E23.49170
G1 X109.777 Y89.004 E23.57686
G1 X111.522 Y94.395 E23.66202
G1 X112.107 Y99.968 E23.74622
G1 X111.522 Y105.605 E23.83138
G1 X109.777 Y110.996 E23.91654
G1 X106.949 Y115.908 E24.00170
G1 X103.162 Y120.123 E24.08685
G1 X98.526 Y123.492 E24.17297
G1 X93.346 Y125.791 E24.25812
G1 X87.802 Y126.962 E24.34328
G1 X82.135 Y126.956 E24.42844
G1 X76.593 Y125.771 E24.51360
G1 X71.419 Y123.460 E24.59876
G1 X66.838 Y120.123 E24.68392
G1 X63.051 Y115.908 E24.76907
G1 X60.223 Y110.996 E24.85423
G1 X58.478 Y105.605 E24.93939
G1 X57.893 Y100.032 E25.02360
G1 X58.478 Y94.395 E25.10876
G1 X60.223 Y89.004 E25.19391
G1 X63.051 Y84.092 E25.27907
G1 X66.797 Y79.922 E25.36332
G1 X67.125 Y80.163 F9000.000
G1 X71.658 Y76.870 F840.000 E25.44752
G1 X76.759 Y74.601 E25.53141
G1 X82.219 Y73.443 E25.61529
G1 X87.802 Y73.445 E25.69918
G1 X93.262 Y74.608 E25.78307
G1 X98.360 Y76.880 E25.86695
G1 X102.875 Y80.163 E25.95084
G1 X106.609 Y84.313 E26.03472
G1 X109.398 Y89.149 E26.11861
G1 X111.121 Y94.459 E26.20250
G1 X111.702 Y99.989 E26.28606
G1 X111.121 Y105.541 E26.36995
G1 X109.398 Y110.851 E26.45384
G1 X106.609 Y115.687 E26.53772
G1 X102.875 Y119.837 E26.62161
G1 X98.342 Y123.130 E26.70581
G1 X93.241 Y125.399 E26.78970
G1 X87.781 Y126.557 E26.87358
G1 X82.198 Y126.555 E26.95747
G1 X76.738 Y125.392 E27.04136
G1 X71.640 Y123.120 E27.12524
G1 X67.125 Y119.837 E27.20913
