; generated by Slic3r 0.9.9 on 2013-05-19 at 14:25:43

; layer_height = 0.21
; perimeters = 3
; top_solid_layers = 2
; bottom_solid_layers = 2
; fill_density = 0.2
; perimeter_speed = 35
; infill_speed = 45
; travel_speed = 150
; nozzle_diameter = 0.35
; filament_diameter = 2.8
; extrusion_multiplier = 1.088
; perimeters extrusion width = 0.49mm
; infill extrusion width = 0.49mm
; solid infill extrusion width = 0.49mm
; top infill extrusion width = 0.49mm
; first layer extrusion width = 0.70mm

G21 ; set units to millimeters
M190 S70 ; wait for bed temperature to be reached
M104 S200 ; set temperature
G28 ; home all axes
M109 S200 ; wait for temperature to be reached
G90 ; use absolute coordinates
G92 E0
M82 ; use absolute distances for extrusion
M106 S331
G1 F600.000 E-1.00000
G92 E0
G1 Z0.350 F9000.000
G1 X131.140 Y87.234
G1 F600.000 E1.00000
G1 X131.808 Y86.493 F720.000 E1.03854
G1 X132.615 Y85.907 E1.07708
G1 X133.526 Y85.501 E1.11562
G1 X134.297 Y85.337 E1.14608
G1 X134.501 Y85.294 E1.15417
G1 X135.498 Y85.294 E1.19269
G1 X136.474 Y85.501 E1.23126
G1 X137.386 Y85.907 E1.26981
G1 X138.192 Y86.493 E1.30833
G1 X138.860 Y87.234 E1.34690
G1 X139.358 Y88.098 E1.38543
G1 X139.666 Y89.046 E1.42395
G1 X139.771 Y90.038 E1.46251
G1 X139.666 Y91.031 E1.50107
G1 X139.358 Y91.979 E1.53960
G1 X138.860 Y92.842 E1.57813
G1 X138.192 Y93.584 E1.61670
G1 X137.386 Y94.170 E1.65522
G1 X136.474 Y94.576 E1.69377
G1 X135.498 Y94.783 E1.73234
G1 X134.501 Y94.783 E1.77086
G1 X133.526 Y94.576 E1.80940
G1 X132.615 Y94.170 E1.84795
G1 X131.808 Y93.584 E1.88649
G1 X131.140 Y92.843 E1.92504
G1 X130.642 Y91.979 E1.96358
G1 X130.333 Y91.030 E2.00212
G1 X130.229 Y90.038 E2.04067
G1 X130.333 Y89.046 E2.07922
G1 X130.642 Y88.098 E2.11775
G1 X131.093 Y87.315 E2.15268
G1 X131.649 Y87.603 F9000.000
G1 X132.228 Y86.960 F720.000 E2.18615
G1 X132.929 Y86.451 E2.21961
G1 X133.720 Y86.099 E2.25308
G1 X134.427 Y85.948 E2.28100
G1 X134.567 Y85.919 E2.28655
G1 X135.432 Y85.919 E2.31999
G1 X136.280 Y86.099 E2.35348
G1 X137.071 Y86.451 E2.38695
G1 X137.772 Y86.960 E2.42040
G1 X138.352 Y87.604 E2.45389
G1 X138.784 Y88.354 E2.48735
G1 X139.052 Y89.177 E2.52080
G1 X139.143 Y90.038 E2.55428
G1 X139.052 Y90.900 E2.58776
G1 X138.784 Y91.723 E2.62121
G1 X138.352 Y92.473 E2.65467
G1 X137.772 Y93.117 E2.68816
G1 X137.071 Y93.626 E2.72161
G1 X136.280 Y93.978 E2.75508
G1 X135.432 Y94.158 E2.78857
G1 X134.567 Y94.158 E2.82202
G1 X133.720 Y93.978 E2.85549
G1 X132.929 Y93.626 E2.88895
G1 X132.228 Y93.117 E2.92242
G1 X131.649 Y92.473 E2.95589
G1 X131.216 Y91.723 E2.98935
G1 X130.948 Y90.900 E3.02282
G1 X130.858 Y90.038 E3.05629
G1 X130.948 Y89.177 E3.08976
G1 X131.216 Y88.353 E3.12322
G1 X131.602 Y87.685 E3.15307
G1 X132.157 Y87.973 F9000.000
G1 X132.649 Y87.427 F720.000 E3.18146
G1 X133.243 Y86.995 E3.20985
G1 X133.914 Y86.696 E3.23824
G1 X134.557 Y86.560 E3.26362
G1 X134.633 Y86.543 E3.26663
G1 X135.367 Y86.543 E3.29500
G1 X136.086 Y86.696 E3.32342
G1 X136.757 Y86.995 E3.35181
G1 X137.351 Y87.427 E3.38019
G1 X137.843 Y87.973 E3.40859
G1 X138.210 Y88.609 E3.43697
G1 X138.437 Y89.308 E3.46536
G1 X138.514 Y90.038 E3.49376
G1 X138.437 Y90.769 E3.52215
G1 X138.210 Y91.468 E3.55054
G1 X137.843 Y92.104 E3.57892
G1 X137.351 Y92.650 E3.60733
G1 X136.757 Y93.082 E3.63571
G1 X136.086 Y93.381 E3.66410
G1 X135.367 Y93.533 E3.69251
G1 X134.633 Y93.533 E3.72088
G1 X133.914 Y93.381 E3.74928
G1 X133.243 Y93.082 E3.77767
G1 X132.649 Y92.650 E3.80606
G1 X132.157 Y92.104 E3.83445
G1 X131.790 Y91.468 E3.86284
G1 X131.563 Y90.769 E3.89123
G1 X131.486 Y90.038 E3.91962
G1 X131.563 Y89.308 E3.94801
G1 X131.790 Y88.609 E3.97640
G1 X132.110 Y88.054 E4.00117
G1 X131.923 Y87.393 F9000.000
G1 X132.522 Y87.244
G1 X128.646 Y88.538
G1 X115.046 Y88.538
G1 X113.665 Y84.817
G1 X114.667 Y85.030
G1 X114.358 Y85.979 F720.000 E4.03972
G1 X113.860 Y86.842 E4.07826
G1 X113.192 Y87.584 E4.11681
G1 X112.385 Y88.170 E4.15535
G1 X111.474 Y88.576 E4.19389
G1 X110.499 Y88.783 E4.23244
G1 X109.501 Y88.783 E4.27098
G1 X108.526 Y88.576 E4.30952
G1 X107.615 Y88.170 E4.34807
G1 X106.808 Y87.584 E4.38661
G1 X106.140 Y86.843 E4.42516
G1 X105.642 Y85.979 E4.46370
G1 X105.333 Y85.030 E4.50223
G1 X105.229 Y84.038 E4.54078
G1 X105.333 Y83.046 E4.57934
G1 X105.642 Y82.098 E4.61787
G1 X106.140 Y81.234 E4.65642
G1 X106.808 Y80.493 E4.69496
G1 X107.615 Y79.907 E4.73350
G1 X108.526 Y79.501 E4.77205
G1 X109.501 Y79.294 E4.81059
G1 X110.499 Y79.294 E4.84913
G1 X111.474 Y79.501 E4.88768
G1 X112.385 Y79.907 E4.92622
G1 X113.192 Y80.493 E4.96476
G1 X113.860 Y81.234 E5.00331
G1 X114.358 Y82.098 E5.04185
G1 X114.667 Y83.047 E5.08040
G1 X114.771 Y84.038 E5.11894
G1 X114.676 Y84.937 E5.15386
G1 X114.052 Y84.900 F9000.000
G1 X113.784 Y85.723 F720.000 E5.18733
G1 X113.351 Y86.473 E5.22079
G1 X112.772 Y87.117 E5.25426
G1 X112.071 Y87.626 E5.28773
G1 X111.280 Y87.978 E5.32119
G1 X110.433 Y88.158 E5.35466
G1 X109.567 Y88.158 E5.38813
G1 X108.720 Y87.978 E5.42160
G1 X107.929 Y87.626 E5.45507
G1 X107.228 Y87.117 E5.48853
G1 X106.649 Y86.473 E5.52200
G1 X106.216 Y85.723 E5.55547
G1 X105.948 Y84.900 E5.58893
G1 X105.858 Y84.038 E5.62240
G1 X105.948 Y83.177 E5.65587
G1 X106.216 Y82.353 E5.68934
G1 X106.649 Y81.603 E5.72280
G1 X107.228 Y80.960 E5.75627
G1 X107.929 Y80.451 E5.78974
G1 X108.720 Y80.099 E5.82320
G1 X109.567 Y79.919 E5.85667
G1 X110.433 Y79.919 E5.89014
G1 X111.280 Y80.099 E5.92361
G1 X112.071 Y80.451 E5.95708
G1 X112.772 Y80.960 E5.99054
G1 X113.351 Y81.604 E6.02401
G1 X113.784 Y82.353 E6.05748
G1 X114.052 Y83.177 E6.09095
G1 X114.142 Y84.038 E6.12441
G1 X114.062 Y84.806 E6.15425
G1 X113.437 Y84.769 F9000.000
G1 X113.210 Y85.468 F720.000 E6.18265
G1 X112.843 Y86.104 E6.21103
G1 X112.351 Y86.650 E6.23943
G1 X111.757 Y87.082 E6.26782
G1 X111.086 Y87.381 E6.29621
G1 X110.367 Y87.533 E6.32460
G1 X109.633 Y87.533 E6.35299
G1 X108.914 Y87.381 E6.38138
G1 X108.243 Y87.082 E6.40977
G1 X107.649 Y86.650 E6.43816
G1 X107.157 Y86.104 E6.46656
G1 X106.790 Y85.468 E6.49495
G1 X106.563 Y84.769 E6.52334
G1 X106.486 Y84.038 E6.55173
G1 X106.563 Y83.308 E6.58012
G1 X106.790 Y82.609 E6.60851
G1 X107.157 Y81.973 E6.63690
G1 X107.649 Y81.427 E6.66529
G1 X108.243 Y80.995 E6.69368
G1 X108.914 Y80.696 E6.72207
G1 X109.633 Y80.543 E6.75047
G1 X110.367 Y80.543 E6.77886
G1 X111.086 Y80.696 E6.80725
G1 X111.757 Y80.995 E6.83564
G1 X112.351 Y81.427 E6.86403
G1 X112.843 Y81.973 E6.89242
G1 X113.210 Y82.609 E6.92081
G1 X113.437 Y83.308 E6.94920
G1 X113.514 Y84.038 E6.97759
G1 X113.447 Y84.676 E7.00236
G1 X113.887 Y85.203 F9000.000
G1 X113.665 Y84.817
G1 X115.046 Y88.538
G1 X38.739 Y90.057
G1 X39.771 Y90.038
G1 X39.667 Y91.030 F720.000 E7.04091
G1 X39.358 Y91.979 E7.07945
G1 X38.860 Y92.841 E7.11794
G1 X38.192 Y93.584 E7.15653
G1 X37.385 Y94.170 E7.19508
G1 X36.474 Y94.576 E7.23362
G1 X35.499 Y94.783 E7.27217
G1 X34.501 Y94.783 E7.31071
G1 X33.526 Y94.576 E7.34925
G1 X32.615 Y94.170 E7.38780
G1 X31.808 Y93.584 E7.42634
G1 X31.140 Y92.843 E7.46488
G1 X30.642 Y91.979 E7.50343
G1 X30.333 Y91.030 E7.54197
G1 X30.229 Y90.038 E7.58052
G1 X30.333 Y89.046 E7.61906
G1 X30.642 Y88.098 E7.65760
G1 X31.140 Y87.234 E7.69615
G1 X31.808 Y86.493 E7.73469
G1 X32.615 Y85.907 E7.77323
G1 X33.335 Y85.586 E7.80369
G1 X33.526 Y85.501 E7.81178
G1 X34.501 Y85.294 E7.85032
G1 X35.499 Y85.294 E7.88886
G1 X36.474 Y85.501 E7.92741
G1 X37.385 Y85.907 E7.96595
G1 X38.192 Y86.493 E8.00450
G1 X38.860 Y87.234 E8.04304
G1 X39.358 Y88.098 E8.08158
G1 X39.667 Y89.046 E8.12012
G1 X39.761 Y89.945 E8.15505
G1 X39.142 Y90.038 F9000.000
G1 X39.052 Y90.900 F720.000 E8.18851
G1 X38.784 Y91.723 E8.22198
G1 X38.352 Y92.473 E8.25542
G1 X37.772 Y93.117 E8.28891
G1 X37.071 Y93.626 E8.32238
G1 X36.280 Y93.978 E8.35585
G1 X35.433 Y94.158 E8.38932
G1 X34.567 Y94.158 E8.42279
G1 X33.720 Y93.978 E8.45625
G1 X32.929 Y93.626 E8.48972
G1 X32.228 Y93.117 E8.52319
G1 X31.649 Y92.473 E8.55665
G1 X31.216 Y91.723 E8.59012
G1 X30.948 Y90.900 E8.62359
G1 X30.858 Y90.038 E8.65706
G1 X30.948 Y89.177 E8.69052
G1 X31.216 Y88.353 E8.72399
G1 X31.649 Y87.603 E8.75746
G1 X32.228 Y86.960 E8.79092
G1 X32.929 Y86.451 E8.82439
G1 X33.589 Y86.157 E8.85231
G1 X33.720 Y86.099 E8.85786
G1 X34.567 Y85.919 E8.89133
G1 X35.433 Y85.919 E8.92479
G1 X36.280 Y86.099 E8.95826
G1 X37.071 Y86.451 E8.99173
G1 X37.772 Y86.960 E9.02520
G1 X38.351 Y87.603 E9.05866
G1 X38.784 Y88.353 E9.09213
G1 X39.052 Y89.177 E9.12560
G1 X39.133 Y89.945 E9.15544
G1 X38.514 Y90.038 F9000.000
G1 X38.437 Y90.769 F720.000 E9.18383
G1 X38.210 Y91.468 E9.21223
G1 X37.843 Y92.104 E9.24060
G1 X37.351 Y92.650 E9.26901
G1 X36.757 Y93.082 E9.29740
G1 X36.086 Y93.381 E9.32579
G1 X35.367 Y93.533 E9.35418
G1 X34.633 Y93.533 E9.38257
G1 X33.914 Y93.381 E9.41096
G1 X33.243 Y93.082 E9.43935
G1 X32.649 Y92.650 E9.46774
G1 X32.157 Y92.104 E9.49613
G1 X31.790 Y91.468 E9.52453
G1 X31.563 Y90.769 E9.55292
G1 X31.486 Y90.038 E9.58131
G1 X31.563 Y89.308 E9.60970
G1 X31.790 Y88.609 E9.63809
G1 X32.157 Y87.973 E9.66648
G1 X32.649 Y87.427 E9.69487
G1 X33.243 Y86.995 E9.72326
G1 X33.843 Y86.728 E9.74864
G1 X33.914 Y86.696 E9.75165
G1 X34.633 Y86.543 E9.78004
G1 X35.367 Y86.543 E9.80844
G1 X36.086 Y86.696 E9.83683
G1 X36.757 Y86.995 E9.86522
G1 X37.351 Y87.427 E9.89361
G1 X37.843 Y87.973 E9.92200
G1 X38.210 Y88.609 E9.95039
G1 X38.437 Y89.308 E9.97878
G1 X38.504 Y89.945 E10.00355
G1 X39.044 Y90.369 F9000.000
G1 X38.739 Y90.057
G1 X128.646 Y91.538
G1 X135.677 Y96.477
G1 X136.678 Y95.202
G1 X135.568 Y95.438 F840.000 E10.04740
G1 X134.432 Y95.438 E10.09127
G1 X133.322 Y95.202 E10.13513
G1 X132.285 Y94.740 E10.17900
G1 X131.367 Y94.073 E10.22286
G1 X130.608 Y93.230 E10.26672
G1 X130.040 Y92.247 E10.31058
G1 X129.465 Y90.476 E10.38252
G1 X40.535 Y90.476 E13.81922
G1 X39.960 Y92.247 E13.89116
G1 X39.392 Y93.230 E13.93503
G1 X38.633 Y94.073 E13.97889
G1 X37.715 Y94.740 E14.02275
G1 X36.678 Y95.202 E14.06661
G1 X35.568 Y95.438 E14.11048
G1 X34.432 Y95.438 E14.15434
G1 X33.322 Y95.202 E14.19820
G1 X32.285 Y94.740 E14.24206
G1 X31.367 Y94.073 E14.28593
G1 X30.608 Y93.230 E14.32979
G1 X30.040 Y92.247 E14.37365
G1 X29.689 Y91.167 E14.41751
G1 X29.571 Y90.038 E14.46137
G1 X29.689 Y88.910 E14.50524
G1 X30.040 Y87.830 E14.54910
G1 X30.608 Y86.847 E14.59296
G1 X31.367 Y86.004 E14.63682
G1 X32.285 Y85.337 E14.68069
G1 X33.322 Y84.875 E14.72455
G1 X34.432 Y84.639 E14.76841
G1 X35.568 Y84.639 E14.81227
G1 X36.678 Y84.875 E14.85614
G1 X37.715 Y85.337 E14.90000
G1 X38.633 Y86.004 E14.94386
G1 X39.392 Y86.847 E14.98772
G1 X39.960 Y87.830 E15.03159
G1 X40.535 Y89.601 E15.10353
G1 X106.977 Y89.601 E17.67117
G1 X105.040 Y86.247 E17.82083
G1 X104.689 Y85.167 E17.86470
G1 X104.571 Y84.038 E17.90856
G1 X104.689 Y82.910 E17.95242
G1 X105.040 Y81.830 E17.99628
G1 X105.608 Y80.847 E18.04015
G1 X106.367 Y80.004 E18.08401
G1 X107.285 Y79.337 E18.12787
G1 X108.322 Y78.875 E18.17173
G1 X109.433 Y78.639 E18.21560
G1 X110.567 Y78.639 E18.25946
G1 X111.678 Y78.875 E18.30332
G1 X112.715 Y79.337 E18.34718
G1 X113.633 Y80.004 E18.39104
G1 X114.392 Y80.847 E18.43491
G1 X114.960 Y81.830 E18.47877
G1 X115.311 Y82.910 E18.52263
G1 X115.429 Y84.038 E18.56649
G1 X115.311 Y85.167 E18.61036
G1 X114.960 Y86.247 E18.65422
G1 X113.023 Y89.601 E18.80389
G1 X129.465 Y89.601 E19.43927
G1 X130.040 Y87.830 E19.51121
G1 X130.608 Y86.847 E19.55507
G1 X131.367 Y86.004 E19.59894
G1 X132.285 Y85.337 E19.64280
G1 X133.322 Y84.875 E19.68666
G1 X134.432 Y84.639 E19.73052
G1 X135.568 Y84.639 E19.77440
G1 X136.678 Y84.875 E19.81824
G1 X137.715 Y85.337 E19.86211
G1 X138.633 Y86.004 E19.90597
G1 X139.392 Y86.847 E19.94984
G1 X139.960 Y87.830 E19.99370
G1 X140.310 Y88.909 E20.03756
G1 X140.429 Y90.038 E20.08142
G1 X140.310 Y91.167 E20.12529
G1 X139.960 Y92.247 E20.16914
G1 X139.392 Y93.229 E20.21301
G1 X138.633 Y94.073 E20.25687
G1 X137.715 Y94.740 E20.30073
G1 X136.763 Y95.164 E20.34098
G1 X136.872 Y95.799 F9000.000
G1 X135.633 Y96.063 F840.000 E20.38990
G1 X134.367 Y96.063 E20.43885
G1 X133.128 Y95.799 E20.48779
G1 X131.971 Y95.284 E20.53673
G1 X130.947 Y94.540 E20.58567
G1 X130.099 Y93.599 E20.63461
G1 X129.466 Y92.502 E20.68355
G1 X129.011 Y91.101 E20.74048
G1 X40.989 Y91.101 E24.14209
G1 X40.534 Y92.502 E24.19902
G1 X39.901 Y93.599 E24.24796
G1 X39.053 Y94.540 E24.29690
G1 X38.029 Y95.284 E24.34584
G1 X36.872 Y95.799 E24.39478
G1 X35.633 Y96.063 E24.44372
G1 X34.367 Y96.063 E24.49266
G1 X33.128 Y95.799 E24.54160
G1 X31.971 Y95.284 E24.59053
G1 X30.947 Y94.540 E24.63947
G1 X30.099 Y93.599 E24.68841
G1 X29.466 Y92.502 E24.73735
G1 X29.075 Y91.298 E24.78629
G1 X28.942 Y90.038 E24.83523
G1 X29.075 Y88.779 E24.88417
G1 X29.466 Y87.575 E24.93311
G1 X30.099 Y86.478 E24.98204
G1 X30.947 Y85.537 E25.03098
G1 X31.971 Y84.792 E25.07992
G1 X33.128 Y84.277 E25.12886
G1 X34.367 Y84.014 E25.17780
G1 X35.633 Y84.014 E25.22674
G1 X36.872 Y84.277 E25.27568
G1 X38.029 Y84.792 E25.32461
G1 X39.053 Y85.537 E25.37355
G1 X39.901 Y86.478 E25.42249
G1 X40.534 Y87.575 E25.47143
G1 X40.989 Y88.976 E25.52836
G1 X105.894 Y88.976 E28.03663
G1 X104.466 Y86.502 E28.14701
G1 X104.075 Y85.298 E28.19595
G1 X103.942 Y84.038 E28.24489
G1 X104.075 Y82.779 E28.29383
G1 X104.466 Y81.575 E28.34276
G1 X105.099 Y80.478 E28.39170
G1 X105.947 Y79.537 E28.44064
G1 X106.971 Y78.792 E28.48958
G1 X108.128 Y78.277 E28.53852
G1 X109.367 Y78.014 E28.58746
G1 X110.633 Y78.014 E28.63640
G1 X111.872 Y78.277 E28.68534
G1 X113.029 Y78.792 E28.73427
G1 X114.053 Y79.537 E28.78321
G1 X114.901 Y80.478 E28.83215
G1 X115.534 Y81.575 E28.88109
G1 X115.925 Y82.779 E28.93003
G1 X116.058 Y84.038 E28.97897
G1 X115.925 Y85.298 E29.02791
G1 X115.534 Y86.502 E29.07685
G1 X114.106 Y88.976 E29.18722
G1 X129.011 Y88.976 E29.76324
G1 X129.466 Y87.575 E29.82017
G1 X130.099 Y86.478 E29.86911
G1 X130.947 Y85.537 E29.91805
G1 X131.971 Y84.792 E29.96699
G1 X133.128 Y84.277 E30.01593
G1 X134.367 Y84.014 E30.06486
G1 X135.633 Y84.014 E30.11381
G1 X136.872 Y84.277 E30.16274
G1 X138.029 Y84.792 E30.21168
G1 X139.053 Y85.537 E30.26062
G1 X139.901 Y86.478 E30.30956
G1 X140.534 Y87.575 E30.35850
G1 X140.925 Y88.779 E30.40743
G1 X141.058 Y90.038 E30.45637
G1 X140.925 Y91.298 E30.50531
G1 X140.534 Y92.502 E30.55425
G1 X139.901 Y93.599 E30.60319
G1 X139.053 Y94.540 E30.65213
G1 X138.029 Y95.284 E30.70107
G1 X136.957 Y95.761 E30.74639
G1 X137.066 Y96.397 F9000.000
G1 X135.699 Y96.688 F840.000 E30.80039
G1 X134.301 Y96.688 E30.85441
G1 X132.934 Y96.397 E30.90843
G1 X131.657 Y95.828 E30.96244
G1 X130.526 Y95.007 E31.01646
G1 X129.591 Y93.968 E31.07047
G1 X128.892 Y92.758 E31.12449
G1 X128.557 Y91.726 E31.16642
G1 X41.443 Y91.726 E34.53294
G1 X41.108 Y92.758 E34.57486
G1 X40.409 Y93.968 E34.62888
G1 X39.474 Y95.007 E34.68289
G1 X38.343 Y95.828 E34.73691
G1 X37.066 Y96.397 E34.79092
G1 X35.699 Y96.688 E34.84494
G1 X34.301 Y96.688 E34.89895
G1 X32.934 Y96.397 E34.95297
G1 X31.657 Y95.828 E35.00698
G1 X30.526 Y95.007 E35.06100
G1 X29.591 Y93.968 E35.11501
G1 X28.892 Y92.758 E35.16903
G1 X28.460 Y91.428 E35.22304
G1 X28.314 Y90.038 E35.27706
G1 X28.468 Y88.574 E35.33397
G1 X28.485 Y88.574 E35.33460
G1 X28.892 Y87.319 E35.38559
G1 X29.591 Y86.109 E35.43960
G1 X30.526 Y85.070 E35.49362
G1 X31.657 Y84.248 E35.54763
G1 X32.934 Y83.680 E35.60165
G1 X34.301 Y83.389 E35.65566
G1 X35.699 Y83.389 E35.70968
G1 X37.066 Y83.680 E35.76369
G1 X38.343 Y84.248 E35.81771
G1 X39.474 Y85.070 E35.87172
G1 X40.409 Y86.109 E35.92574
G1 X41.108 Y87.319 E35.97975
G1 X41.443 Y88.351 E36.02168
G1 X104.812 Y88.351 E38.47058
G1 X103.892 Y86.758 E38.54166
G1 X103.460 Y85.428 E38.59568
G1 X103.314 Y84.038 E38.64969
G1 X103.460 Y82.648 E38.70371
G1 X103.892 Y81.319 E38.75772
G1 X104.591 Y80.109 E38.81174
G1 X105.526 Y79.070 E38.86575
G1 X106.657 Y78.248 E38.91977
G1 X107.934 Y77.680 E38.97378
G1 X109.301 Y77.389 E39.02780
G1 X110.699 Y77.389 E39.08181
G1 X112.066 Y77.680 E39.13583
G1 X113.343 Y78.248 E39.18984
G1 X114.474 Y79.070 E39.24386
G1 X115.409 Y80.109 E39.29787
G1 X116.108 Y81.319 E39.35189
G1 X116.540 Y82.648 E39.40590
G1 X116.686 Y84.038 E39.45992
G1 X116.540 Y85.428 E39.51393
G1 X116.108 Y86.758 E39.56795
G1 X115.188 Y88.351 E39.63904
