; generated by Slic3r 0.9.9 on 2013-05-27 at 19:11:18

; layer_height = 0.21
; perimeters = 2
; top_solid_layers = 2
; bottom_solid_layers = 2
; fill_density = 0.2
; perimeter_speed = 35
; infill_speed = 45
; travel_speed = 150
; nozzle_diameter = 0.35
; filament_diameter = 2.8
; extrusion_multiplier = 1.088
; perimeters extrusion width = 0.49mm
; infill extrusion width = 0.49mm
; solid infill extrusion width = 0.49mm
; top infill extrusion width = 0.49mm
; support material extrusion width = 0.49mm
; first layer extrusion width = 0.42mm

G21 ; set units to millimeters
M190 S70 ; wait for bed temperature to be reached
M104 S200 ; set temperature
G28 ; home all axes
M109 S200 ; wait for temperature to be reached
G90 ; use absolute coordinates
G92 E0
M82 ; use absolute distances for extrusion
M106 S331
G1 F600.000 E-1.00000
G92 E0
G1 Z0.210 F9000.000
G1 X132.450 Y120.747
G1 F600.000 E1.00000
G1 X133.095 Y120.279 F720.000 E1.01197
G1 X133.822 Y119.955 E1.02394
G1 X134.602 Y119.789 E1.03592
G1 X135.398 Y119.789 E1.04788
G1 X136.178 Y119.955 E1.05986
G1 X136.905 Y120.279 E1.07183
G1 X137.550 Y120.747 E1.08380
G1 X138.083 Y121.339 E1.09577
G1 X138.481 Y122.029 E1.10774
G1 X138.727 Y122.787 E1.11971
G1 X138.811 Y123.579 E1.13169
G1 X138.801 Y123.669 E1.13305
G1 X138.727 Y124.371 E1.14366
G1 X138.481 Y125.129 E1.15563
G1 X138.083 Y125.819 E1.16760
G1 X137.550 Y126.411 E1.17958
G1 X136.906 Y126.879 E1.19154
G1 X136.178 Y127.203 E1.20351
G1 X135.398 Y127.369 E1.21550
G1 X134.602 Y127.369 E1.22746
G1 X133.822 Y127.203 E1.23943
G1 X133.095 Y126.879 E1.25140
G1 X132.450 Y126.411 E1.26337
G1 X131.917 Y125.819 E1.27535
G1 X131.519 Y125.129 E1.28732
G1 X131.272 Y124.371 E1.29929
G1 X131.189 Y123.579 E1.31126
G1 X131.272 Y122.787 E1.32323
G1 X131.519 Y122.029 E1.33520
G1 X131.917 Y121.339 E1.34718
G1 X132.409 Y120.792 E1.35824
G1 X132.723 Y121.050 F9000.000
G1 X133.298 Y120.631 F720.000 E1.36893
G1 X133.948 Y120.342 E1.37962
G1 X134.644 Y120.194 E1.39031
G1 X135.355 Y120.194 E1.40100
G1 X136.052 Y120.342 E1.41170
G1 X136.702 Y120.631 E1.42239
G1 X137.277 Y121.050 E1.43308
G1 X137.754 Y121.578 E1.44378
G1 X138.109 Y122.195 E1.45446
G1 X138.329 Y122.871 E1.46516
G1 X138.399 Y123.627 E1.47656
G1 X138.329 Y124.287 E1.48653
G1 X138.109 Y124.963 E1.49722
G1 X137.754 Y125.580 E1.50791
G1 X137.277 Y126.108 E1.51861
G1 X136.702 Y126.527 E1.52930
G1 X136.052 Y126.816 E1.53999
G1 X135.355 Y126.964 E1.55069
G1 X134.644 Y126.964 E1.56137
G1 X133.948 Y126.816 E1.57207
G1 X133.298 Y126.527 E1.58276
G1 X132.723 Y126.108 E1.59345
G1 X132.246 Y125.580 E1.60414
G1 X131.891 Y124.963 E1.61484
G1 X131.671 Y124.287 E1.62553
G1 X131.596 Y123.579 E1.63622
G1 X131.671 Y122.871 E1.64691
G1 X131.891 Y122.195 E1.65761
G1 X132.246 Y121.578 E1.66830
G1 X132.682 Y121.095 E1.67808
G1 X132.652 Y120.651 F9000.000
G1 X132.522 Y120.785
G1 X128.646 Y122.079
G1 X38.739 Y123.598
G1 X38.811 Y123.579
G1 X38.728 Y124.371 F720.000 E1.69005
G1 X38.481 Y125.129 E1.70202
G1 X38.083 Y125.819 E1.71399
G1 X37.550 Y126.411 E1.72597
G1 X36.905 Y126.879 E1.73794
G1 X36.178 Y127.203 E1.74991
G1 X35.398 Y127.369 E1.76188
G1 X34.602 Y127.369 E1.77385
G1 X33.822 Y127.203 E1.78582
G1 X33.095 Y126.879 E1.79780
G1 X32.450 Y126.411 E1.80977
G1 X31.917 Y125.819 E1.82174
G1 X31.519 Y125.129 E1.83371
G1 X31.272 Y124.371 E1.84568
G1 X31.189 Y123.579 E1.85765
G1 X31.272 Y122.787 E1.86963
G1 X31.519 Y122.029 E1.88160
G1 X31.917 Y121.339 E1.89357
G1 X32.450 Y120.747 E1.90554
G1 X33.095 Y120.279 E1.91751
G1 X33.739 Y119.992 E1.92812
G1 X33.822 Y119.955 E1.92948
G1 X34.602 Y119.789 E1.94146
G1 X35.398 Y119.789 E1.95343
G1 X36.178 Y119.955 E1.96540
G1 X36.905 Y120.279 E1.97737
G1 X37.550 Y120.747 E1.98934
G1 X38.083 Y121.339 E2.00131
G1 X38.481 Y122.029 E2.01329
G1 X38.728 Y122.787 E2.02526
G1 X38.804 Y123.519 E2.03632
G1 X38.404 Y123.579 F9000.000
G1 X38.329 Y124.287 F720.000 E2.04701
G1 X38.109 Y124.963 E2.05770
G1 X37.754 Y125.580 E2.06839
G1 X37.277 Y126.108 E2.07909
G1 X36.702 Y126.527 E2.08978
G1 X36.052 Y126.816 E2.10047
G1 X35.356 Y126.964 E2.11116
G1 X34.644 Y126.964 E2.12186
G1 X33.948 Y126.816 E2.13255
G1 X33.298 Y126.527 E2.14324
G1 X32.723 Y126.108 E2.15393
G1 X32.246 Y125.580 E2.16463
G1 X31.891 Y124.963 E2.17532
G1 X31.671 Y124.287 E2.18601
G1 X31.596 Y123.579 E2.19670
G1 X31.671 Y122.871 E2.20740
G1 X31.891 Y122.195 E2.21809
G1 X32.246 Y121.578 E2.22878
G1 X32.723 Y121.050 E2.23947
G1 X33.298 Y120.631 E2.25017
G1 X33.904 Y120.362 E2.26013
G1 X34.644 Y120.194 E2.27154
G1 X35.356 Y120.194 E2.28223
G1 X36.052 Y120.342 E2.29292
G1 X36.702 Y120.631 E2.30361
G1 X37.277 Y121.050 E2.31431
G1 X37.754 Y121.578 E2.32500
G1 X38.109 Y122.195 E2.33569
G1 X38.329 Y122.871 E2.34638
G1 X38.397 Y123.519 E2.35616
G1 X38.747 Y123.794 F9000.000
G1 X38.739 Y123.598
G1 X128.646 Y125.079
G1 X134.457 Y127.228
G1 X139.358 Y128.379
G1 X139.275 Y128.327
G1 X138.195 Y129.112 F840.000 E2.37623
G1 X136.974 Y129.655 E2.39631
G1 X135.668 Y129.933 E2.41637
G1 X134.332 Y129.933 E2.43645
G1 X133.026 Y129.655 E2.45652
G1 X131.805 Y129.112 E2.47659
G1 X130.725 Y128.327 E2.49666
G1 X129.831 Y127.334 E2.51674
G1 X129.163 Y126.178 E2.53681
G1 X128.771 Y124.972 E2.55587
G1 X41.229 Y124.972 E3.87137
G1 X40.837 Y126.178 E3.89043
G1 X40.169 Y127.334 E3.91050
G1 X39.275 Y128.327 E3.93057
G1 X38.195 Y129.112 E3.95064
G1 X36.974 Y129.655 E3.97072
G1 X35.668 Y129.933 E3.99079
G1 X34.332 Y129.933 E4.01086
G1 X33.026 Y129.655 E4.03093
G1 X31.805 Y129.112 E4.05100
G1 X30.725 Y128.327 E4.07107
G1 X29.831 Y127.334 E4.09115
G1 X29.163 Y126.178 E4.11122
G1 X28.750 Y124.907 E4.13129
G1 X28.611 Y123.579 E4.15136
G1 X28.750 Y122.251 E4.17143
G1 X29.163 Y120.980 E4.19150
G1 X29.831 Y119.824 E4.21158
G1 X30.725 Y118.831 E4.23165
G1 X31.805 Y118.046 E4.25172
G1 X33.026 Y117.503 E4.27179
G1 X34.332 Y117.225 E4.29186
G1 X35.668 Y117.225 E4.31193
G1 X36.974 Y117.503 E4.33201
G1 X38.195 Y118.046 E4.35208
G1 X39.275 Y118.831 E4.37215
G1 X40.169 Y119.824 E4.39222
G1 X40.837 Y120.980 E4.41229
G1 X41.229 Y122.186 E4.43135
G1 X128.771 Y122.186 E5.74686
G1 X129.163 Y120.980 E5.76591
G1 X129.831 Y119.824 E5.78599
G1 X130.725 Y118.831 E5.80606
G1 X131.805 Y118.046 E5.82613
G1 X133.026 Y117.503 E5.84620
G1 X134.332 Y117.225 E5.86627
G1 X135.668 Y117.225 E5.88635
G1 X136.974 Y117.503 E5.90641
G1 X138.195 Y118.046 E5.92649
G1 X139.275 Y118.831 E5.94656
G1 X140.169 Y119.824 E5.96663
G1 X140.837 Y120.980 E5.98670
G1 X141.250 Y122.251 E6.00677
G1 X141.389 Y123.579 E6.02685
G1 X141.250 Y124.907 E6.04692
G1 X140.837 Y126.178 E6.06699
G1 X140.169 Y127.334 E6.08706
G1 X139.316 Y128.282 E6.10622
G1 X139.548 Y128.630 F9000.000
G1 X138.398 Y129.465 F840.000 E6.12757
G1 X137.100 Y130.043 E6.14892
G1 X135.711 Y130.338 E6.17027
G1 X134.290 Y130.338 E6.19162
G1 X132.900 Y130.043 E6.21297
G1 X131.602 Y129.465 E6.23433
G1 X130.452 Y128.630 E6.25568
G1 X129.502 Y127.574 E6.27703
G1 X128.791 Y126.343 E6.29838
G1 X128.477 Y125.377 E6.31366
G1 X41.523 Y125.377 E7.62032
G1 X41.209 Y126.343 E7.63559
G1 X40.498 Y127.574 E7.65694
G1 X39.548 Y128.630 E7.67830
G1 X38.398 Y129.465 E7.69965
G1 X37.100 Y130.043 E7.72100
G1 X35.710 Y130.338 E7.74235
G1 X34.290 Y130.338 E7.76370
G1 X32.900 Y130.043 E7.78505
G1 X31.602 Y129.465 E7.80640
G1 X30.452 Y128.630 E7.82775
G1 X29.502 Y127.574 E7.84910
G1 X28.779 Y126.307 E7.87101
G1 X28.352 Y124.992 E7.89179
G1 X28.204 Y123.579 E7.91314
G1 X28.352 Y122.166 E7.93449
G1 X28.791 Y120.815 E7.95585
G1 X29.502 Y119.584 E7.97720
G1 X30.452 Y118.528 E7.99855
G1 X31.602 Y117.693 E8.01990
G1 X32.900 Y117.115 E8.04125
G1 X34.290 Y116.820 E8.06260
G1 X35.710 Y116.820 E8.08395
G1 X37.100 Y117.115 E8.10530
G1 X38.398 Y117.693 E8.12665
G1 X39.548 Y118.528 E8.14800
G1 X40.498 Y119.584 E8.16935
G1 X41.209 Y120.815 E8.19071
G1 X41.523 Y121.781 E8.20598
G1 X128.477 Y121.781 E9.51264
G1 X128.791 Y120.815 E9.52792
G1 X129.502 Y119.584 E9.54927
G1 X130.452 Y118.528 E9.57062
G1 X131.602 Y117.693 E9.59197
G1 X132.900 Y117.115 E9.61332
G1 X134.375 Y116.802 E9.63599
G1 X134.375 Y116.820 E9.63626
G1 X135.711 Y116.820 E9.65633
G1 X137.100 Y117.115 E9.67768
G1 X138.398 Y117.693 E9.69903
G1 X139.548 Y118.528 E9.72038
G1 X140.498 Y119.584 E9.74173
G1 X141.209 Y120.815 E9.76308
G1 X141.648 Y122.166 E9.78443
G1 X141.796 Y123.579 E9.80578
G1 X141.648 Y124.992 E9.82714
G1 X141.209 Y126.343 E9.84849
G1 X140.498 Y127.574 E9.86984
G1 X139.588 Y128.585 E9.89027
G1 X139.167 Y128.491 F9000.000
G1 X135.835 Y129.598
G1 X133.714 Y127.477 F1080.000 E9.93549
G1 X134.449 Y127.637 E9.94683
G1 X136.309 Y129.497 E9.98649
G1 X136.783 Y129.396 E9.99379
G1 X135.049 Y127.662 E10.03075
G1 X135.590 Y127.628 E10.03892
G1 X137.197 Y129.235 E10.07318
G1 X137.594 Y129.058 E10.07974
G1 X136.064 Y127.528 E10.11237
G1 X136.494 Y127.384 E10.11922
G1 X137.992 Y128.881 E10.15114
G1 X138.334 Y128.648 E10.15738
G1 X136.892 Y127.207 E10.18812
G1 X137.251 Y126.991 E10.19443
G1 X138.667 Y128.407 E10.22461
G1 X138.999 Y128.165 E10.23081
G1 X137.584 Y126.749 E10.26100
G1 X137.886 Y126.477 E10.26713
G1 X139.286 Y127.877 E10.29698
G1 X139.558 Y127.574 E10.30311
G1 X138.158 Y126.174 E10.33296
G1 X138.406 Y125.847 E10.33914
G1 X139.830 Y127.272 E10.36952
G1 X140.063 Y126.930 E10.37575
G1 X138.616 Y125.483 E10.40661
G1 X138.801 Y125.094 E10.41311
G1 X140.274 Y126.566 E10.44451
G1 X140.484 Y126.202 E10.45085
G1 X138.942 Y124.660 E10.48372
G1 X139.042 Y124.186 E10.49103
G1 X140.652 Y125.796 E10.52536
G1 X140.793 Y125.362 E10.53224
G1 X139.097 Y123.666 E10.56841
G1 X139.050 Y123.044 E10.57781
G1 X140.934 Y124.928 E10.61798
G1 X141.005 Y124.425 E10.62565
G1 X138.877 Y122.296 E10.67103
G1 X138.324 Y121.169 E10.68996
G1 X141.060 Y123.905 E10.74828
G1 X141.069 Y123.339 E10.75681
G1 X135.248 Y117.518 E10.88092
G1 X134.673 Y117.518 E10.88958
G1 X137.511 Y120.356 E10.95007
G1 X136.250 Y119.670 E10.97170
G1 X134.145 Y117.565 E11.01659
G1 X133.671 Y117.665 E11.02389
G1 X135.521 Y119.515 E11.06333
G1 X134.927 Y119.496 E11.07229
G1 X133.197 Y117.766 E11.10917
G1 X132.787 Y117.930 E11.11583
G1 X134.390 Y119.534 E11.15002
G1 X133.917 Y119.635 E11.15733
G1 X132.389 Y118.107 E11.18989
G1 X131.992 Y118.284 E11.19645
G1 X133.489 Y119.782 E11.22838
G1 X133.092 Y119.959 E11.23494
G1 X131.652 Y118.520 E11.26563
G1 X131.320 Y118.761 E11.27183
G1 X132.735 Y120.177 E11.30201
G1 X132.402 Y120.419 E11.30821
G1 X130.987 Y119.003 E11.33839
G1 X130.703 Y119.294 E11.34451
G1 X132.103 Y120.694 E11.37436
G1 X131.831 Y120.996 E11.38050
G1 X130.431 Y119.596 E11.41034
G1 X130.158 Y119.899 E11.41648
G1 X131.586 Y121.326 E11.44691
G1 X131.375 Y121.690 E11.45325
G1 X129.928 Y120.243 E11.48411
G1 X129.718 Y120.607 E11.49045
G1 X131.193 Y122.082 E11.52190
G1 X131.052 Y122.516 E11.52877
G1 X129.507 Y120.971 E11.56170
G1 X129.342 Y121.380 E11.56836
G1 X130.956 Y122.994 E11.60276
G1 X130.901 Y123.514 E11.61064
G1 X129.201 Y121.814 E11.64689
G1 X129.060 Y122.247 E11.65376
G1 X130.953 Y124.141 E11.69412
G1 X131.135 Y124.897 E11.70584
G1 X128.718 Y122.480 E11.75737
G1 X128.143 Y122.480 E11.76603
G1 X131.881 Y126.218 E11.84572
G1 X132.403 Y126.739 F9000.000
G1 X135.303 Y129.640 F1080.000 E11.90756
G1 X134.728 Y129.640 E11.91622
G1 X127.569 Y122.480 E12.06887
G1 X126.994 Y122.480 E12.07753
G1 X134.097 Y129.583 E12.22897
G1 X133.368 Y129.428 E12.24022
G1 X129.161 Y125.221 E12.32991
G1 X128.618 Y124.678 F9000.000
G1 X126.420 Y122.480 F1080.000 E12.37677
G1 X125.845 Y122.480 E12.38543
G1 X128.043 Y124.678 E12.43230
G1 X127.469 Y124.678 E12.44096
G1 X125.270 Y122.480 E12.48782
G1 X124.696 Y122.480 E12.49648
G1 X126.894 Y124.678 E12.54335
G1 X126.319 Y124.678 E12.55201
G1 X124.121 Y122.480 E12.59887
G1 X123.547 Y122.480 E12.60753
G1 X125.745 Y124.678 E12.65440
G1 X125.170 Y124.678 E12.66306
G1 X122.972 Y122.480 E12.70992
G1 X122.398 Y122.480 E12.71859
G1 X124.596 Y124.678 E12.76545
G1 X124.021 Y124.678 E12.77411
G1 X121.823 Y122.480 E12.82097
G1 X121.248 Y122.480 E12.82964
G1 X123.447 Y124.678 E12.87650
G1 X122.872 Y124.678 E12.88516
G1 X120.674 Y122.480 E12.93202
G1 X120.099 Y122.480 E12.94069
G1 X122.297 Y124.678 E12.98755
G1 X121.723 Y124.678 E12.99621
G1 X119.525 Y122.480 E13.04308
G1 X118.950 Y122.480 E13.05174
G1 X121.148 Y124.678 E13.09860
G1 X120.574 Y124.678 E13.10726
G1 X118.376 Y122.480 E13.15413
G1 X117.801 Y122.480 E13.16279
G1 X119.999 Y124.678 E13.20965
G1 X119.424 Y124.678 E13.21831
G1 X117.226 Y122.480 E13.26518
G1 X116.652 Y122.480 E13.27384
G1 X118.850 Y124.678 E13.32070
G1 X118.275 Y124.678 E13.32936
G1 X116.077 Y122.480 E13.37623
G1 X115.503 Y122.480 E13.38489
G1 X117.701 Y124.678 E13.43175
G1 X117.126 Y124.678 E13.44042
G1 X114.928 Y122.480 E13.48728
G1 X114.354 Y122.480 E13.49594
G1 X116.552 Y124.678 E13.54280
G1 X115.977 Y124.678 E13.55147
G1 X113.779 Y122.480 E13.59833
G1 X113.204 Y122.480 E13.60699
G1 X115.402 Y124.678 E13.65386
G1 X114.828 Y124.678 E13.66252
G1 X112.630 Y122.480 E13.70938
G1 X112.055 Y122.480 E13.71804
G1 X114.253 Y124.678 E13.76491
G1 X113.679 Y124.678 E13.77357
G1 X111.481 Y122.480 E13.82043
G1 X110.906 Y122.480 E13.82909
G1 X113.104 Y124.678 E13.87596
G1 X112.530 Y124.678 E13.88462
G1 X110.332 Y122.480 E13.93148
G1 X109.757 Y122.480 E13.94014
G1 X111.955 Y124.678 E13.98701
G1 X111.380 Y124.678 E13.99567
G1 X109.182 Y122.480 E14.04253
G1 X108.608 Y122.480 E14.05120
G1 X110.806 Y124.678 E14.09806
G1 X110.231 Y124.678 E14.10672
G1 X108.033 Y122.480 E14.15358
G1 X107.459 Y122.480 E14.16225
G1 X109.657 Y124.678 E14.20911
G1 X109.082 Y124.678 E14.21777
G1 X106.884 Y122.480 E14.26463
G1 X106.309 Y122.480 E14.27330
G1 X108.508 Y124.678 E14.32016
G1 X107.933 Y124.678 E14.32882
G1 X105.735 Y122.480 E14.37569
G1 X105.160 Y122.480 E14.38435
G1 X107.358 Y124.678 E14.43121
G1 X106.784 Y124.678 E14.43987
G1 X104.586 Y122.480 E14.48674
G1 X104.011 Y122.480 E14.49540
G1 X106.209 Y124.678 E14.54226
G1 X105.635 Y124.678 E14.55092
G1 X103.437 Y122.480 E14.59779
G1 X102.862 Y122.480 E14.60645
G1 X105.060 Y124.678 E14.65331
G1 X104.486 Y124.678 E14.66197
G1 X102.287 Y122.480 E14.70884
G1 X101.713 Y122.480 E14.71750
G1 X103.911 Y124.678 E14.76436
G1 X103.336 Y124.678 E14.77303
G1 X101.138 Y122.480 E14.81989
G1 X100.564 Y122.480 E14.82855
G1 X102.762 Y124.678 E14.87541
G1 X102.187 Y124.678 E14.88408
G1 X99.989 Y122.480 E14.93094
G1 X99.415 Y122.480 E14.93960
G1 X101.613 Y124.678 E14.98647
G1 X101.038 Y124.678 E14.99513
G1 X98.840 Y122.480 E15.04199
G1 X98.265 Y122.480 E15.05065
G1 X100.464 Y124.678 E15.09752
G1 X99.889 Y124.678 E15.10618
G1 X97.691 Y122.480 E15.15304
G1 X97.116 Y122.480 E15.16170
G1 X99.314 Y124.678 E15.20857
G1 X98.740 Y124.678 E15.21723
G1 X96.542 Y122.480 E15.26409
G1 X95.967 Y122.480 E15.27275
G1 X98.165 Y124.678 E15.31962
G1 X97.591 Y124.678 E15.32828
G1 X95.393 Y122.480 E15.37514
G1 X94.818 Y122.480 E15.38381
G1 X97.016 Y124.678 E15.43067
G1 X96.442 Y124.678 E15.43933
G1 X94.243 Y122.480 E15.48619
G1 X93.669 Y122.480 E15.49486
G1 X95.867 Y124.678 E15.54172
G1 X95.292 Y124.678 E15.55038
G1 X93.094 Y122.480 E15.59724
G1 X92.520 Y122.480 E15.60591
G1 X94.718 Y124.678 E15.65277
G1 X94.143 Y124.678 E15.66143
G1 X91.945 Y122.480 E15.70830
G1 X91.371 Y122.480 E15.71696
G1 X93.569 Y124.678 E15.76382
G1 X92.994 Y124.678 E15.77248
G1 X90.796 Y122.480 E15.81935
G1 X90.221 Y122.480 E15.82801
G1 X92.420 Y124.678 E15.87487
G1 X91.845 Y124.678 E15.88353
G1 X89.647 Y122.480 E15.93040
G1 X89.072 Y122.480 E15.93906
G1 X91.270 Y124.678 E15.98592
G1 X90.696 Y124.678 E15.99458
G1 X88.498 Y122.480 E16.04145
G1 X87.923 Y122.480 E16.05011
G1 X90.121 Y124.678 E16.09697
G1 X89.547 Y124.678 E16.10564
G1 X87.349 Y122.480 E16.15250
G1 X86.774 Y122.480 E16.16116
G1 X88.972 Y124.678 E16.20802
G1 X88.398 Y124.678 E16.21669
G1 X86.199 Y122.480 E16.26355
G1 X85.625 Y122.480 E16.27221
G1 X87.823 Y124.678 E16.31908
G1 X87.248 Y124.678 E16.32774
G1 X85.050 Y122.480 E16.37460
G1 X84.476 Y122.480 E16.38326
G1 X86.674 Y124.678 E16.43013
G1 X86.099 Y124.678 E16.43879
G1 X83.901 Y122.480 E16.48565
G1 X83.327 Y122.480 E16.49431
G1 X85.525 Y124.678 E16.54118
G1 X84.950 Y124.678 E16.54984
G1 X82.752 Y122.480 E16.59670
G1 X82.177 Y122.480 E16.60536
