; generated by Slic3r 0.9.9 on 2013-05-19 at 02:38:41

; layer_height = 0.21
; perimeters = 1
; top_solid_layers = 3
; bottom_solid_layers = 3
; fill_density = 0.2
; perimeter_speed = 35
; infill_speed = 45
; travel_speed = 150
; nozzle_diameter = 0.35
; filament_diameter = 2.8
; extrusion_multiplier = 1.088
; perimeters extrusion width = 0.49mm
; infill extrusion width = 0.49mm
; solid infill extrusion width = 0.49mm
; top infill extrusion width = 0.49mm
; first layer extrusion width = 0.70mm

G21 ; set units to millimeters
M190 S70 ; wait for bed temperature to be reached
M104 S200 ; set temperature
G28 ; home all axes
M109 S200 ; wait for temperature to be reached
G90 ; use absolute coordinates
G92 E0
M82 ; use absolute distances for extrusion
M106 S331
G1 F600.000 E-1.00000
G92 E0
G1 Z0.350 F9000.000
G1 X132.157 Y89.962
G1 F600.000 E1.00000
G1 X132.649 Y89.416 F720.000 E1.02839
G1 X133.243 Y88.984 E1.05678
G1 X133.914 Y88.685 E1.08517
G1 X134.633 Y88.532 E1.11357
G1 X135.367 Y88.532 E1.14194
G1 X136.086 Y88.685 E1.17035
G1 X136.757 Y88.984 E1.19874
G1 X137.351 Y89.416 E1.22712
G1 X137.843 Y89.962 E1.25552
G1 X138.210 Y90.598 E1.28391
G1 X138.437 Y91.297 E1.31230
G1 X138.514 Y92.027 E1.34069
G1 X138.437 Y92.758 E1.36908
G1 X138.210 Y93.457 E1.39747
G1 X137.843 Y94.093 E1.42586
G1 X137.351 Y94.639 E1.45426
G1 X136.757 Y95.071 E1.48264
G1 X136.086 Y95.370 E1.51103
G1 X135.367 Y95.522 E1.53944
G1 X134.633 Y95.522 E1.56782
G1 X133.914 Y95.370 E1.59621
G1 X133.243 Y95.071 E1.62460
G1 X132.649 Y94.639 E1.65299
G1 X132.157 Y94.093 E1.68138
G1 X131.790 Y93.457 E1.70977
G1 X131.563 Y92.758 E1.73816
G1 X131.486 Y92.027 E1.76655
G1 X131.563 Y91.297 E1.79494
G1 X131.790 Y90.598 E1.82333
G1 X132.110 Y90.043 E1.84810
G1 X131.923 Y89.382 F9000.000
G1 X132.522 Y89.233
G1 X114.025 Y88.527
G1 X113.665 Y86.807
G1 X113.437 Y86.758
G1 X113.210 Y87.457 F720.000 E1.87649
G1 X112.843 Y88.093 E1.90488
G1 X112.351 Y88.639 E1.93328
G1 X111.757 Y89.071 E1.96167
G1 X111.086 Y89.370 E1.99006
G1 X110.367 Y89.522 E2.01845
G1 X109.633 Y89.522 E2.04684
G1 X108.914 Y89.370 E2.07523
G1 X108.243 Y89.071 E2.10362
G1 X107.649 Y88.639 E2.13201
G1 X107.157 Y88.093 E2.16040
G1 X106.790 Y87.457 E2.18879
G1 X106.563 Y86.758 E2.21718
G1 X106.486 Y86.027 E2.24558
G1 X106.563 Y85.297 E2.27397
G1 X106.790 Y84.598 E2.30236
G1 X107.157 Y83.962 E2.33075
G1 X107.649 Y83.416 E2.35914
G1 X108.243 Y82.984 E2.38753
G1 X108.914 Y82.685 E2.41592
G1 X109.633 Y82.532 E2.44431
G1 X110.367 Y82.532 E2.47270
G1 X111.086 Y82.685 E2.50110
G1 X111.757 Y82.984 E2.52949
G1 X112.351 Y83.416 E2.55788
G1 X112.843 Y83.962 E2.58627
G1 X113.210 Y84.598 E2.61466
G1 X113.437 Y85.297 E2.64305
G1 X113.514 Y86.027 E2.67144
G1 X113.447 Y86.665 E2.69621
G1 X113.887 Y87.192 F9000.000
G1 X113.665 Y86.807
G1 X114.025 Y88.527
G1 X111.892 Y89.248
G1 X109.665 Y89.721
G1 X38.747 Y92.027
G1 X38.514 Y92.027
G1 X38.437 Y92.758 F720.000 E2.72460
G1 X38.210 Y93.457 E2.75299
G1 X37.843 Y94.093 E2.78138
G1 X37.351 Y94.639 E2.80977
G1 X36.757 Y95.071 E2.83816
G1 X36.086 Y95.370 E2.86656
G1 X35.367 Y95.522 E2.89495
G1 X34.633 Y95.522 E2.92334
G1 X33.914 Y95.370 E2.95173
G1 X33.243 Y95.071 E2.98012
G1 X32.649 Y94.639 E3.00851
G1 X32.157 Y94.093 E3.03690
G1 X31.790 Y93.457 E3.06529
G1 X31.563 Y92.758 E3.09368
G1 X31.486 Y92.027 E3.12207
G1 X31.563 Y91.297 E3.15047
G1 X31.790 Y90.598 E3.17886
G1 X32.157 Y89.962 E3.20725
G1 X32.649 Y89.416 E3.23564
G1 X33.243 Y88.984 E3.26403
G1 X33.843 Y88.717 E3.28941
G1 X33.914 Y88.685 E3.29242
G1 X34.633 Y88.532 E3.32081
G1 X35.367 Y88.532 E3.34920
G1 X36.086 Y88.685 E3.37759
G1 X36.757 Y88.984 E3.40598
G1 X37.351 Y89.416 E3.43438
G1 X37.843 Y89.962 E3.46277
G1 X38.210 Y90.598 E3.49116
G1 X38.437 Y91.297 E3.51955
G1 X38.504 Y91.934 E3.54432
G1 X39.044 Y92.359 F9000.000
G1 X37.786 Y88.965
G1 X107.101 Y88.965 F840.000 E6.22300
G1 X107.228 Y89.106 E6.23034
G1 X107.929 Y89.615 E6.26380
G1 X108.720 Y89.967 E6.29727
G1 X109.567 Y90.147 E6.33074
G1 X110.433 Y90.147 E6.36421
G1 X111.280 Y89.967 E6.39768
G1 X112.071 Y89.615 E6.43114
G1 X112.772 Y89.106 E6.46461
G1 X112.899 Y88.965 E6.47195
G1 X132.214 Y88.965 E7.21838
G1 X131.649 Y89.592 E7.25102
G1 X131.216 Y90.342 E7.28449
G1 X130.948 Y91.166 E7.31795
G1 X130.858 Y92.027 E7.35142
G1 X130.948 Y92.889 E7.38490
G1 X131.216 Y93.712 E7.41836
G1 X131.649 Y94.462 E7.45182
G1 X132.214 Y95.090 E7.48447
G1 X37.786 Y95.090 E11.13364
G1 X38.351 Y94.462 E11.16629
G1 X38.784 Y93.712 E11.19975
G1 X39.052 Y92.889 E11.23322
G1 X39.142 Y92.027 E11.26669
G1 X39.052 Y91.166 E11.30016
G1 X38.784 Y90.342 E11.33362
G1 X38.351 Y89.593 E11.36709
G1 X37.849 Y89.034 E11.39611
G1 X37.853 Y88.340 F9000.000
G1 X105.851 Y88.340 F840.000 E14.02392
G1 X105.417 Y87.002 E14.07829
G1 X105.314 Y86.027 E14.11615
G1 X105.417 Y85.053 E14.15401
G1 X105.708 Y84.157 E14.19041
G1 X106.209 Y83.273 E14.22969
G1 X106.865 Y82.545 E14.26755
G1 X107.657 Y81.969 E14.30540
G1 X108.552 Y81.571 E14.34326
G1 X109.510 Y81.367 E14.38112
G1 X110.490 Y81.367 E14.41897
G1 X111.448 Y81.571 E14.45683
G1 X112.343 Y81.969 E14.49469
G1 X113.135 Y82.545 E14.53255
G1 X113.791 Y83.273 E14.57040
G1 X114.281 Y84.121 E14.60826
G1 X114.583 Y85.053 E14.64612
G1 X114.686 Y86.027 E14.68397
G1 X114.583 Y87.002 E14.72183
G1 X114.149 Y88.340 E14.77621
G1 X132.147 Y88.340 E15.47176
G1 X132.657 Y87.969 E15.49612
G1 X133.552 Y87.571 E15.53397
G1 X134.510 Y87.367 E15.57183
G1 X135.490 Y87.367 E15.60970
G1 X136.448 Y87.571 E15.64754
G1 X137.343 Y87.969 E15.68540
G1 X138.136 Y88.545 E15.72327
G1 X138.791 Y89.273 E15.76111
G1 X139.281 Y90.122 E15.79898
G1 X139.584 Y91.053 E15.83683
G1 X139.686 Y92.027 E15.87469
G1 X139.584 Y93.002 E15.91255
G1 X139.281 Y93.933 E15.95040
G1 X138.791 Y94.782 E15.98827
G1 X138.136 Y95.510 E16.02611
G1 X137.343 Y96.085 E16.06398
G1 X136.448 Y96.484 E16.10184
G1 X135.490 Y96.688 E16.13968
G1 X134.510 Y96.688 E16.17755
G1 X133.552 Y96.484 E16.21541
G1 X132.657 Y96.085 E16.25327
G1 X132.147 Y95.715 E16.27763
G1 X37.853 Y95.715 E19.92163
G1 X37.343 Y96.085 E19.94599
G1 X36.448 Y96.484 E19.98385
G1 X35.490 Y96.688 E20.02171
G1 X34.510 Y96.688 E20.05956
G1 X33.552 Y96.484 E20.09742
G1 X32.657 Y96.085 E20.13528
G1 X31.865 Y95.510 E20.17313
G1 X31.209 Y94.782 E20.21099
G1 X30.719 Y93.933 E20.24885
G1 X30.417 Y93.002 E20.28671
G1 X30.314 Y92.027 E20.32456
G1 X30.417 Y91.053 E20.36242
G1 X30.719 Y90.121 E20.40028
G1 X31.209 Y89.273 E20.43813
G1 X31.865 Y88.545 E20.47599
G1 X32.657 Y87.969 E20.51385
G1 X33.552 Y87.571 E20.55170
G1 X34.510 Y87.367 E20.58956
G1 X35.490 Y87.367 E20.62742
G1 X36.535 Y87.589 E20.66871
G1 X36.535 Y87.610 E20.66950
G1 X37.343 Y87.969 E20.70367
G1 X37.777 Y88.285 E20.72441
G1 X38.046 Y88.934 F9000.000
G1 X38.774 Y94.637
G1 X39.098 Y94.074 F1080.000 E20.74965
G1 X39.662 Y94.637 E20.78057
G1 X40.550 Y94.637 E20.81505
G1 X39.350 Y93.437 E20.88092
G1 X39.525 Y92.724 E20.90943
G1 X41.437 Y94.637 E21.01447
G1 X42.325 Y94.637 E21.04894
G1 X39.584 Y91.896 E21.19947
G1 X39.425 Y90.849 E21.24059
G1 X43.213 Y94.637 E21.44860
G1 X44.101 Y94.637 E21.48308
G1 X38.882 Y89.418 E21.76969
G1 X39.770 Y89.418 E21.80417
G1 X44.989 Y94.637 E22.09078
G1 X45.877 Y94.637 E22.12526
G1 X40.658 Y89.418 E22.41188
G1 X41.546 Y89.418 E22.44635
G1 X46.765 Y94.637 E22.73297
G1 X47.653 Y94.637 E22.76744
G1 X42.433 Y89.418 E23.05406
G1 X43.321 Y89.418 E23.08853
G1 X48.541 Y94.637 E23.37515
G1 X49.429 Y94.637 E23.40962
G1 X44.209 Y89.418 E23.69624
G1 X45.097 Y89.418 E23.73072
G1 X50.317 Y94.637 E24.01733
G1 X51.205 Y94.637 E24.05181
G1 X45.985 Y89.418 E24.33842
G1 X46.873 Y89.418 E24.37290
G1 X52.093 Y94.637 E24.65951
G1 X52.981 Y94.637 E24.69399
G1 X47.761 Y89.418 E24.98060
G1 X48.649 Y89.418 E25.01508
G1 X53.868 Y94.637 E25.30169
G1 X54.756 Y94.637 E25.33617
G1 X49.537 Y89.418 E25.62278
G1 X50.425 Y89.418 E25.65726
G1 X55.644 Y94.637 E25.94387
G1 X56.532 Y94.637 E25.97835
G1 X51.313 Y89.418 E26.26496
G1 X52.201 Y89.418 E26.29944
G1 X57.420 Y94.637 E26.58605
G1 X58.308 Y94.637 E26.62053
G1 X53.089 Y89.418 E26.90714
G1 X53.977 Y89.418 E26.94162
G1 X59.196 Y94.637 E27.22823
G1 X60.084 Y94.637 E27.26271
G1 X54.864 Y89.418 E27.54933
G1 X55.752 Y89.418 E27.58380
G1 X60.972 Y94.637 E27.87042
G1 X61.860 Y94.637 E27.90489
G1 X56.640 Y89.418 E28.19151
G1 X57.528 Y89.418 E28.22598
G1 X62.748 Y94.637 E28.51260
G1 X63.636 Y94.637 E28.54707
G1 X58.416 Y89.418 E28.83369
G1 X59.304 Y89.418 E28.86817
G1 X64.524 Y94.637 E29.15478
G1 X65.412 Y94.637 E29.18926
G1 X60.192 Y89.418 E29.47587
G1 X61.080 Y89.418 E29.51035
G1 X66.299 Y94.637 E29.79696
G1 X67.187 Y94.637 E29.83144
G1 X61.968 Y89.418 E30.11805
G1 X62.856 Y89.418 E30.15253
G1 X68.075 Y94.637 E30.43914
G1 X68.963 Y94.637 E30.47362
G1 X63.744 Y89.418 E30.76023
G1 X64.632 Y89.418 E30.79471
G1 X69.851 Y94.637 E31.08132
G1 X70.739 Y94.637 E31.11580
G1 X65.520 Y89.418 E31.40241
G1 X66.408 Y89.418 E31.43689
G1 X71.627 Y94.637 E31.72350
G1 X72.515 Y94.637 E31.75798
G1 X67.295 Y89.418 E32.04459
G1 X68.183 Y89.418 E32.07907
G1 X73.403 Y94.637 E32.36568
G1 X74.291 Y94.637 E32.40016
G1 X69.071 Y89.418 E32.68678
G1 X69.959 Y89.418 E32.72125
G1 X75.179 Y94.637 E33.00787
G1 X76.067 Y94.637 E33.04234
G1 X70.847 Y89.418 E33.32896
G1 X71.735 Y89.418 E33.36343
G1 X76.955 Y94.637 E33.65005
G1 X77.843 Y94.637 E33.68452
G1 X72.623 Y89.418 E33.97114
G1 X73.511 Y89.418 E34.00561
G1 X78.730 Y94.637 E34.29223
G1 X79.618 Y94.637 E34.32671
G1 X74.399 Y89.418 E34.61332
G1 X75.287 Y89.418 E34.64780
G1 X80.506 Y94.637 E34.93441
G1 X81.394 Y94.637 E34.96889
G1 X76.175 Y89.418 E35.25550
G1 X77.063 Y89.418 E35.28998
G1 X82.282 Y94.637 E35.57659
G1 X83.170 Y94.637 E35.61107
G1 X77.951 Y89.418 E35.89768
G1 X78.839 Y89.418 E35.93216
G1 X84.058 Y94.637 E36.21877
G1 X84.946 Y94.637 E36.25325
G1 X79.726 Y89.418 E36.53986
G1 X80.614 Y89.418 E36.57434
G1 X85.834 Y94.637 E36.86095
G1 X86.722 Y94.637 E36.89543
G1 X81.502 Y89.418 E37.18204
G1 X82.390 Y89.418 E37.21652
G1 X87.610 Y94.637 E37.50313
G1 X88.498 Y94.637 E37.53761
G1 X83.278 Y89.418 E37.82422
G1 X84.166 Y89.418 E37.85870
G1 X89.386 Y94.637 E38.14532
G1 X90.274 Y94.637 E38.17979
G1 X85.054 Y89.418 E38.46641
G1 X85.942 Y89.418 E38.50088
G1 X91.161 Y94.637 E38.78750
G1 X92.049 Y94.637 E38.82197
G1 X86.830 Y89.418 E39.10859
G1 X87.718 Y89.418 E39.14306
G1 X92.937 Y94.637 E39.42968
G1 X93.825 Y94.637 E39.46415
G1 X88.606 Y89.418 E39.75077
G1 X89.494 Y89.418 E39.78525
G1 X94.713 Y94.637 E40.07186
G1 X95.601 Y94.637 E40.10634
G1 X90.382 Y89.418 E40.39295
G1 X91.270 Y89.418 E40.42743
G1 X96.489 Y94.637 E40.71404
G1 X97.377 Y94.637 E40.74852
G1 X92.157 Y89.418 E41.03513
G1 X93.045 Y89.418 E41.06961
G1 X98.265 Y94.637 E41.35622
G1 X99.153 Y94.637 E41.39070
G1 X93.933 Y89.418 E41.67731
G1 X94.821 Y89.418 E41.71179
G1 X100.041 Y94.637 E41.99840
G1 X100.929 Y94.637 E42.03288
G1 X95.709 Y89.418 E42.31949
G1 X96.597 Y89.418 E42.35397
G1 X101.817 Y94.637 E42.64058
G1 X102.705 Y94.637 E42.67506
G1 X97.485 Y89.418 E42.96167
G1 X98.373 Y89.418 E42.99615
G1 X103.592 Y94.637 E43.28276
G1 X104.480 Y94.637 E43.31724
G1 X99.261 Y89.418 E43.60385
G1 X100.149 Y89.418 E43.63833
G1 X105.368 Y94.637 E43.92495
G1 X106.256 Y94.637 E43.95942
G1 X101.037 Y89.418 E44.24604
G1 X101.925 Y89.418 E44.28051
G1 X107.144 Y94.637 E44.56713
G1 X108.032 Y94.637 E44.60160
G1 X102.813 Y89.418 E44.88822
G1 X103.701 Y89.418 E44.92269
G1 X108.920 Y94.637 E45.20931
G1 X109.808 Y94.637 E45.24378
G1 X104.588 Y89.418 E45.53040
G1 X105.476 Y89.418 E45.56488
G1 X110.696 Y94.637 E45.85149
G1 X111.584 Y94.637 E45.88597
G1 X106.364 Y89.418 E46.17258
G1 X107.959 Y90.124 E46.24029
G1 X112.472 Y94.637 E46.48811
G1 X113.360 Y94.637 E46.52259
G1 X109.270 Y90.547 E46.74719
G1 X110.211 Y90.600 E46.78378
G1 X114.248 Y94.637 E47.00547
G1 X115.136 Y94.637 E47.03994
G1 X110.990 Y90.492 E47.26757
G1 X111.674 Y90.288 E47.29528
G1 X116.023 Y94.637 E47.53412
G1 X116.911 Y94.637 E47.56860
G1 X112.288 Y90.014 E47.82246
G1 X112.804 Y89.642 E47.84716
G1 X117.799 Y94.637 E48.12145
G1 X118.687 Y94.637 E48.15593
G1 X113.468 Y89.418 E48.44254
G1 X114.356 Y89.418 E48.47702
G1 X119.575 Y94.637 E48.76363
G1 X120.463 Y94.637 E48.79811
G1 X115.244 Y89.418 E49.08472
G1 X116.132 Y89.418 E49.11920
G1 X121.351 Y94.637 E49.40581
G1 X122.239 Y94.637 E49.44029
G1 X117.019 Y89.418 E49.72690
G1 X117.907 Y89.418 E49.76138
G1 X123.127 Y94.637 E50.04799
G1 X124.015 Y94.637 E50.08247
G1 X118.795 Y89.418 E50.36908
G1 X119.683 Y89.418 E50.40356
G1 X124.903 Y94.637 E50.69017
G1 X125.791 Y94.637 E50.72465
G1 X120.571 Y89.418 E51.01126
G1 X121.459 Y89.418 E51.04574
G1 X126.679 Y94.637 E51.33235
G1 X127.567 Y94.637 E51.36683
G1 X122.347 Y89.418 E51.65344
G1 X123.235 Y89.418 E51.68792
G1 X128.454 Y94.637 E51.97453
G1 X129.342 Y94.637 E52.00901
G1 X124.123 Y89.418 E52.29563
G1 X125.011 Y89.418 E52.33010
G1 X130.230 Y94.637 E52.61672
G1 X131.118 Y94.637 E52.65119
G1 X125.899 Y89.418 E52.93781
G1 X126.787 Y89.418 E52.97228
G1 X130.575 Y93.206 E53.18030
G1 X130.416 Y92.159 E53.22141
G1 X127.675 Y89.418 E53.37194
G1 X128.563 Y89.418 E53.40642
G1 X130.475 Y91.330 E53.51145
G1 X130.650 Y90.617 E53.53996
G1 X129.450 Y89.418 E53.60584
G1 X130.338 Y89.418 E53.64032
G1 X130.902 Y89.981 E53.67124
G1 X131.226 Y89.418 E53.69648
G1 X132.114 Y88.527 F9000.000
G1 X34.693 Y95.727
G1 X32.006 Y95.352
G1 X32.169 Y95.172
G1 X32.534 Y95.115 F1080.000 E53.70329
G1 X33.292 Y95.873 E53.72307
G1 X33.539 Y95.698 E53.72865
G1 X33.946 Y96.105 E53.73928
G1 X34.144 Y95.881 E53.74480
G1 X34.482 Y96.219 E53.75362
G1 X34.659 Y95.975 E53.75919
G1 X34.920 Y96.235 E53.76599
G1 X35.081 Y95.975 E53.77164
G1 X35.342 Y96.235 E53.77844
G1 X35.488 Y95.959 E53.78420
G1 X35.707 Y96.179 E53.78993
G1 X35.835 Y95.885 E53.79584
G1 X36.055 Y96.105 E53.80157
G1 X36.183 Y95.811 E53.80748
G1 X36.388 Y96.016 E53.81281
G1 X36.679 Y95.886 E53.81870
G1 X36.482 Y95.688 E53.82385
G1 X36.774 Y95.558 E53.82974
G1 X36.971 Y95.756 E53.83489
G1 X37.180 Y95.542 E53.84039
G1 X37.239 Y95.602 E53.84194
G1 X37.858 Y95.527 F9000.000
G1 X34.693 Y95.727
G1 X34.439 Y95.673
G1 X31.968 Y94.228
G1 X31.875 Y94.455
G1 X31.119 Y93.700 F1080.000 E53.86165
G1 X31.322 Y93.481 E53.86716
G1 X30.916 Y93.075 E53.87774
G1 X31.119 Y92.856 E53.88325
G1 X30.825 Y92.562 E53.89091
G1 X31.068 Y92.384 E53.89647
G1 X30.776 Y92.091 E53.90411
G1 X31.041 Y91.934 E53.90979
G1 X30.804 Y91.697 E53.91598
G1 X31.081 Y91.553 E53.92174
G1 X30.844 Y91.316 E53.92793
G1 X31.126 Y91.176 E53.93374
G1 X30.919 Y90.969 E53.93913
G1 X31.230 Y90.858 E53.94521
G1 X31.023 Y90.651 E53.95061
G1 X31.333 Y90.539 E53.95669
G1 X31.126 Y90.333 E53.96208
G1 X31.277 Y90.061 E53.96781
G1 X31.467 Y90.252 E53.97278
G1 X31.622 Y89.984 E53.97848
G1 X31.431 Y89.794 E53.98346
G1 X31.588 Y89.529 E53.98914
G1 X31.776 Y89.717 E53.99405
G1 X31.972 Y89.491 E53.99956
G1 X31.788 Y89.307 E54.00438
G1 X31.987 Y89.085 E54.00989
G1 X32.172 Y89.269 E54.01470
G1 X32.378 Y89.053 E54.02020
G1 X32.191 Y88.867 E54.02507
G1 X32.436 Y88.689 E54.03064
G1 X32.622 Y88.876 E54.03550
G1 X32.867 Y88.698 E54.04108
G1 X32.680 Y88.512 E54.04594
G1 X32.932 Y88.342 E54.05155
G1 X33.129 Y88.539 E54.05670
G1 X33.421 Y88.409 E54.06259
G1 X33.224 Y88.212 E54.06774
G1 X33.516 Y88.082 E54.07363
G1 X33.713 Y88.279 E54.07878
G1 X33.830 Y87.974 E54.08480
G1 X34.049 Y88.194 E54.09054
G1 X34.178 Y87.900 E54.09645
G1 X34.397 Y88.120 E54.10218
G1 X34.526 Y87.826 E54.10809
G1 X34.779 Y88.080 E54.11470
G1 X34.941 Y87.820 E54.12036
G1 X35.201 Y88.080 E54.12715
G1 X35.362 Y87.820 E54.13281
G1 X35.679 Y88.136 E54.14107
G1 X35.876 Y87.912 E54.14658
G1 X36.215 Y88.250 E54.15541
G1 X36.456 Y88.070 E54.16096
G1 X36.899 Y88.512 E54.17251
G1 X37.321 Y88.512 E54.18030
G1 X106.383 Y88.512 F9000.000
G1 X106.814 Y88.512 F1080.000 E54.18843
G1 X106.175 Y87.873 E54.20548
G1 X106.374 Y87.640 E54.21125
G1 X105.968 Y87.234 E54.22208
G1 X106.166 Y87.001 E54.22785
G1 X105.837 Y86.672 E54.23663
G1 X106.079 Y86.483 E54.24243
G1 X105.786 Y86.190 E54.25024
G1 X106.033 Y86.006 E54.25605
G1 X105.796 Y85.769 E54.26237
G1 X106.074 Y85.616 E54.26836
G1 X105.837 Y85.379 E54.27468
G1 X106.115 Y85.225 E54.28067
