; generated by Slic3r 0.9.8 on 2013-03-18 at 23:43:02

; layer_height = 0.21
; perimeters = 2
; top_solid_layers = 4
; bottom_solid_layers = 4
; fill_density = 0.2
; perimeter_speed = 45
; infill_speed = 45
; travel_speed = 200
; scale = 1
; nozzle_diameter = 0.35
; filament_diameter = 2.8
; extrusion_multiplier = 1.088
; perimeters extrusion width = 0.49mm
; infill extrusion width = 0.49mm
; first layer extrusion width = 0.70mm

M107
M190 S70 ; wait for bed temperature to be reached
M104 S200 ; set temperature
G28 ; home all axes
M109 S200 ; wait for temperature to be reached
G90 ; use absolute coordinates
G21 ; set units to millimeters
G92 E0
M82 ; use absolute distances for extrusion
G1 F600.000 E-1.00000
G92 E0
G1 Z0.350 F12000.000
G1 X102.342 Y123.112
G1 F600.000 E1.00000
G1 X101.292 Y123.862 F1350.000 E1.04987
G1 X99.722 Y124.862 E1.12180
G1 X98.082 Y125.762 E1.19409
G1 X97.482 Y126.062 E1.22002
G1 X96.302 Y126.592 E1.27001
G1 X94.562 Y127.262 E1.34206
G1 X94.042 Y127.442 E1.36333
G1 X92.812 Y127.822 E1.41308
G1 X92.172 Y127.992 E1.43867
G1 X90.342 Y128.402 E1.51114
G1 X89.072 Y128.612 E1.56089
G1 X88.422 Y128.692 E1.58620
G1 X86.642 Y128.842 E1.65523
G1 X85.352 Y128.892 E1.70512
G1 X84.632 Y128.892 E1.73294
G1 X82.832 Y128.812 E1.80257
G1 X81.122 Y128.632 E1.86902
G1 X79.722 Y128.412 E1.92379
G1 X79.072 Y128.282 E1.94941
G1 X77.822 Y127.992 E1.99899
G1 X77.182 Y127.822 E2.02459
G1 X75.952 Y127.442 E2.07434
G1 X74.252 Y126.822 E2.14427
G1 X73.652 Y126.582 E2.16924
G1 X72.482 Y126.052 E2.21888
G1 X71.912 Y125.762 E2.24359
G1 X70.452 Y124.962 E2.30793
G1 X69.242 Y124.222 E2.36274
G1 X68.662 Y123.832 E2.38975
G1 X67.622 Y123.082 E2.43930
G1 X66.212 Y121.962 E2.50889
G1 X65.692 Y121.512 E2.53546
G1 X64.852 Y120.722 E2.58003
G1 X63.492 Y119.292 E2.65629
G1 X63.102 Y118.852 E2.67901
G1 X61.872 Y117.342 E2.75428
G1 X61.122 Y116.292 E2.80414
G1 X60.192 Y114.822 E2.87136
G1 X59.902 Y114.332 E2.89337
G1 X59.232 Y113.092 E2.94784
G1 X58.932 Y112.482 E2.97411
G1 X58.202 Y110.822 E3.04419
G1 X57.742 Y109.622 E3.09385
G1 X57.522 Y108.972 E3.12037
G1 X57.152 Y107.742 E3.17001
G1 X57.002 Y107.172 E3.19278
G1 X56.592 Y105.342 E3.26526
G1 X56.382 Y104.072 E3.31500
G1 X56.182 Y102.212 E3.38730
G1 X56.132 Y101.572 E3.41211
G1 X56.092 Y100.282 E3.46198
G1 X56.132 Y98.422 E3.53388
G1 X56.182 Y97.782 E3.55869
G1 X56.382 Y95.922 E3.63098
G1 X56.592 Y94.652 E3.68073
G1 X57.002 Y92.822 E3.75320
G1 X57.152 Y92.252 E3.77598
G1 X57.522 Y91.022 E3.82562
G1 X57.732 Y90.392 E3.85128
G1 X58.412 Y88.652 E3.92347
G1 X58.942 Y87.482 E3.97311
G1 X59.802 Y85.832 E4.04502
G1 X60.102 Y85.312 E4.06822
G1 X60.782 Y84.212 E4.11819
G1 X61.152 Y83.662 E4.14381
G1 X62.252 Y82.162 E4.21569
G1 X63.072 Y81.162 E4.26567
G1 X63.502 Y80.672 E4.29086
G1 X64.742 Y79.382 E4.36001
G1 X65.672 Y78.502 E4.40949
G1 X66.162 Y78.072 E4.43469
G1 X67.162 Y77.252 E4.48466
G1 X68.662 Y76.152 E4.55655
G1 X69.212 Y75.782 E4.58216
G1 X70.832 Y74.802 E4.65533
G1 X71.962 Y74.202 E4.70478
G1 X72.482 Y73.942 E4.72724
G1 X73.652 Y73.412 E4.77688
G1 X74.182 Y73.192 E4.79906
G1 X75.392 Y72.732 E4.84908
G1 X76.022 Y72.522 E4.87475
G1 X77.252 Y72.152 E4.92438
G1 X79.072 Y71.712 E4.99674
G1 X79.652 Y71.592 E5.01963
G1 X80.922 Y71.382 E5.06938
G1 X82.782 Y71.182 E5.14167
G1 X83.422 Y71.132 E5.16648
G1 X84.702 Y71.092 E5.21597
G1 X86.472 Y71.142 E5.28440
G1 X87.002 Y71.172 E5.30491
G1 X88.412 Y71.302 E5.35963
G1 X89.072 Y71.382 E5.38533
G1 X90.342 Y71.592 E5.43507
G1 X92.042 Y71.972 E5.50239
G1 X93.922 Y72.512 E5.57798
G1 X94.622 Y72.742 E5.60646
G1 X95.822 Y73.202 E5.65612
G1 X97.482 Y73.932 E5.72620
G1 X98.032 Y74.202 E5.74988
G1 X99.162 Y74.802 E5.79932
G1 X99.722 Y75.122 E5.82425
G1 X100.812 Y75.802 E5.87389
G1 X102.222 Y76.792 E5.94047
G1 X102.712 Y77.162 E5.96420
G1 X103.812 Y78.062 E6.01913
G1 X105.212 Y79.352 E6.09270
G1 X105.642 Y79.782 E6.11620
G1 X106.932 Y81.182 E6.18976
G1 X107.742 Y82.172 E6.23920
G1 X108.832 Y83.662 E6.31054
G1 X109.202 Y84.212 E6.33616
G1 X110.152 Y85.782 E6.40707
G1 X111.052 Y87.482 E6.48141
G1 X111.582 Y88.652 E6.53105
G1 X111.822 Y89.252 E6.55602
G1 X112.442 Y90.952 E6.62595
G1 X112.822 Y92.182 E6.67570
G1 X112.992 Y92.822 E6.70129
G1 X113.402 Y94.652 E6.77376
G1 X113.612 Y95.922 E6.82351
G1 X113.692 Y96.572 E6.84882
G1 X113.812 Y97.852 E6.89850
G1 X113.892 Y99.632 E6.96736
G1 X113.892 Y100.352 E6.99518
G1 X113.812 Y102.142 E7.06443
G1 X113.692 Y103.422 E7.11411
G1 X113.612 Y104.072 E7.13942
G1 X113.402 Y105.342 E7.18916
G1 X112.992 Y107.172 E7.26164
G1 X112.822 Y107.812 E7.28723
G1 X112.442 Y109.042 E7.33698
G1 X112.262 Y109.562 E7.35824
G1 X111.592 Y111.302 E7.43030
G1 X111.062 Y112.482 E7.48029
G1 X110.762 Y113.082 E7.50621
G1 X109.862 Y114.722 E7.57851
G1 X108.862 Y116.292 E7.65044
G1 X108.112 Y117.342 E7.70031
G1 X106.932 Y118.812 E7.77315
G1 X106.522 Y119.272 E7.79697
G1 X105.642 Y120.212 E7.84673
G1 X105.212 Y120.642 E7.87023
G1 X104.272 Y121.522 E7.91999
G1 X103.812 Y121.932 E7.94380
G1 X102.416 Y123.055 E8.01303
G1 X102.342 Y123.112 E8.01665
G1 X101.972 Y122.602 F12000.000
G1 X100.482 Y123.652 F1350.000 E8.08709
G1 X99.392 Y124.332 E8.13674
G1 X97.792 Y125.212 E8.20731
G1 X97.222 Y125.492 E8.23185
G1 X95.542 Y126.232 E8.30279
G1 X94.342 Y126.682 E8.35232
G1 X92.632 Y127.222 E8.42162
G1 X92.032 Y127.382 E8.44562
G1 X90.242 Y127.782 E8.51650
G1 X88.972 Y127.992 E8.56624
G1 X88.372 Y128.072 E8.58963
G1 X86.612 Y128.222 E8.65790
G1 X85.322 Y128.272 E8.70779
G1 X84.652 Y128.272 E8.73368
G1 X82.892 Y128.192 E8.80176
G1 X81.742 Y128.082 E8.84641
G1 X81.222 Y128.012 E8.86668
G1 X79.822 Y127.792 E8.92145
G1 X79.212 Y127.672 E8.94548
G1 X77.962 Y127.382 E8.99507
G1 X77.362 Y127.222 E9.01906
G1 X76.132 Y126.842 E9.06881
G1 X74.462 Y126.232 E9.13752
G1 X73.912 Y126.012 E9.16041
G1 X72.742 Y125.482 E9.21005
G1 X70.782 Y124.432 E9.29598
G1 X69.572 Y123.692 E9.35079
G1 X69.032 Y123.332 E9.37587
G1 X67.992 Y122.582 E9.42542
G1 X66.602 Y121.472 E9.49417
G1 X66.122 Y121.052 E9.51882
G1 X64.912 Y119.892 E9.58359
G1 X63.942 Y118.862 E9.63827
G1 X62.762 Y117.462 E9.70903
G1 X62.382 Y116.972 E9.73299
G1 X61.632 Y115.922 E9.78286
G1 X60.722 Y114.492 E9.84836
G1 X60.452 Y114.032 E9.86897
G1 X59.782 Y112.792 E9.92344
G1 X59.502 Y112.222 E9.94798
G1 X58.972 Y111.042 E9.99797
G1 X58.332 Y109.402 E10.06600
G1 X58.122 Y108.792 E10.09094
G1 X57.752 Y107.562 E10.14057
G1 X57.612 Y107.032 E10.16176
G1 X57.212 Y105.242 E10.23264
G1 X57.002 Y103.972 E10.28238
G1 X56.802 Y102.152 E10.35314
G1 X56.762 Y101.552 E10.37638
G1 X56.722 Y100.262 E10.42626
G1 X56.762 Y98.442 E10.49661
G1 X56.802 Y97.842 E10.51984
G1 X57.002 Y96.022 E10.59060
G1 X57.212 Y94.752 E10.64035
G1 X57.612 Y92.962 E10.71123
G1 X57.752 Y92.432 E10.73241
G1 X58.122 Y91.202 E10.78205
G1 X58.322 Y90.622 E10.80576
G1 X58.982 Y88.912 E10.87659
G1 X59.512 Y87.742 E10.92623
G1 X59.752 Y87.262 E10.94697
G1 X60.632 Y85.632 E11.01856
G1 X61.312 Y84.532 E11.06853
G1 X62.402 Y82.992 E11.14144
G1 X63.552 Y81.562 E11.21236
G1 X63.962 Y81.102 E11.23617
G1 X64.842 Y80.172 E11.28565
G1 X66.102 Y78.962 E11.35316
G1 X66.562 Y78.552 E11.37698
G1 X67.992 Y77.402 E11.44789
G1 X69.532 Y76.312 E11.52080
G1 X70.632 Y75.632 E11.57078
G1 X72.262 Y74.752 E11.64236
G1 X72.742 Y74.512 E11.66310
G1 X73.912 Y73.982 E11.71274
G1 X75.622 Y73.322 E11.78358
G1 X76.202 Y73.122 E11.80729
G1 X77.432 Y72.752 E11.85692
G1 X77.962 Y72.612 E11.87811
G1 X79.752 Y72.212 E11.94899
G1 X81.022 Y72.002 E11.99873
G1 X82.842 Y71.802 E12.06949
G1 X83.442 Y71.762 E12.09273
G1 X84.722 Y71.722 E12.14222
G1 X85.292 Y71.722 E12.16425
G1 X86.452 Y71.762 E12.20910
G1 X88.352 Y71.922 E12.28279
G1 X88.972 Y72.002 E12.30695
G1 X90.242 Y72.212 E12.35669
G1 X91.902 Y72.582 E12.42242
G1 X93.742 Y73.112 E12.49641
G1 X94.402 Y73.332 E12.52330
G1 X96.042 Y73.972 E12.59133
G1 X97.222 Y74.502 E12.64132
G1 X97.732 Y74.752 E12.66327
G1 X99.392 Y75.652 E12.73625
G1 X100.482 Y76.332 E12.78589
G1 X101.862 Y77.302 E12.85108
G1 X102.312 Y77.642 E12.87288
G1 X103.412 Y78.542 E12.92780
G1 X103.842 Y78.922 E12.94998
G1 X104.782 Y79.802 E12.99974
G1 X105.192 Y80.212 E13.02215
G1 X106.072 Y81.152 E13.07191
G1 X106.452 Y81.582 E13.09408
G1 X107.262 Y82.572 E13.14351
G1 X107.582 Y82.992 E13.16392
G1 X108.672 Y84.532 E13.23683
G1 X109.352 Y85.632 E13.28681
G1 X110.212 Y87.202 E13.35599
G1 X110.482 Y87.742 E13.37932
G1 X111.012 Y88.912 E13.42896
G1 X111.682 Y90.672 E13.50173
G1 X112.222 Y92.362 E13.57030
G1 X112.382 Y92.962 E13.59429
G1 X112.782 Y94.752 E13.66517
G1 X112.992 Y96.022 E13.71492
G1 X113.072 Y96.622 E13.73831
G1 X113.222 Y98.372 E13.80619
G1 X113.272 Y99.652 E13.85569
G1 X113.272 Y100.322 E13.88159
G1 X113.222 Y101.612 E13.93147
G1 X113.072 Y103.372 E13.99974
G1 X112.992 Y103.972 E14.02313
G1 X112.782 Y105.242 E14.07287
G1 X112.382 Y107.032 E14.14376
G1 X112.222 Y107.632 E14.16775
G1 X111.682 Y109.342 E14.23705
G1 X111.232 Y110.542 E14.28658
G1 X110.492 Y112.222 E14.35752
G1 X110.212 Y112.792 E14.38206
G1 X109.332 Y114.392 E14.45263
G1 X108.652 Y115.482 E14.50228
G1 X107.602 Y116.972 E14.57272
G1 X107.262 Y117.422 E14.59452
G1 X106.452 Y118.412 E14.64395
G1 X106.072 Y118.842 E14.66613
G1 X105.192 Y119.782 E14.71589
G1 X104.782 Y120.192 E14.73830
G1 X103.842 Y121.072 E14.78806
G1 X103.412 Y121.452 E14.81023
G1 X102.422 Y122.262 E14.85966
G1 X102.047 Y122.545 E14.87784
G1 X101.972 Y122.602 E14.88146
G1 F600.000 E13.88146
G92 E0
G1 X91.862 Y109.166 F12000.000
G1 F600.000 E1.00000
G1 X91.190 Y109.633 F1350.000 E1.03159
G1 X90.488 Y110.050 E1.06317
G1 X89.757 Y110.415 E1.09476
G1 X89.001 Y110.728 E1.12635
G1 X88.226 Y110.986 E1.15794
G1 X87.434 Y111.189 E1.18952
G1 X86.630 Y111.334 E1.22111
G1 X85.817 Y111.421 E1.25270
G1 X85.000 Y111.450 E1.28429
G1 X84.183 Y111.421 E1.31588
G1 X83.346 Y111.329 E1.34843
G1 X82.566 Y111.189 E1.37905
G1 X81.774 Y110.986 E1.41063
G1 X80.998 Y110.728 E1.44222
G1 X80.243 Y110.415 E1.47381
G1 X79.512 Y110.050 E1.50540
G1 X78.810 Y109.633 E1.53698
G1 X78.138 Y109.166 E1.56857
G1 X77.502 Y108.653 E1.60016
G1 X76.903 Y108.097 E1.63175
G1 X76.347 Y107.498 E1.66333
G1 X75.834 Y106.862 E1.69492
G1 X75.367 Y106.190 E1.72651
G1 X74.950 Y105.488 E1.75809
G1 X74.585 Y104.757 E1.78968
G1 X74.272 Y104.001 E1.82127
G1 X74.014 Y103.226 E1.85286
G1 X73.811 Y102.434 E1.88444
G1 X73.708 Y101.863 E1.90686
G1 X70.000 Y104.004 E2.07234
G1 X66.532 Y102.002 E2.22709
G1 X66.532 Y97.998 E2.38183
G1 X70.000 Y95.996 E2.53656
G1 X73.708 Y98.137 E2.70206
G1 X73.811 Y97.566 E2.72449
G1 X74.014 Y96.774 E2.75607
G1 X74.272 Y95.999 E2.78766
G1 X74.585 Y95.243 E2.81925
G1 X74.950 Y94.512 E2.85084
G1 X75.367 Y93.810 E2.88242
G1 X75.834 Y93.138 E2.91401
G1 X76.347 Y92.502 E2.94560
G1 X76.903 Y91.903 E2.97719
G1 X77.502 Y91.346 E3.00877
G1 X78.138 Y90.834 E3.04036
G1 X78.810 Y90.367 E3.07195
G1 X79.512 Y89.950 E3.10353
G1 X80.243 Y89.585 E3.13512
G1 X80.999 Y89.272 E3.16671
G1 X81.774 Y89.014 E3.19830
G1 X82.542 Y88.818 E3.22891
G1 X83.370 Y88.666 E3.26147
G1 X84.183 Y88.579 E3.29306
G1 X85.000 Y88.550 E3.32464
G1 X85.817 Y88.579 E3.35623
G1 X86.630 Y88.666 E3.38782
G1 X87.434 Y88.811 E3.41941
G1 X88.226 Y89.014 E3.45099
G1 X89.001 Y89.272 E3.48258
G1 X89.757 Y89.585 E3.51417
G1 X90.488 Y89.950 E3.54576
G1 X91.190 Y90.367 E3.57734
G1 X91.862 Y90.834 E3.60893
G1 X92.498 Y91.346 E3.64052
G1 X93.097 Y91.903 E3.67211
G1 X93.653 Y92.502 E3.70369
G1 X94.166 Y93.138 E3.73528
G1 X94.633 Y93.810 E3.76687
G1 X95.050 Y94.512 E3.79845
G1 X95.415 Y95.243 E3.83004
G1 X95.728 Y95.999 E3.86163
G1 X95.986 Y96.774 E3.89322
G1 X96.189 Y97.566 E3.92480
G1 X96.292 Y98.137 E3.94722
G1 X100.000 Y95.996 E4.11270
G1 X103.468 Y97.998 E4.26745
G1 X103.468 Y102.002 E4.42218
G1 X100.000 Y104.004 E4.57692
G1 X96.292 Y101.863 E4.74241
G1 X96.189 Y102.434 E4.76482
G1 X95.986 Y103.226 E4.79641
G1 X95.728 Y104.001 E4.82800
G1 X95.404 Y104.779 E4.86055
G1 X95.050 Y105.488 E4.89117
G1 X94.633 Y106.190 E4.92276
G1 X94.166 Y106.862 E4.95435
G1 X93.653 Y107.498 E4.98593
G1 X93.097 Y108.097 E5.01752
G1 X92.498 Y108.653 E5.04910
G1 X91.935 Y109.108 E5.07707
G1 X91.862 Y109.166 E5.08069
G1 X91.929 Y109.788 F12000.000
G1 F600.000 E4.08069
G92 E0
G1 X66.137 Y102.495 F12000.000
G1 F600.000 E1.00000
G1 X70.000 Y104.726 F1350.000 E1.17237
G1 X73.270 Y102.838 E1.31828
G1 X73.414 Y103.402 E1.34078
G1 X73.686 Y104.220 E1.37409
G1 X74.016 Y105.016 E1.40740
G1 X74.402 Y105.787 E1.44071
G1 X74.841 Y106.529 E1.47403
G1 X75.333 Y107.237 E1.50734
G1 X75.874 Y107.908 E1.54065
G1 X76.461 Y108.539 E1.57396
G1 X77.092 Y109.126 E1.60727
G1 X77.763 Y109.667 E1.64059
G1 X78.471 Y110.159 E1.67390
G1 X79.213 Y110.598 E1.70721
G1 X79.984 Y110.984 E1.74052
G1 X80.780 Y111.314 E1.77383
G1 X81.598 Y111.586 E1.80715
G1 X82.433 Y111.800 E1.84046
G1 X83.281 Y111.953 E1.87377
G1 X84.138 Y112.045 E1.90708
G1 X85.000 Y112.076 E1.94040
G1 X85.861 Y112.045 E1.97371
G1 X86.719 Y111.953 E2.00702
G1 X87.567 Y111.800 E2.04033
G1 X88.402 Y111.586 E2.07364
G1 X89.220 Y111.314 E2.10696
G1 X89.973 Y111.002 E2.13844
G1 X90.787 Y110.598 E2.17358
G1 X91.529 Y110.159 E2.20689
G1 X92.237 Y109.667 E2.24020
G1 X92.908 Y109.126 E2.27352
G1 X93.539 Y108.539 E2.30683
G1 X94.126 Y107.908 E2.34014
G1 X94.667 Y107.237 E2.37345
G1 X95.159 Y106.528 E2.40677
G1 X95.598 Y105.787 E2.44008
G1 X95.984 Y105.016 E2.47339
G1 X96.314 Y104.220 E2.50670
G1 X96.586 Y103.402 E2.54001
G1 X96.730 Y102.838 E2.56251
G1 X100.000 Y104.726 E2.70842
G1 X103.863 Y102.495 E2.88079
G1 X103.662 Y103.712 E2.92844
G1 X103.379 Y104.925 E2.97656
G1 X103.018 Y106.116 E3.02468
G1 X102.579 Y107.282 E3.07280
G1 X102.065 Y108.416 E3.12092
G1 X101.478 Y109.514 E3.16903
G1 X100.821 Y110.571 E3.21715
G1 X100.096 Y111.583 E3.26527
G1 X99.306 Y112.546 E3.31339
G1 X98.530 Y113.374 E3.35723
G1 X97.546 Y114.306 E3.40962
G1 X96.583 Y115.096 E3.45773
G1 X95.571 Y115.821 E3.50585
G1 X94.514 Y116.478 E3.55397
G1 X93.416 Y117.065 E3.60209
G1 X92.282 Y117.579 E3.65021
G1 X91.116 Y118.018 E3.69833
G1 X89.925 Y118.379 E3.74644
G1 X88.712 Y118.662 E3.79456
G1 X87.484 Y118.865 E3.84268
G1 X86.244 Y118.987 E3.89080
G1 X85.000 Y119.028 E3.93892
G1 X83.756 Y118.987 E3.98703
G1 X82.516 Y118.865 E4.03515
G1 X81.288 Y118.662 E4.08327
G1 X80.075 Y118.379 E4.13139
G1 X78.884 Y118.018 E4.17951
G1 X77.718 Y117.579 E4.22763
G1 X76.584 Y117.065 E4.27574
G1 X75.486 Y116.478 E4.32386
G1 X74.429 Y115.821 E4.37198
G1 X73.417 Y115.096 E4.42010
G1 X72.454 Y114.306 E4.46822
G1 X71.546 Y113.455 E4.51633
G1 X70.694 Y112.546 E4.56445
G1 X69.975 Y111.669 E4.60829
G1 X69.179 Y110.571 E4.66068
G1 X68.522 Y109.514 E4.70880
G1 X67.935 Y108.416 E4.75692
G1 X67.421 Y107.282 E4.80504
G1 X66.982 Y106.116 E4.85316
G1 X66.621 Y104.925 E4.90127
G1 X66.338 Y103.712 E4.94939
G1 X66.152 Y102.588 E4.99342
G1 X66.137 Y102.495 E4.99704
G1 F600.000 E3.99704
G92 E0
G1 X89.925 Y81.621 F12000.000
G1 F600.000 E1.00000
G1 X91.116 Y81.982 F1350.000 E1.04812
G1 X92.282 Y82.421 E1.09624
G1 X93.416 Y82.935 E1.14435
G1 X94.514 Y83.522 E1.19247
G1 X95.477 Y84.121 E1.23631
G1 X96.583 Y84.904 E1.28870
G1 X97.546 Y85.694 E1.33682
G1 X98.455 Y86.545 E1.38493
G1 X99.306 Y87.454 E1.43305
G1 X100.096 Y88.417 E1.48117
G1 X100.821 Y89.429 E1.52929
G1 X101.478 Y90.486 E1.57741
G1 X102.065 Y91.584 E1.62553
G1 X102.579 Y92.718 E1.67364
G1 X103.018 Y93.884 E1.72176
G1 X103.379 Y95.075 E1.76988
G1 X103.662 Y96.288 E1.81800
G1 X103.863 Y97.505 E1.86565
G1 X99.999 Y95.274 E2.03804
G1 X96.730 Y97.162 E2.18393
G1 X96.586 Y96.598 E2.20642
G1 X96.314 Y95.780 E2.23974
G1 X95.984 Y94.984 E2.27305
G1 X95.598 Y94.213 E2.30636
G1 X95.159 Y93.472 E2.33967
G1 X94.637 Y92.726 E2.37481
G1 X94.126 Y92.092 E2.40629
G1 X93.539 Y91.461 E2.43960
G1 X92.908 Y90.874 E2.47292
G1 X92.237 Y90.333 E2.50623
G1 X91.529 Y89.841 E2.53954
G1 X90.787 Y89.402 E2.57285
G1 X90.016 Y89.016 E2.60617
G1 X89.220 Y88.686 E2.63948
G1 X88.402 Y88.414 E2.67279
G1 X87.567 Y88.200 E2.70610
G1 X86.719 Y88.047 E2.73942
G1 X85.861 Y87.955 E2.77273
G1 X85.000 Y87.924 E2.80604
G1 X84.139 Y87.955 E2.83936
G1 X83.281 Y88.047 E2.87267
G1 X82.433 Y88.200 E2.90598
G1 X81.598 Y88.414 E2.93929
G1 X80.780 Y88.686 E2.97261
