; generated by Slic3r 0.9.8 on 2013-03-23 at 00:01:42

; layer_height = 0.21
; perimeters = 2
; top_solid_layers = 4
; bottom_solid_layers = 4
; fill_density = 0.2
; perimeter_speed = 40
; infill_speed = 45
; travel_speed = 200
; scale = 1
; nozzle_diameter = 0.35
; filament_diameter = 2.8
; extrusion_multiplier = 1.088
; perimeters extrusion width = 0.49mm
; infill extrusion width = 0.49mm
; support material extrusion width = 0.49mm
; first layer extrusion width = 0.70mm

M107
M190 S70 ; wait for bed temperature to be reached
M104 S200 ; set temperature
G28 ; home all axes
M109 S200 ; wait for temperature to be reached
G90 ; use absolute coordinates
G21 ; set units to millimeters
G92 E0
M82 ; use absolute distances for extrusion
G1 F600.000 E-1.00000
G92 E0
G1 Z0.350 F12000.000
G1 X101.422 Y125.482
G1 F600.000 E1.00000
G1 X100.452 Y126.132 F960.000 E1.04512
G1 X99.972 Y126.412 E1.06660
G1 X98.852 Y126.962 E1.11482
G1 X94.272 Y128.862 E1.30644
G1 X93.052 Y129.272 E1.35618
G1 X92.512 Y129.412 E1.37774
G1 X91.402 Y129.632 E1.42147
G1 X86.482 Y130.282 E1.61325
G1 X85.272 Y130.362 E1.66011
G1 X84.722 Y130.362 E1.68137
G1 X83.512 Y130.282 E1.72823
G1 X78.582 Y129.632 E1.92040
G1 X77.432 Y129.402 E1.96572
G1 X76.902 Y129.262 E1.98691
G1 X75.722 Y128.872 E2.03493
G1 X71.132 Y126.972 E2.22691
G1 X70.012 Y126.412 E2.27530
G1 X69.532 Y126.132 E2.29678
G1 X68.552 Y125.472 E2.34244
G1 X64.622 Y122.452 E2.53398
G1 X63.802 Y121.742 E2.57589
G1 X63.402 Y121.352 E2.59748
G1 X62.522 Y120.362 E2.64867
G1 X59.502 Y116.422 E2.84052
G1 X58.782 Y115.322 E2.89132
G1 X58.512 Y114.842 E2.91260
G1 X58.032 Y113.852 E2.95512
G1 X56.132 Y109.272 E3.14674
G1 X55.762 Y108.212 E3.19013
G1 X55.612 Y107.672 E3.21179
G1 X55.352 Y106.382 E3.26264
G1 X54.712 Y101.462 E3.45438
G1 X54.632 Y100.272 E3.50047
G1 X54.632 Y99.722 E3.52173
G1 X54.712 Y98.532 E3.56782
G1 X55.352 Y93.602 E3.75994
G1 X55.622 Y92.272 E3.81238
G1 X55.772 Y91.742 E3.83367
G1 X56.122 Y90.722 E3.87534
G1 X58.022 Y86.132 E4.06732
G1 X58.512 Y85.142 E4.11001
G1 X58.782 Y84.662 E4.13129
G1 X59.512 Y83.552 E4.18263
G1 X62.532 Y79.622 E4.37417
G1 X63.322 Y78.722 E4.42045
G1 X63.722 Y78.322 E4.44231
G1 X64.622 Y77.532 E4.48859
G1 X68.552 Y74.512 E4.68013
G1 X69.662 Y73.782 E4.73147
G1 X70.142 Y73.512 E4.75275
G1 X71.132 Y73.022 E4.79544
G1 X75.722 Y71.122 E4.98742
G1 X76.742 Y70.772 E5.02909
G1 X77.272 Y70.622 E5.05038
G1 X78.602 Y70.352 E5.10282
G1 X83.532 Y69.712 E5.29494
G1 X84.722 Y69.632 E5.34103
G1 X85.272 Y69.632 E5.36229
G1 X86.462 Y69.712 E5.40838
G1 X91.382 Y70.352 E5.60012
G1 X92.672 Y70.612 E5.65097
G1 X93.212 Y70.762 E5.67263
G1 X94.272 Y71.132 E5.71602
G1 X98.852 Y73.032 E5.90764
G1 X99.842 Y73.512 E5.95016
G1 X100.322 Y73.782 E5.97144
G1 X101.422 Y74.502 E6.02225
G1 X105.362 Y77.522 E6.21409
G1 X106.352 Y78.402 E6.26528
G1 X106.742 Y78.802 E6.28687
G1 X107.452 Y79.622 E6.32878
G1 X110.472 Y83.552 E6.52032
G1 X111.132 Y84.532 E6.56598
G1 X111.412 Y85.012 E6.58746
G1 X111.972 Y86.132 E6.63585
G1 X113.872 Y90.722 E6.82783
G1 X114.262 Y91.902 E6.87585
G1 X114.402 Y92.432 E6.89704
G1 X114.632 Y93.582 E6.94236
G1 X115.282 Y98.512 E7.13453
G1 X115.362 Y99.722 E7.18139
G1 X115.362 Y100.272 E7.20265
G1 X115.282 Y101.482 E7.24951
G1 X114.632 Y106.402 E7.44130
G1 X114.412 Y107.512 E7.48503
G1 X114.272 Y108.052 E7.50658
G1 X113.862 Y109.272 E7.55632
G1 X111.962 Y113.852 E7.74794
G1 X111.412 Y114.972 E7.79616
G1 X111.132 Y115.452 E7.81764
G1 X110.482 Y116.422 E7.86276
G1 X107.462 Y120.362 E8.05461
G1 X106.662 Y121.272 E8.10143
G1 X106.272 Y121.662 E8.12274
G1 X105.362 Y122.462 E8.16957
G1 X101.496 Y125.425 E8.35779
G1 X101.422 Y125.482 E8.36141
G1 X101.042 Y124.992 F12000.000
G1 X100.142 Y125.592 F960.000 E8.40321
G1 X99.662 Y125.872 E8.42469
G1 X98.612 Y126.392 E8.46997
G1 X94.032 Y128.292 E8.66159
G1 X92.892 Y128.672 E8.70803
G1 X92.352 Y128.812 E8.72959
G1 X91.322 Y129.012 E8.77013
G1 X86.402 Y129.662 E8.96192
G1 X85.272 Y129.732 E9.00567
G1 X84.722 Y129.732 E9.02693
G1 X83.592 Y129.662 E9.07068
G1 X78.662 Y129.012 E9.26285
G1 X77.592 Y128.802 E9.30499
G1 X77.062 Y128.662 E9.32617
G1 X75.962 Y128.292 E9.37102
G1 X71.372 Y126.392 E9.56300
G1 X70.322 Y125.872 E9.60828
G1 X69.842 Y125.592 E9.62976
G1 X68.932 Y124.982 E9.67209
G1 X65.002 Y121.962 E9.86363
G1 X64.242 Y121.302 E9.90253
G1 X63.842 Y120.912 E9.92412
G1 X63.012 Y119.982 E9.97229
G1 X59.992 Y116.042 E10.16414
G1 X59.322 Y115.022 E10.21130
G1 X59.052 Y114.542 E10.23258
G1 X58.602 Y113.612 E10.27251
G1 X56.702 Y109.032 E10.46413
G1 X56.362 Y108.042 E10.50458
G1 X56.212 Y107.502 E10.52624
G1 X55.972 Y106.302 E10.57353
G1 X55.332 Y101.382 E10.76527
G1 X55.262 Y100.272 E10.80825
G1 X55.262 Y99.722 E10.82950
G1 X55.332 Y98.612 E10.87248
G1 X55.972 Y93.682 E11.06460
G1 X56.222 Y92.442 E11.11349
G1 X56.372 Y91.912 E11.13477
G1 X56.702 Y90.962 E11.17364
G1 X58.602 Y86.372 E11.36561
G1 X59.052 Y85.442 E11.40554
G1 X59.322 Y84.962 E11.42682
G1 X60.002 Y83.932 E11.47452
G1 X63.022 Y80.002 E11.66606
G1 X63.762 Y79.162 E11.70932
G1 X64.162 Y78.762 E11.73118
G1 X65.002 Y78.022 E11.77444
G1 X68.932 Y75.002 E11.96598
G1 X69.962 Y74.322 E12.01368
G1 X70.442 Y74.052 E12.03496
G1 X71.372 Y73.602 E12.07489
G1 X75.962 Y71.702 E12.26686
G1 X76.912 Y71.372 E12.30573
G1 X77.442 Y71.222 E12.32701
G1 X78.682 Y70.972 E12.37590
G1 X83.612 Y70.332 E12.56802
G1 X84.722 Y70.262 E12.61100
G1 X85.272 Y70.262 E12.63225
G1 X86.382 Y70.332 E12.67524
G1 X91.302 Y70.972 E12.86697
G1 X92.502 Y71.212 E12.91426
G1 X93.042 Y71.362 E12.93592
G1 X94.032 Y71.702 E12.97637
G1 X98.612 Y73.602 E13.16799
G1 X99.542 Y74.052 E13.20792
G1 X100.022 Y74.322 E13.22920
G1 X101.042 Y74.992 E13.27636
G1 X104.982 Y78.012 E13.46821
G1 X105.912 Y78.842 E13.51638
G1 X106.302 Y79.242 E13.53797
G1 X106.962 Y80.002 E13.57687
G1 X109.982 Y83.932 E13.76841
G1 X110.592 Y84.842 E13.81074
G1 X110.872 Y85.322 E13.83222
G1 X111.392 Y86.372 E13.87750
G1 X113.292 Y90.962 E14.06948
G1 X113.662 Y92.062 E14.11433
G1 X113.802 Y92.592 E14.13551
G1 X114.012 Y93.662 E14.17765
G1 X114.662 Y98.592 E14.36982
G1 X114.732 Y99.722 E14.41357
G1 X114.732 Y100.272 E14.43483
G1 X114.662 Y101.402 E14.47858
G1 X114.012 Y106.322 E14.67037
G1 X113.812 Y107.352 E14.71091
G1 X113.672 Y107.892 E14.73247
G1 X113.292 Y109.032 E14.77891
G1 X111.392 Y113.612 E14.97053
G1 X110.872 Y114.662 E15.01581
G1 X110.592 Y115.142 E15.03729
G1 X109.992 Y116.042 E15.07909
G1 X106.972 Y119.982 E15.27093
G1 X106.222 Y120.832 E15.31474
G1 X105.832 Y121.222 E15.33605
G1 X104.982 Y121.972 E15.37986
G1 X101.116 Y124.935 E15.56808
G1 X101.042 Y124.992 E15.57171
G1 F600.000 E14.57171
G92 E0
G1 X96.253 Y118.609 F12000.000
G1 F600.000 E1.00000
G1 X95.490 Y119.050 F960.000 E1.03408
G1 X95.161 Y119.053 E1.04680
G1 X94.403 Y118.632 E1.08031
G1 X93.726 Y118.190 E1.11153
G1 X92.943 Y117.564 E1.15027
G1 X92.421 Y117.042 E1.17879
G1 X92.279 Y116.868 E1.18750
G1 X91.780 Y117.074 E1.20835
G1 X91.803 Y117.299 E1.21709
G1 X91.803 Y118.036 E1.24558
G1 X91.687 Y119.063 E1.28550
G1 X91.521 Y119.845 E1.31640
G1 X91.288 Y120.657 E1.34906
G1 X91.053 Y120.888 E1.36177
G1 X90.198 Y121.117 E1.39598
G1 X89.874 Y121.030 E1.40894
G1 X89.001 Y120.153 E1.45677
G1 X88.724 Y119.833 E1.47311
G1 X88.298 Y119.276 E1.50023
G1 X87.868 Y118.591 E1.53150
G1 X87.659 Y118.178 E1.54937
G1 X87.136 Y118.246 E1.56975
G1 X87.041 Y118.700 E1.58767
G1 X86.802 Y119.473 E1.61893
G1 X86.536 Y120.121 E1.64602
G1 X86.169 Y120.845 E1.67736
G1 X85.727 Y121.581 E1.71054
G1 X85.441 Y121.743 E1.72326
G1 X84.559 Y121.743 E1.75733
G1 X84.273 Y121.581 E1.77005
G1 X83.839 Y120.859 E1.80260
G1 X83.636 Y120.478 E1.81927
G1 X83.464 Y120.121 E1.83458
G1 X83.198 Y119.473 E1.86167
G1 X82.959 Y118.700 E1.89292
G1 X82.864 Y118.246 E1.91085
G1 X82.341 Y118.177 E1.93122
G1 X82.132 Y118.591 E1.94913
G1 X81.702 Y119.276 E1.98039
G1 X81.276 Y119.833 E2.00751
G1 X81.014 Y120.137 E2.02299
G1 X80.126 Y121.030 E2.07168
G1 X79.802 Y121.117 E2.08465
G1 X78.947 Y120.888 E2.11885
G1 X78.712 Y120.657 E2.13156
G1 X78.474 Y119.823 E2.16508
G1 X78.308 Y119.033 E2.19627
G1 X78.197 Y118.036 E2.23504
G1 X78.197 Y117.299 E2.26353
G1 X78.220 Y117.074 E2.27227
G1 X77.721 Y116.868 E2.29313
G1 X77.579 Y117.043 E2.30183
G1 X77.057 Y117.564 E2.33035
G1 X76.274 Y118.191 E2.36909
G1 X75.597 Y118.632 E2.40032
G1 X74.839 Y119.053 E2.43382
G1 X74.510 Y119.050 E2.44654
G1 X73.747 Y118.609 E2.48062
G1 X73.580 Y118.325 E2.49334
G1 X73.565 Y117.467 E2.52651
G1 X73.607 Y116.676 E2.55712
G1 X73.703 Y115.962 E2.58495
G1 X73.882 Y115.174 E2.61620
G1 X74.026 Y114.734 E2.63411
G1 X73.604 Y114.409 E2.65470
G1 X73.420 Y114.541 E2.66348
G1 X72.785 Y114.908 E2.69181
G1 X72.178 Y115.188 E2.71764
G1 X71.830 Y115.324 E2.73209
G1 X71.095 Y115.563 E2.76194
G1 X70.254 Y115.774 E2.79544
G1 X69.937 Y115.687 E2.80817
G1 X69.311 Y115.061 E2.84236
G1 X69.225 Y114.737 E2.85532
G1 X69.554 Y113.520 E2.90402
G1 X69.687 Y113.142 E2.91953
G1 X69.955 Y112.496 E2.94657
G1 X70.334 Y111.780 E2.97786
G1 X70.587 Y111.392 E2.99577
G1 X70.266 Y110.974 E3.01615
G1 X69.826 Y111.118 E3.03405
G1 X69.038 Y111.297 E3.06530
G1 X68.324 Y111.393 E3.09313
G1 X67.533 Y111.435 E3.12374
G1 X66.675 Y111.420 E3.15691
G1 X66.391 Y111.253 E3.16963
G1 X65.950 Y110.490 E3.20371
G1 X65.947 Y110.161 E3.21643
G1 X66.368 Y109.403 E3.24993
G1 X66.809 Y108.726 E3.28116
G1 X67.436 Y107.943 E3.31990
G1 X67.957 Y107.421 E3.34842
G1 X68.132 Y107.279 E3.35712
G1 X67.926 Y106.780 E3.37798
G1 X67.701 Y106.803 E3.38672
G1 X66.964 Y106.803 E3.41521
G1 X65.967 Y106.692 E3.45398
G1 X65.177 Y106.526 E3.48517
G1 X64.343 Y106.288 E3.51869
G1 X64.112 Y106.053 E3.53140
G1 X63.883 Y105.198 E3.56560
G1 X63.970 Y104.874 E3.57857
G1 X64.863 Y103.986 E3.62726
G1 X65.167 Y103.724 E3.64274
G1 X65.724 Y103.298 E3.66986
G1 X66.409 Y102.868 E3.70112
G1 X66.822 Y102.659 E3.71900
G1 X66.754 Y102.136 E3.73938
G1 X66.300 Y102.041 E3.75730
G1 X65.527 Y101.802 E3.78855
G1 X64.879 Y101.536 E3.81564
G1 X64.522 Y101.364 E3.83095
G1 X64.141 Y101.161 E3.84762
G1 X63.419 Y100.727 E3.88017
G1 X63.257 Y100.441 E3.89289
G1 X63.257 Y99.559 E3.92696
G1 X63.419 Y99.273 E3.93968
G1 X64.163 Y98.827 E3.97320
G1 X64.883 Y98.462 E4.00440
G1 X65.817 Y98.097 E4.04316
G1 X66.529 Y97.906 E4.07164
G1 X66.753 Y97.869 E4.08041
G1 X66.823 Y97.341 E4.10100
G1 X66.409 Y97.132 E4.11891
G1 X65.724 Y96.702 E4.15017
G1 X65.167 Y96.276 E4.17729
G1 X64.863 Y96.014 E4.19277
G1 X63.970 Y95.126 E4.24146
G1 X63.883 Y94.802 E4.25443
G1 X64.112 Y93.947 E4.28863
G1 X64.343 Y93.712 E4.30134
G1 X65.177 Y93.474 E4.33486
G1 X65.967 Y93.308 E4.36605
G1 X66.964 Y93.197 E4.40482
G1 X67.701 Y93.197 E4.43331
G1 X67.926 Y93.220 E4.44205
G1 X68.132 Y92.721 E4.46291
G1 X67.957 Y92.579 E4.47161
G1 X67.436 Y92.057 E4.50013
G1 X66.809 Y91.274 E4.53887
G1 X66.368 Y90.597 E4.57010
G1 X65.947 Y89.839 E4.60360
G1 X65.950 Y89.510 E4.61632
G1 X66.391 Y88.747 E4.65040
G1 X66.675 Y88.580 E4.66312
G1 X67.533 Y88.565 E4.69629
G1 X68.324 Y88.607 E4.72690
G1 X69.038 Y88.703 E4.75473
G1 X69.826 Y88.882 E4.78598
G1 X70.266 Y89.026 E4.80389
G1 X70.588 Y88.609 E4.82425
G1 X70.334 Y88.220 E4.84219
G1 X69.955 Y87.504 E4.87348
G1 X69.687 Y86.858 E4.90052
G1 X69.554 Y86.479 E4.91603
G1 X69.225 Y85.263 E4.96473
G1 X69.311 Y84.939 E4.97770
G1 X69.937 Y84.313 E5.01188
G1 X70.254 Y84.226 E5.02461
G1 X71.095 Y84.437 E5.05811
G1 X71.830 Y84.676 E5.08796
G1 X72.178 Y84.812 E5.10242
G1 X72.785 Y85.092 E5.12824
G1 X73.420 Y85.459 E5.15657
G1 X73.603 Y85.591 E5.16532
G1 X74.026 Y85.266 E5.18593
G1 X73.882 Y84.826 E5.20383
G1 X73.703 Y84.038 E5.23508
G1 X73.607 Y83.324 E5.26291
G1 X73.565 Y82.533 E5.29351
G1 X73.580 Y81.675 E5.32669
G1 X73.747 Y81.391 E5.33941
G1 X74.510 Y80.950 E5.37348
G1 X74.839 Y80.947 E5.38621
G1 X75.597 Y81.368 E5.41971
G1 X76.274 Y81.809 E5.45094
G1 X77.057 Y82.436 E5.48968
G1 X77.579 Y82.957 E5.51820
G1 X77.721 Y83.132 E5.52690
G1 X78.220 Y82.926 E5.54776
G1 X78.197 Y82.701 E5.55650
G1 X78.197 Y81.964 E5.58499
G1 X78.308 Y80.967 E5.62376
G1 X78.474 Y80.177 E5.65495
G1 X78.712 Y79.343 E5.68847
G1 X78.947 Y79.112 E5.70118
G1 X79.802 Y78.883 E5.73538
G1 X80.126 Y78.970 E5.74835
G1 X81.014 Y79.863 E5.79704
G1 X81.276 Y80.167 E5.81252
G1 X81.702 Y80.724 E5.83964
G1 X82.132 Y81.409 E5.87090
G1 X82.341 Y81.822 E5.88878
G1 X82.864 Y81.754 E5.90916
G1 X82.959 Y81.300 E5.92708
G1 X83.198 Y80.527 E5.95833
G1 X83.464 Y79.879 E5.98542
G1 X83.831 Y79.155 E6.01677
G1 X84.273 Y78.419 E6.04994
G1 X84.559 Y78.257 E6.06266
G1 X85.441 Y78.257 E6.09674
G1 X85.727 Y78.419 E6.10946
G1 X86.162 Y79.144 E6.14212
G1 X86.526 Y79.856 E6.17301
G1 X86.903 Y80.817 E6.21293
G1 X87.094 Y81.529 E6.24141
G1 X87.131 Y81.753 E6.25018
G1 X87.659 Y81.823 E6.27077
G1 X87.868 Y81.409 E6.28868
G1 X88.298 Y80.724 E6.31994
G1 X88.724 Y80.167 E6.34707
G1 X88.986 Y79.863 E6.36254
G1 X89.874 Y78.970 E6.41123
G1 X90.198 Y78.883 E6.42420
G1 X91.053 Y79.112 E6.45840
G1 X91.288 Y79.343 E6.47111
G1 X91.526 Y80.177 E6.50464
G1 X91.692 Y80.967 E6.53582
G1 X91.803 Y81.964 E6.57459
G1 X91.803 Y82.701 E6.60308
G1 X91.780 Y82.926 E6.61182
G1 X92.279 Y83.132 E6.63268
G1 X92.421 Y82.957 E6.64138
G1 X92.943 Y82.436 E6.66990
G1 X93.726 Y81.809 E6.70864
G1 X94.403 Y81.368 E6.73987
G1 X95.161 Y80.947 E6.77337
G1 X95.490 Y80.950 E6.78610
G1 X96.253 Y81.391 E6.82017
G1 X96.420 Y81.675 E6.83289
G1 X96.435 Y82.533 E6.86607
G1 X96.393 Y83.324 E6.89667
G1 X96.297 Y84.038 E6.92450
G1 X96.118 Y84.826 E6.95576
G1 X95.974 Y85.266 E6.97366
G1 X96.391 Y85.588 E6.99403
G1 X96.780 Y85.334 E7.01196
G1 X97.496 Y84.956 E7.04325
G1 X98.142 Y84.687 E7.07029
G1 X98.521 Y84.554 E7.08580
G1 X99.737 Y84.225 E7.13450
G1 X100.061 Y84.311 E7.14747
G1 X100.687 Y84.937 E7.18165
G1 X100.774 Y85.254 E7.19438
G1 X100.563 Y86.095 E7.22788
G1 X100.324 Y86.830 E7.25773
G1 X100.188 Y87.178 E7.27219
G1 X99.908 Y87.785 E7.29801
G1 X99.541 Y88.420 E7.32634
G1 X99.409 Y88.603 E7.33510
G1 X99.734 Y89.026 E7.35570
G1 X100.174 Y88.882 E7.37359
G1 X100.962 Y88.703 E7.40485
G1 X101.676 Y88.607 E7.43268
G1 X102.467 Y88.565 E7.46329
G1 X103.325 Y88.580 E7.49646
G1 X103.609 Y88.747 E7.50918
G1 X104.050 Y89.510 E7.54326
G1 X104.053 Y89.839 E7.55598
G1 X103.632 Y90.597 E7.58948
G1 X103.191 Y91.274 E7.62071
G1 X102.564 Y92.057 E7.65945
G1 X102.043 Y92.579 E7.68797
G1 X101.868 Y92.721 E7.69667
G1 X102.074 Y93.220 E7.71753
G1 X102.299 Y93.197 E7.72627
G1 X103.036 Y93.197 E7.75476
G1 X104.063 Y93.313 E7.79468
G1 X104.845 Y93.479 E7.82557
G1 X105.657 Y93.712 E7.85824
G1 X105.888 Y93.947 E7.87095
G1 X106.117 Y94.802 E7.90515
G1 X106.030 Y95.126 E7.91812
G1 X105.153 Y95.999 E7.96595
G1 X104.833 Y96.276 E7.98229
G1 X104.276 Y96.702 E8.00941
G1 X103.591 Y97.132 E8.04068
G1 X103.178 Y97.341 E8.05855
G1 X103.246 Y97.864 E8.07893
G1 X103.700 Y97.959 E8.09685
G1 X104.473 Y98.198 E8.12810
G1 X105.121 Y98.464 E8.15519
G1 X105.845 Y98.831 E8.18654
G1 X106.581 Y99.273 E8.21972
G1 X106.743 Y99.559 E8.23244
G1 X106.743 Y100.441 E8.26651
G1 X106.581 Y100.727 E8.27923
G1 X105.856 Y101.162 E8.31189
G1 X105.144 Y101.526 E8.34279
G1 X104.183 Y101.903 E8.38270
G1 X103.471 Y102.094 E8.41118
G1 X103.247 Y102.131 E8.41995
G1 X103.177 Y102.659 E8.44054
G1 X103.591 Y102.868 E8.45845
G1 X104.276 Y103.298 E8.48971
G1 X104.833 Y103.724 E8.51684
G1 X105.137 Y103.986 E8.53231
G1 X106.030 Y104.874 E8.58100
G1 X106.117 Y105.198 E8.59397
G1 X105.888 Y106.053 E8.62817
G1 X105.657 Y106.288 E8.64088
G1 X104.823 Y106.526 E8.67441
G1 X104.033 Y106.692 E8.70560
G1 X103.036 Y106.803 E8.74436
G1 X102.299 Y106.803 E8.77285
G1 X102.074 Y106.780 E8.78159
G1 X101.868 Y107.279 E8.80245
G1 X102.043 Y107.421 E8.81115
G1 X102.564 Y107.943 E8.83967
G1 X103.208 Y108.750 E8.87958
G1 X103.643 Y109.421 E8.91048
G1 X104.053 Y110.161 E8.94315
G1 X104.050 Y110.490 E8.95587
G1 X103.609 Y111.253 E8.98995
G1 X103.325 Y111.420 E9.00266
G1 X102.467 Y111.435 E9.03584
G1 X101.658 Y111.391 E9.06717
G1 X100.962 Y111.297 E9.09427
G1 X100.174 Y111.118 E9.12553
G1 X99.734 Y110.974 E9.14343
G1 X99.412 Y111.391 E9.16380
G1 X99.666 Y111.780 E9.18173
G1 X100.044 Y112.496 E9.21302
G1 X100.313 Y113.142 E9.24006
G1 X100.453 Y113.542 E9.25643
