; generated by Slic3r 0.9.8 on 2013-03-19 at 22:25:12

; layer_height = 0.21
; perimeters = 2
; top_solid_layers = 4
; bottom_solid_layers = 4
; fill_density = 0.2
; perimeter_speed = 45
; infill_speed = 45
; travel_speed = 200
; scale = 1
; nozzle_diameter = 0.35
; filament_diameter = 2.8
; extrusion_multiplier = 1.088
; perimeters extrusion width = 0.49mm
; infill extrusion width = 0.49mm
; first layer extrusion width = 0.70mm

M107
M190 S70 ; wait for bed temperature to be reached
M104 S200 ; set temperature
G28 ; home all axes
M109 S200 ; wait for temperature to be reached
G90 ; use absolute coordinates
G21 ; set units to millimeters
G92 E0
M82 ; use absolute distances for extrusion
G1 F600.000 E-1.00000
G92 E0
G1 Z0.350 F12000.000
G1 X74.764 Y139.875
G1 F600.000 E1.00000
G1 X74.104 Y139.835 F1350.000 E1.02555
G1 X73.124 Y139.685 E1.06387
G1 X72.804 Y139.615 E1.07652
G1 X72.164 Y139.435 E1.10222
G1 X71.544 Y139.205 E1.12777
G1 X70.934 Y138.935 E1.15355
G1 X70.354 Y138.625 E1.17897
G1 X69.354 Y138.045 E1.22364
G1 X68.274 Y137.315 E1.27402
G1 X39.764 Y114.895 E2.67566
G1 X39.164 Y114.385 E2.70609
G1 X37.174 Y112.525 E2.81135
G1 X36.364 Y111.665 E2.85701
G1 X34.634 Y109.575 E2.96186
G1 X33.954 Y108.635 E3.00669
G1 X32.494 Y106.335 E3.11197
G1 X31.924 Y105.295 E3.15780
G1 X30.774 Y102.835 E3.26274
G1 X30.354 Y101.775 E3.30681
G1 X29.514 Y99.195 E3.41166
G1 X29.224 Y98.065 E3.45675
G1 X28.714 Y95.385 E3.56217
G1 X28.574 Y94.235 E3.60694
G1 X28.404 Y91.525 E3.71188
G1 X28.404 Y90.365 E3.75671
G1 X28.574 Y87.655 E3.86164
G1 X28.714 Y86.495 E3.90679
G1 X29.224 Y83.825 E4.01184
G1 X29.514 Y82.715 E4.05618
G1 X30.354 Y80.125 E4.16140
G1 X30.774 Y79.055 E4.20582
G1 X31.924 Y76.595 E4.31076
G1 X32.504 Y75.545 E4.35712
G1 X33.964 Y73.255 E4.46207
G1 X34.624 Y72.345 E4.50552
G1 X36.354 Y70.245 E4.61066
G1 X37.174 Y69.365 E4.65715
G1 X39.164 Y67.505 E4.76241
G1 X40.024 Y66.795 E4.80551
G1 X42.214 Y65.195 E4.91032
G1 X43.224 Y64.555 E4.95653
G1 X45.614 Y63.245 E5.06186
G1 X46.654 Y62.755 E5.10629
G1 X49.174 Y61.755 E5.21106
G1 X50.304 Y61.385 E5.25701
G1 X52.944 Y60.715 E5.36227
G1 X54.064 Y60.505 E5.40630
G1 X56.764 Y60.165 E5.51147
G1 X57.924 Y60.095 E5.55638
G1 X60.634 Y60.095 E5.66111
G1 X61.794 Y60.165 E5.70602
G1 X64.494 Y60.505 E5.81118
G1 X65.614 Y60.715 E5.85522
G1 X68.254 Y61.385 E5.96048
G1 X69.384 Y61.755 E6.00643
G1 X72.174 Y62.865 E6.12247
G1 X122.174 Y84.555 E8.22870
G1 X123.114 Y85.035 E8.26948
G1 X133.734 Y91.155 E8.74316
G1 X134.294 Y91.505 E8.76868
G1 X135.084 Y92.095 E8.80679
G1 X135.574 Y92.545 E8.83250
G1 X136.034 Y93.025 E8.85819
G1 X136.454 Y93.535 E8.88372
G1 X137.014 Y94.355 E8.92210
G1 X137.334 Y94.925 E8.94736
G1 X137.614 Y95.525 E8.97295
G1 X137.854 Y96.145 E8.99864
G1 X138.054 Y96.775 E9.02418
G1 X141.354 Y109.135 E9.51857
G1 X141.474 Y109.785 E9.54411
G1 X141.554 Y110.435 E9.56942
G1 X141.584 Y111.425 E9.60770
G1 X141.544 Y112.085 E9.63325
G1 X141.394 Y113.065 E9.67156
G1 X141.244 Y113.705 E9.69696
G1 X140.924 Y114.645 E9.73534
G1 X140.654 Y115.245 E9.76076
G1 X140.344 Y115.825 E9.78618
G1 X137.404 Y120.915 E10.01334
G1 X136.834 Y121.725 E10.05161
G1 X136.414 Y122.225 E10.07685
G1 X136.184 Y122.465 E10.08970
G1 X135.704 Y122.925 E10.11539
G1 X135.194 Y123.345 E10.14092
G1 X134.374 Y123.905 E10.17929
G1 X133.504 Y124.375 E10.21751
G1 X132.904 Y124.635 E10.24278
G1 X131.954 Y124.935 E10.28128
G1 X77.384 Y139.555 E12.46451
G1 X76.414 Y139.765 E12.50287
G1 X75.764 Y139.845 E12.52817
G1 X74.857 Y139.875 E12.56322
G1 X74.764 Y139.875 E12.56684
G1 X74.784 Y139.245 F12000.000
G1 X74.164 Y139.215 F1350.000 E12.59083
G1 X73.254 Y139.075 E12.62641
G1 X72.354 Y138.835 E12.66240
G1 X71.774 Y138.625 E12.68624
G1 X71.214 Y138.375 E12.70994
G1 X70.664 Y138.085 E12.73397
G1 X69.664 Y137.505 E12.77864
G1 X68.664 Y136.825 E12.82538
G1 X40.154 Y114.405 E14.22702
G1 X39.594 Y113.925 E14.25552
G1 X37.604 Y112.065 E14.36078
G1 X36.854 Y111.265 E14.40316
G1 X35.124 Y109.175 E14.50801
G1 X34.484 Y108.295 E14.55006
G1 X33.024 Y105.995 E14.65534
G1 X32.494 Y105.025 E14.69806
G1 X31.344 Y102.565 E14.80300
G1 X30.954 Y101.585 E14.84376
G1 X30.114 Y99.005 E14.94862
G1 X29.844 Y97.945 E14.99089
G1 X29.334 Y95.265 E15.09631
G1 X29.194 Y94.195 E15.13802
G1 X29.024 Y91.485 E15.24295
G1 X29.024 Y90.405 E15.28469
G1 X29.194 Y87.695 E15.38962
G1 X29.334 Y86.615 E15.43171
G1 X29.844 Y83.945 E15.53676
G1 X30.114 Y82.905 E15.57828
G1 X30.954 Y80.315 E15.68350
G1 X31.344 Y79.325 E15.72462
G1 X32.494 Y76.865 E15.82956
G1 X33.034 Y75.875 E15.87314
G1 X34.494 Y73.585 E15.97810
G1 X35.104 Y72.745 E16.01822
G1 X36.834 Y70.645 E16.12336
G1 X37.604 Y69.825 E16.16683
G1 X39.594 Y67.965 E16.27210
G1 X40.394 Y67.305 E16.31218
G1 X42.584 Y65.705 E16.41699
G1 X43.524 Y65.105 E16.46009
G1 X45.914 Y63.795 E16.56541
G1 X46.884 Y63.335 E16.60690
G1 X49.404 Y62.335 E16.71167
G1 X50.464 Y61.995 E16.75469
G1 X53.104 Y61.325 E16.85995
G1 X54.144 Y61.125 E16.90088
G1 X56.844 Y60.785 E17.00604
G1 X57.924 Y60.725 E17.04784
G1 X60.634 Y60.725 E17.15257
G1 X61.714 Y60.785 E17.19437
G1 X64.414 Y61.125 E17.29954
G1 X65.454 Y61.325 E17.34047
G1 X68.094 Y61.995 E17.44572
G1 X69.154 Y62.335 E17.48874
G1 X71.674 Y63.335 E17.59352
G1 X121.924 Y85.135 E19.71030
G1 X122.804 Y85.575 E19.74832
G1 X133.424 Y91.695 E20.22200
G1 X133.944 Y92.015 E20.24560
G1 X134.684 Y92.575 E20.28146
G1 X135.134 Y92.995 E20.30525
G1 X135.564 Y93.435 E20.32902
G1 X136.144 Y94.165 E20.36506
G1 X136.474 Y94.675 E20.38853
G1 X136.784 Y95.215 E20.41259
G1 X137.164 Y96.055 E20.44822
G1 X137.444 Y96.935 E20.48391
G1 X140.744 Y109.275 E20.97755
G1 X140.854 Y109.875 E21.00112
G1 X140.934 Y110.495 E21.02528
G1 X140.954 Y110.795 E21.03690
G1 X140.944 Y111.715 E21.07245
G1 X140.884 Y112.335 E21.09653
G1 X140.784 Y112.935 E21.12003
G1 X140.554 Y113.835 E21.15593
G1 X140.224 Y114.695 E21.19153
G1 X139.954 Y115.245 E21.21521
G1 X137.034 Y120.315 E21.44131
G1 X136.534 Y121.095 E21.47711
G1 X136.154 Y121.575 E21.50077
G1 X135.734 Y122.025 E21.52456
G1 X135.294 Y122.455 E21.54834
G1 X134.564 Y123.035 E21.58437
G1 X133.784 Y123.525 E21.61997
G1 X133.514 Y123.675 E21.63190
G1 X132.964 Y123.935 E21.65541
G1 X132.094 Y124.255 E21.69123
G1 X76.924 Y139.035 E23.89847
G1 X76.324 Y139.145 E23.92204
G1 X75.704 Y139.225 E23.94620
G1 X75.404 Y139.245 E23.95782
G1 X74.877 Y139.245 E23.97816
G1 X74.784 Y139.245 E23.98178
G1 F600.000 E22.98178
G92 E0
G1 X63.051 Y98.318 F12000.000
G1 F600.000 E1.00000
G1 X55.516 Y98.318 F1350.000 E1.29121
G1 X54.805 Y97.927 E1.32255
G1 X51.153 Y91.601 E1.60485
G1 X51.024 Y91.376 E1.61488
G1 X50.997 Y90.951 E1.63131
G1 X51.024 Y90.525 E1.64780
G1 X54.805 Y83.976 E1.94005
G1 X55.516 Y83.585 E1.97140
G1 X63.051 Y83.585 E2.26261
G1 X63.762 Y83.976 E2.29394
G1 X67.543 Y90.525 E2.58619
G1 X67.570 Y90.952 E2.60270
G1 X67.543 Y91.378 E2.61921
G1 X63.762 Y97.927 E2.91144
G1 X63.133 Y98.273 E2.93917
G1 X63.051 Y98.318 E2.94279
G1 X62.891 Y97.693 F12000.000
G1 X55.676 Y97.693 F1350.000 E3.22161
G1 X55.259 Y97.463 E3.24000
G1 X51.694 Y91.289 E3.51551
G1 X51.638 Y91.191 E3.51988
G1 X51.623 Y90.951 E3.52917
G1 X51.638 Y90.711 E3.53848
G1 X55.259 Y84.440 E3.81833
G1 X55.676 Y84.210 E3.83673
G1 X62.891 Y84.210 E4.11554
G1 X63.308 Y84.440 E4.13393
G1 X66.929 Y90.711 E4.41378
G1 X66.944 Y90.952 E4.42310
G1 X66.929 Y91.192 E4.43242
G1 X63.308 Y97.463 E4.71226
G1 X62.973 Y97.648 E4.72704
G1 X62.891 Y97.693 E4.73066
G1 X62.673 Y98.279 F12000.000
G1 F600.000 E3.73066
G92 E0
G1 X73.916 Y109.899 F12000.000
G1 F600.000 E1.00000
G1 X74.173 Y109.708 F1350.000 E1.01238
G1 X74.452 Y109.550 E1.02476
G1 X74.749 Y109.429 E1.03714
G1 X75.058 Y109.346 E1.04952
G1 X75.376 Y109.303 E1.06190
G1 X75.696 Y109.300 E1.07428
G1 X76.014 Y109.336 E1.08666
G1 X76.325 Y109.413 E1.09903
G1 X76.624 Y109.528 E1.11141
G1 X77.621 Y110.062 E1.15509
G1 X76.855 Y107.204 E1.26942
G1 X118.100 Y96.152 E2.91956
G1 X118.865 Y99.009 E3.03384
G1 X119.462 Y98.049 E3.07751
G1 X119.663 Y97.801 E3.08987
G1 X119.894 Y97.579 E3.10224
G1 X120.151 Y97.388 E3.11463
G1 X120.430 Y97.231 E3.12698
G1 X120.727 Y97.109 E3.13938
G1 X121.036 Y97.027 E3.15176
G1 X121.354 Y96.983 E3.16415
G1 X121.674 Y96.980 E3.17651
G1 X121.993 Y97.017 E3.18892
G1 X122.303 Y97.093 E3.20128
G1 X122.603 Y97.208 E3.21367
G1 X122.884 Y97.359 E3.22603
G1 X123.145 Y97.545 E3.23839
G1 X123.382 Y97.761 E3.25079
G1 X123.588 Y98.006 E3.26316
G1 X123.763 Y98.275 E3.27555
G1 X123.902 Y98.563 E3.28794
G1 X124.001 Y98.857 E3.29989
G1 X127.474 Y111.821 E3.81856
G1 X127.536 Y112.124 E3.83053
G1 X127.559 Y112.443 E3.84290
G1 X127.543 Y112.763 E3.85528
G1 X127.486 Y113.079 E3.86768
G1 X127.390 Y113.385 E3.88005
G1 X127.256 Y113.676 E3.89243
G1 X127.087 Y113.948 E3.90480
G1 X126.887 Y114.197 E3.91717
G1 X126.655 Y114.419 E3.92958
G1 X126.398 Y114.609 E3.94195
G1 X126.119 Y114.767 E3.95430
G1 X125.822 Y114.888 E3.96670
G1 X125.513 Y114.971 E3.97908
G1 X125.195 Y115.014 E3.99147
G1 X124.875 Y115.018 E4.00383
G1 X124.558 Y114.981 E4.01619
G1 X124.246 Y114.904 E4.02860
G1 X123.946 Y114.790 E4.04099
G1 X122.950 Y114.254 E4.08470
G1 X123.457 Y116.147 E4.16044
G1 X82.212 Y127.199 E5.81057
G1 X81.706 Y125.307 E5.88626
G1 X81.110 Y126.268 E5.92995
G1 X80.908 Y126.517 E5.94232
G1 X80.677 Y126.738 E5.95470
G1 X80.420 Y126.929 E5.96708
G1 X80.141 Y127.087 E5.97946
G1 X79.844 Y127.208 E5.99184
G1 X79.535 Y127.291 E6.00422
G1 X79.217 Y127.334 E6.01660
G1 X78.897 Y127.337 E6.02897
G1 X78.579 Y127.300 E6.04136
G1 X78.268 Y127.224 E6.05373
G1 X77.969 Y127.109 E6.06611
G1 X77.687 Y126.958 E6.07849
G1 X77.425 Y126.772 E6.09087
G1 X77.190 Y126.556 E6.10325
G1 X76.983 Y126.311 E6.11563
G1 X76.808 Y126.042 E6.12801
G1 X76.669 Y125.754 E6.14038
G1 X76.570 Y125.461 E6.15234
G1 X75.685 Y122.155 E6.28458
G1 X75.624 Y121.852 E6.29653
G1 X75.600 Y121.533 E6.30891
G1 X75.617 Y121.213 E6.32129
G1 X75.674 Y120.898 E6.33367
G1 X75.769 Y120.592 E6.34605
G1 X75.903 Y120.301 E6.35842
G1 X76.071 Y120.029 E6.37080
G1 X76.273 Y119.779 E6.38319
G1 X76.504 Y119.558 E6.39556
G1 X76.761 Y119.367 E6.40794
G1 X77.040 Y119.210 E6.42032
G1 X77.337 Y119.089 E6.43270
G1 X77.646 Y119.006 E6.44508
G1 X77.964 Y118.962 E6.45746
G1 X78.284 Y118.959 E6.46983
G1 X78.602 Y118.996 E6.48221
G1 X78.913 Y119.072 E6.49459
G1 X79.212 Y119.187 E6.50697
G1 X80.209 Y119.721 E6.55066
G1 X79.117 Y115.648 E6.71361
G1 X78.522 Y116.609 E6.75730
G1 X78.320 Y116.857 E6.76968
G1 X78.089 Y117.079 E6.78206
G1 X77.832 Y117.270 E6.79444
G1 X77.553 Y117.427 E6.80682
G1 X77.256 Y117.548 E6.81919
G1 X76.947 Y117.631 E6.83157
G1 X76.629 Y117.675 E6.84396
G1 X76.309 Y117.678 E6.85633
G1 X75.991 Y117.641 E6.86871
G1 X75.680 Y117.565 E6.88109
G1 X75.381 Y117.450 E6.89347
G1 X75.098 Y117.299 E6.90585
G1 X74.837 Y117.113 E6.91822
G1 X74.601 Y116.896 E6.93060
G1 X74.395 Y116.652 E6.94298
G1 X74.220 Y116.383 E6.95537
G1 X74.081 Y116.095 E6.96774
G1 X73.982 Y115.802 E6.97969
G1 X73.096 Y112.496 E7.11193
G1 X73.035 Y112.193 E7.12389
G1 X73.012 Y111.873 E7.13627
G1 X73.029 Y111.554 E7.14865
G1 X73.085 Y111.238 E7.16102
G1 X73.181 Y110.933 E7.17341
G1 X73.315 Y110.641 E7.18578
G1 X73.483 Y110.369 E7.19816
G1 X73.685 Y110.120 E7.21054
G1 X73.848 Y109.963 E7.21929
G1 X73.916 Y109.899 E7.22292
G1 X73.818 Y109.281 F12000.000
G1 F600.000 E6.22292
G92 E0
G1 X122.563 Y96.453 F12000.000
G1 F600.000 E1.00000
G1 X121.707 Y96.354 F1350.000 E1.03331
G1 X121.308 Y96.359 E1.04871
G1 X120.913 Y96.413 E1.06413
G1 X120.527 Y96.516 E1.07955
G1 X120.157 Y96.667 E1.09500
G1 X119.810 Y96.863 E1.11040
G1 X119.490 Y97.101 E1.12582
G1 X119.101 Y97.474 E1.14665
G1 X118.542 Y95.387 E1.23015
G1 X76.090 Y106.762 E2.92860
G1 X76.649 Y108.849 E3.01208
G1 X76.125 Y108.720 E3.03291
G1 X75.729 Y108.674 E3.04833
G1 X75.330 Y108.678 E3.06375
G1 X74.935 Y108.733 E3.07917
G1 X74.549 Y108.836 E3.09459
G1 X74.180 Y108.987 E3.11000
G1 X73.832 Y109.182 E3.12542
G1 X73.512 Y109.420 E3.14084
G1 X73.224 Y109.696 E3.15625
G1 X72.973 Y110.007 E3.17168
G1 X72.763 Y110.346 E3.18709
G1 X72.597 Y110.708 E3.20250
G1 X72.477 Y111.089 E3.21793
G1 X72.407 Y111.482 E3.23334
G1 X72.386 Y111.880 E3.24876
G1 X72.415 Y112.278 E3.26418
G1 X72.488 Y112.639 E3.27841
G1 X73.384 Y115.982 E3.41217
G1 X73.501 Y116.331 E3.42640
G1 X73.675 Y116.690 E3.44181
G1 X73.892 Y117.025 E3.45724
G1 X74.149 Y117.330 E3.47266
G1 X74.443 Y117.600 E3.48808
G1 X74.768 Y117.831 E3.50349
G1 X75.120 Y118.019 E3.51890
G1 X75.492 Y118.162 E3.53432
G1 X75.880 Y118.258 E3.54975
G1 X77.028 Y118.390 E3.59443
G1 X76.100 Y119.080 E3.63911
G1 X75.812 Y119.356 E3.65453
G1 X75.561 Y119.666 E3.66995
G1 X75.351 Y120.005 E3.68537
G1 X75.185 Y120.368 E3.70078
G1 X75.065 Y120.748 E3.71620
G1 X74.995 Y121.141 E3.73162
G1 X74.974 Y121.539 E3.74704
G1 X75.003 Y121.937 E3.76245
G1 X75.076 Y122.298 E3.77669
G1 X75.972 Y125.641 E3.91044
G1 X76.089 Y125.990 E3.92467
G1 X76.263 Y126.350 E3.94009
G1 X76.480 Y126.684 E3.95551
G1 X76.738 Y126.989 E3.97093
G1 X77.031 Y127.259 E3.98634
G1 X77.357 Y127.490 E4.00176
G1 X77.708 Y127.679 E4.01718
G1 X78.081 Y127.822 E4.03260
G1 X78.468 Y127.917 E4.04801
G1 X78.864 Y127.963 E4.06343
G1 X79.263 Y127.958 E4.07885
G1 X79.658 Y127.904 E4.09426
G1 X80.044 Y127.801 E4.10968
G1 X80.413 Y127.650 E4.12510
G1 X80.761 Y127.455 E4.14051
G1 X81.081 Y127.217 E4.15594
G1 X81.470 Y126.843 E4.17677
G1 X81.822 Y128.154 E4.22923
G1 X75.088 Y129.959 E4.49865
G1 X74.532 Y129.638 E4.52346
G1 X69.291 Y110.081 E5.30589
G1 X59.378 Y112.737 E5.70250
G1 X59.842 Y111.933 E5.73839
G1 X57.963 Y111.933 E5.81100
G1 X55.344 Y111.602 E5.91303
G1 X52.787 Y110.946 E6.01506
G1 X50.332 Y109.974 E6.11708
G1 X48.019 Y108.702 E6.21911
G1 X45.883 Y107.150 E6.32114
G1 X43.958 Y105.343 E6.42317
G1 X42.275 Y103.309 E6.52519
G1 X40.861 Y101.080 E6.62722
G1 X39.737 Y98.691 E6.72925
G1 X38.921 Y96.180 E6.83127
G1 X38.426 Y93.586 E6.93330
G1 X38.260 Y90.952 E7.03533
G1 X38.426 Y88.317 E7.13735
G1 X38.921 Y85.723 E7.23938
G1 X39.737 Y83.212 E7.34141
G1 X40.861 Y80.824 E7.44344
G1 X42.275 Y78.594 E7.54546
G1 X43.958 Y76.560 E7.64749
G1 X45.883 Y74.753 E7.74952
G1 X48.019 Y73.201 E7.85155
G1 X50.332 Y71.929 E7.95358
G1 X52.787 Y70.957 E8.05560
G1 X55.344 Y70.301 E8.15763
G1 X57.963 Y69.970 E8.25966
G1 X60.604 Y69.970 E8.36168
G1 X63.223 Y70.301 E8.46371
G1 X65.780 Y70.957 E8.56574
G1 X68.235 Y71.929 E8.66776
G1 X70.548 Y73.201 E8.76979
G1 X72.684 Y74.753 E8.87182
G1 X74.609 Y76.560 E8.97385
G1 X76.292 Y78.594 E9.07587
G1 X77.706 Y80.824 E9.17790
G1 X78.830 Y83.212 E9.27993
G1 X79.646 Y85.723 E9.38196
G1 X80.141 Y88.317 E9.48398
G1 X80.307 Y90.952 E9.58601
G1 X80.141 Y93.586 E9.68804
G1 X79.646 Y96.180 E9.79007
G1 X78.830 Y98.691 E9.89209
G1 X77.706 Y101.080 E9.99412
G1 X74.996 Y105.350 E10.18960
G1 X118.414 Y93.716 E11.92670
G1 X122.658 Y96.166 E12.11605
G1 X122.592 Y96.364 E12.12411
G1 X122.563 Y96.453 E12.12774
G1 F600.000 E11.12774
G92 E0
G1 X77.565 Y118.247 F12000.000
G1 F600.000 E1.00000
G1 X78.493 Y117.557 F1050.000 E1.04468
G1 X78.882 Y117.184 E1.06552
G1 X79.237 Y118.508 E1.11849
G1 X78.713 Y118.379 E1.13933
G1 X77.658 Y118.257 E1.18039
G1 X77.565 Y118.247 E1.18401
G1 F600.000 E0.18401
G92 E0
G1 X124.273 Y116.780 F12000.000
G1 F600.000 E1.00000
G1 X123.922 Y115.469 F1350.000 E1.05245
G1 X124.447 Y115.597 E1.07332
G1 X124.842 Y115.643 E1.08871
G1 X125.241 Y115.639 E1.10411
G1 X125.636 Y115.585 E1.11954
G1 X126.022 Y115.481 E1.13496
G1 X126.392 Y115.330 E1.15041
G1 X126.739 Y115.134 E1.16580
G1 X127.058 Y114.897 E1.18117
G1 X127.348 Y114.620 E1.19666
G1 X127.598 Y114.310 E1.21207
G1 X127.808 Y113.972 E1.22744
G1 X127.974 Y113.609 E1.24286
G1 X128.094 Y113.229 E1.25827
G1 X128.165 Y112.835 E1.27375
G1 X128.185 Y112.437 E1.28915
G1 X128.156 Y112.039 E1.30456
G1 X128.083 Y111.678 E1.31881
G1 X124.599 Y98.676 E1.83898
G1 X124.482 Y98.327 E1.85320
G1 X124.308 Y97.967 E1.86866
G1 X123.732 Y97.083 E1.90944
G1 X123.913 Y96.892 E1.91963
G1 X128.577 Y99.584 E2.12775
G1 X131.670 Y111.125 E2.58947
G1 X129.161 Y115.470 E2.78337
G1 X124.364 Y116.755 E2.97530
G1 X124.273 Y116.780 E2.97892
G1 F600.000 E1.97892
G92 E0
G1 X128.753 Y116.226 F12000.000
G1 F600.000 E1.00000
