; generated by Slic3r 0.9.8 on 2013-03-20 at 20:30:26

; layer_height = 0.21
; perimeters = 2
; top_solid_layers = 4
; bottom_solid_layers = 4
; fill_density = 0.2
; perimeter_speed = 45
; infill_speed = 45
; travel_speed = 200
; scale = 1
; nozzle_diameter = 0.35
; filament_diameter = 2.8
; extrusion_multiplier = 1.088
; perimeters extrusion width = 0.49mm
; infill extrusion width = 0.49mm
; first layer extrusion width = 0.70mm

M107
M190 S70 ; wait for bed temperature to be reached
M104 S200 ; set temperature
G28 ; home all axes
M109 S200 ; wait for temperature to be reached
G90 ; use absolute coordinates
G21 ; set units to millimeters
G92 E0
M82 ; use absolute distances for extrusion
G1 F600.000 E-1.00000
G92 E0
G1 Z0.350 F12000.000
G1 X94.730 Y112.870
G1 F600.000 E1.00000
G1 X94.140 Y113.320 F882.674 E1.02868
G1 X93.520 Y113.720 E1.05719
G1 X91.990 Y114.540 E1.12427
G1 X91.360 Y114.850 E1.15141
G1 X90.380 Y115.210 E1.19175
G1 X88.720 Y115.720 E1.25886
G1 X88.360 Y115.810 E1.27320
G1 X87.230 Y115.990 E1.31742
G1 X85.870 Y116.120 E1.37022
G1 X85.160 Y116.160 E1.39770
G1 X84.810 Y116.160 E1.41123
G1 X84.100 Y116.120 E1.43871
G1 X82.390 Y115.940 E1.50516
G1 X81.650 Y115.810 E1.53419
G1 X81.290 Y115.720 E1.54853
G1 X79.630 Y115.220 E1.61553
G1 X78.980 Y115.000 E1.64205
G1 X78.050 Y114.570 E1.68165
G1 X76.850 Y113.940 E1.73402
G1 X76.190 Y113.560 E1.76345
G1 X75.560 Y113.120 E1.79315
G1 X75.260 Y112.880 E1.80800
G1 X74.220 Y112.020 E1.86015
G1 X73.680 Y111.540 E1.88807
G1 X73.430 Y111.290 E1.90173
G1 X72.950 Y110.750 E1.92965
G1 X71.870 Y109.420 E1.99586
G1 X71.450 Y108.820 E2.02417
G1 X71.270 Y108.510 E2.03802
G1 X70.450 Y106.990 E2.10476
G1 X70.140 Y106.360 E2.13190
G1 X69.780 Y105.380 E2.17224
G1 X69.270 Y103.720 E2.23935
G1 X69.180 Y103.360 E2.25369
G1 X69.000 Y102.230 E2.29791
G1 X68.870 Y100.870 E2.35071
G1 X68.830 Y100.160 E2.37819
G1 X68.830 Y99.810 E2.39172
G1 X68.870 Y99.100 E2.41920
G1 X69.050 Y97.390 E2.48565
G1 X69.180 Y96.650 E2.51468
G1 X69.270 Y96.290 E2.52902
G1 X69.770 Y94.630 E2.59602
G1 X70.000 Y93.960 E2.62340
G1 X70.290 Y93.310 E2.65090
G1 X71.270 Y91.470 E2.73147
G1 X71.460 Y91.160 E2.74552
G1 X71.890 Y90.550 E2.77436
G1 X73.210 Y88.950 E2.85452
G1 X73.450 Y88.690 E2.86819
G1 X73.950 Y88.210 E2.89498
G1 X75.260 Y87.120 E2.96083
G1 X75.850 Y86.670 E2.98951
G1 X76.470 Y86.270 E3.01802
G1 X78.320 Y85.280 E3.09911
G1 X79.340 Y84.860 E3.14174
G1 X81.330 Y84.270 E3.22195
G1 X82.350 Y84.060 E3.26220
G1 X84.050 Y83.880 E3.32826
G1 X84.810 Y83.830 E3.35769
G1 X85.200 Y83.830 E3.37277
G1 X85.960 Y83.880 E3.40220
G1 X87.650 Y84.060 E3.46788
G1 X88.330 Y84.190 E3.49463
G1 X89.000 Y84.360 E3.52135
G1 X90.650 Y84.860 E3.58797
G1 X90.990 Y84.990 E3.60204
G1 X91.670 Y85.280 E3.63061
G1 X93.520 Y86.270 E3.71170
G1 X93.830 Y86.460 E3.72575
G1 X94.140 Y86.670 E3.74022
G1 X94.730 Y87.120 E3.76889
G1 X95.770 Y87.980 E3.82104
G1 X96.310 Y88.460 E3.84897
G1 X96.560 Y88.710 E3.86263
G1 X97.040 Y89.250 E3.89055
G1 X98.120 Y90.580 E3.95676
G1 X98.520 Y91.160 E3.98399
G1 X98.890 Y91.780 E4.01189
G1 X99.530 Y92.970 E4.06411
G1 X99.840 Y93.620 E4.09194
G1 X100.110 Y94.290 E4.11985
G1 X100.220 Y94.630 E4.13366
G1 X100.620 Y95.930 E4.18622
G1 X100.810 Y96.650 E4.21500
G1 X100.890 Y97.020 E4.22963
G1 X100.990 Y97.760 E4.25849
G1 X101.120 Y99.110 E4.31090
G1 X101.160 Y99.830 E4.33877
G1 X101.160 Y100.180 E4.35229
G1 X101.120 Y100.890 E4.37977
G1 X100.940 Y102.600 E4.44622
G1 X100.810 Y103.340 E4.47526
G1 X100.720 Y103.700 E4.48960
G1 X100.220 Y105.360 E4.55660
G1 X99.990 Y106.030 E4.58397
G1 X99.700 Y106.680 E4.61148
G1 X98.720 Y108.520 E4.69204
G1 X98.530 Y108.830 E4.70609
G1 X98.100 Y109.440 E4.73493
G1 X96.780 Y111.040 E4.81509
G1 X96.540 Y111.300 E4.82877
G1 X96.040 Y111.780 E4.85555
G1 X94.802 Y112.810 E4.91779
G1 X94.730 Y112.870 E4.92141
G1 X94.340 Y112.390 F12000.000
G1 X93.780 Y112.810 F882.674 E4.94846
G1 X93.200 Y113.180 E4.97505
G1 X91.410 Y114.140 E5.05354
G1 X91.110 Y114.280 E5.06634
G1 X90.500 Y114.520 E5.09167
G1 X88.560 Y115.120 E5.17014
G1 X87.870 Y115.270 E5.19743
G1 X87.170 Y115.370 E5.22476
G1 X85.810 Y115.500 E5.27755
G1 X85.150 Y115.530 E5.30309
G1 X84.490 Y115.520 E5.32860
G1 X82.820 Y115.360 E5.39343
G1 X82.130 Y115.270 E5.42032
G1 X81.450 Y115.120 E5.44723
G1 X81.110 Y115.020 E5.46093
G1 X79.810 Y114.620 E5.51349
G1 X79.210 Y114.410 E5.53805
G1 X78.340 Y114.020 E5.57490
G1 X77.140 Y113.390 E5.62728
G1 X76.520 Y113.030 E5.65498
G1 X76.220 Y112.830 E5.66892
G1 X75.650 Y112.400 E5.69651
G1 X74.610 Y111.540 E5.74866
G1 X74.120 Y111.090 E5.77437
G1 X73.650 Y110.610 E5.80033
G1 X72.370 Y109.040 E5.87861
G1 X71.800 Y108.190 E5.91816
G1 X71.000 Y106.700 E5.98352
G1 X70.710 Y106.110 E6.00893
G1 X70.470 Y105.500 E6.03426
G1 X70.370 Y105.190 E6.04685
G1 X69.970 Y103.900 E6.09904
G1 X69.790 Y103.220 E6.12622
G1 X69.720 Y102.870 E6.14002
G1 X69.620 Y102.170 E6.16734
G1 X69.490 Y100.810 E6.22014
G1 X69.460 Y100.150 E6.24567
G1 X69.470 Y99.490 E6.27118
G1 X69.630 Y97.820 E6.33601
G1 X69.720 Y97.130 E6.36290
G1 X69.870 Y96.450 E6.38982
G1 X70.370 Y94.810 E6.45607
G1 X70.580 Y94.190 E6.48137
G1 X71.000 Y93.290 E6.51975
G1 X71.640 Y92.090 E6.57231
G1 X71.990 Y91.490 E6.59915
G1 X72.600 Y90.650 E6.63927
G1 X73.460 Y89.610 E6.69142
G1 X73.900 Y89.130 E6.71659
G1 X74.610 Y88.460 E6.75431
G1 X75.650 Y87.600 E6.80647
G1 X76.210 Y87.180 E6.83352
G1 X76.790 Y86.810 E6.86010
G1 X78.600 Y85.840 E6.93946
G1 X79.220 Y85.570 E6.96560
G1 X79.550 Y85.450 E6.97917
G1 X81.480 Y84.870 E7.05705
G1 X82.120 Y84.730 E7.08236
G1 X82.440 Y84.680 E7.09488
G1 X84.470 Y84.470 E7.17375
G1 X85.540 Y84.470 E7.21510
G1 X87.560 Y84.680 E7.29358
G1 X87.880 Y84.730 E7.30610
G1 X88.510 Y84.870 E7.33104
G1 X90.120 Y85.350 E7.39596
G1 X90.770 Y85.570 E7.42248
G1 X91.390 Y85.840 E7.44862
G1 X91.700 Y86.000 E7.46210
G1 X92.900 Y86.640 E7.51465
G1 X93.500 Y86.990 E7.54150
G1 X94.340 Y87.600 E7.58162
G1 X95.380 Y88.460 E7.63377
G1 X95.870 Y88.910 E7.65948
G1 X96.340 Y89.390 E7.68544
G1 X97.620 Y90.960 E7.76372
G1 X98.000 Y91.500 E7.78924
G1 X98.340 Y92.070 E7.81489
G1 X98.980 Y93.260 E7.86711
G1 X99.270 Y93.870 E7.89321
G1 X99.520 Y94.490 E7.91904
G1 X100.020 Y96.110 E7.98456
G1 X100.200 Y96.790 E8.01174
G1 X100.270 Y97.130 E8.02516
G1 X100.370 Y97.820 E8.05210
G1 X100.500 Y99.170 E8.10451
G1 X100.530 Y99.840 E8.13043
G1 X100.520 Y100.500 E8.15594
G1 X100.360 Y102.170 E8.22077
G1 X100.270 Y102.860 E8.24767
G1 X100.120 Y103.540 E8.27458
G1 X99.620 Y105.180 E8.34083
G1 X99.410 Y105.800 E8.36613
G1 X98.990 Y106.700 E8.40451
G1 X98.350 Y107.900 E8.45707
G1 X98.000 Y108.500 E8.48391
G1 X97.390 Y109.340 E8.52403
G1 X96.530 Y110.380 E8.57618
G1 X96.090 Y110.860 E8.60135
G1 X95.380 Y111.530 E8.63907
G1 X94.412 Y112.330 E8.68760
G1 X94.340 Y112.390 E8.69123
G1 F600.000 E7.69123
G92 E0
G1 X87.662 Y103.219 F12000.000
G1 F600.000 E1.00000
G1 X87.240 Y103.526 F686.524 E1.02014
G1 X86.780 Y103.780 E1.04045
G1 X86.292 Y103.973 E1.06075
G1 X85.782 Y104.104 E1.08106
G1 X85.263 Y104.169 E1.10130
G1 X84.739 Y104.169 E1.12155
G1 X84.219 Y104.104 E1.14178
G1 X83.710 Y103.973 E1.16209
G1 X83.222 Y103.780 E1.18241
G1 X82.762 Y103.526 E1.20270
G1 X82.340 Y103.219 E1.22284
G1 X81.957 Y102.862 E1.24311
G1 X81.622 Y102.456 E1.26345
G1 X81.339 Y102.012 E1.28379
G1 X81.117 Y101.536 E1.30407
G1 X80.956 Y101.040 E1.32424
G1 X80.857 Y100.526 E1.34444
G1 X80.823 Y100.000 E1.36483
G1 X80.857 Y99.475 E1.38514
G1 X80.956 Y98.963 E1.40531
G1 X81.117 Y98.464 E1.42559
G1 X81.340 Y97.990 E1.44583
G1 X81.622 Y97.546 E1.46614
G1 X81.957 Y97.140 E1.48648
G1 X82.340 Y96.783 E1.50674
G1 X82.762 Y96.476 E1.52688
G1 X83.222 Y96.222 E1.54718
G1 X83.710 Y96.029 E1.56749
G1 X84.220 Y95.898 E1.58781
G1 X84.739 Y95.833 E1.60804
G1 X85.263 Y95.833 E1.62829
G1 X85.783 Y95.898 E1.64853
G1 X86.292 Y96.029 E1.66883
G1 X86.780 Y96.222 E1.68914
G1 X87.240 Y96.476 E1.70944
G1 X87.662 Y96.783 E1.72958
G1 X88.045 Y97.140 E1.74985
G1 X88.380 Y97.546 E1.77018
G1 X88.662 Y97.990 E1.79049
G1 X88.885 Y98.463 E1.81072
G1 X89.046 Y98.963 E1.83101
G1 X89.145 Y99.478 E1.85127
G1 X89.177 Y100.000 E1.87149
G1 X89.145 Y100.524 E1.89178
G1 X89.046 Y101.040 E1.91208
G1 X88.885 Y101.536 E1.93225
G1 X88.663 Y102.011 E1.95252
G1 X88.380 Y102.456 E1.97287
G1 X88.045 Y102.862 E1.99321
G1 X87.730 Y103.155 E2.00985
G1 X87.662 Y103.219 E2.01347
G1 X87.263 Y102.736 F12000.000
G1 X86.904 Y102.998 F686.524 E2.03063
G1 X86.513 Y103.213 E2.04788
G1 X86.098 Y103.378 E2.06513
G1 X85.665 Y103.489 E2.08240
G1 X85.224 Y103.544 E2.09960
G1 X84.778 Y103.544 E2.11683
G1 X84.336 Y103.489 E2.13403
G1 X83.904 Y103.378 E2.15129
G1 X83.488 Y103.213 E2.16855
G1 X83.098 Y102.998 E2.18579
G1 X82.739 Y102.736 E2.20295
G1 X82.413 Y102.432 E2.22018
G1 X82.128 Y102.088 E2.23744
G1 X81.888 Y101.711 E2.25472
G1 X81.700 Y101.307 E2.27195
G1 X81.562 Y100.883 E2.28915
G1 X81.478 Y100.447 E2.30634
G1 X81.449 Y100.000 E2.32364
G1 X81.478 Y99.555 E2.34086
G1 X81.562 Y99.119 E2.35804
G1 X81.700 Y98.693 E2.37531
G1 X81.889 Y98.291 E2.39249
G1 X82.128 Y97.914 E2.40976
G1 X82.413 Y97.570 E2.42702
G1 X82.739 Y97.266 E2.44425
G1 X83.098 Y97.004 E2.46141
G1 X83.489 Y96.789 E2.47865
G1 X83.904 Y96.624 E2.49591
G1 X84.337 Y96.513 E2.51317
G1 X84.778 Y96.458 E2.53037
G1 X85.224 Y96.458 E2.54760
G1 X85.666 Y96.513 E2.56480
G1 X86.098 Y96.624 E2.58207
G1 X86.513 Y96.789 E2.59932
G1 X86.904 Y97.004 E2.61656
G1 X87.263 Y97.266 E2.63372
G1 X87.589 Y97.570 E2.65096
G1 X87.874 Y97.914 E2.66821
G1 X88.113 Y98.291 E2.68548
G1 X88.302 Y98.693 E2.70265
G1 X88.440 Y99.119 E2.71993
G1 X88.524 Y99.556 E2.73715
G1 X88.551 Y100.000 E2.75433
G1 X88.524 Y100.446 E2.77159
G1 X88.440 Y100.884 E2.78882
G1 X88.302 Y101.307 E2.80601
G1 X88.114 Y101.711 E2.82324
G1 X87.874 Y102.088 E2.84052
G1 X87.589 Y102.432 E2.85778
G1 X87.332 Y102.673 E2.87139
G1 X87.263 Y102.736 E2.87501
G1 X87.354 Y103.355 F12000.000
G1 F600.000 E1.87501
G92 E0
G1 X90.807 Y102.406 F12000.000
G1 F600.000 E1.00000
G1 X90.227 Y103.493 F686.524 E1.04762
G1 X89.445 Y104.446 E1.09524
G1 X88.493 Y105.228 E1.14285
G1 X87.406 Y105.807 E1.19046
G1 X86.227 Y106.165 E1.23807
G1 X85.000 Y106.285 E1.28574
G1 X83.775 Y106.165 E1.33331
G1 X82.594 Y105.809 E1.38097
G1 X81.508 Y105.229 E1.42856
G1 X80.555 Y104.447 E1.47620
G1 X79.773 Y103.494 E1.52383
G1 X79.193 Y102.408 E1.57143
G1 X78.834 Y101.227 E1.61910
G1 X78.713 Y100.000 E1.66677
G1 X78.834 Y98.776 E1.71430
G1 X79.193 Y97.595 E1.76199
G1 X79.773 Y96.508 E1.80960
G1 X80.555 Y95.555 E1.85726
G1 X81.508 Y94.773 E1.90489
G1 X82.594 Y94.193 E1.95246
G1 X83.775 Y93.836 E2.00013
G1 X85.000 Y93.715 E2.04774
G1 X86.226 Y93.836 E2.09533
G1 X87.406 Y94.195 E2.14299
G1 X88.493 Y94.774 E2.19059
G1 X89.446 Y95.557 E2.23823
G1 X90.228 Y96.509 E2.28585
G1 X90.807 Y97.596 E2.33346
G1 X91.165 Y98.775 E2.38106
G1 X91.285 Y100.000 E2.42866
G1 X91.165 Y101.227 E2.47628
G1 X90.834 Y102.316 E2.52029
G1 X90.807 Y102.406 E2.52391
G1 X91.399 Y102.608 F12000.000
G1 X90.749 Y103.842 F882.674 E2.57784
G1 X89.890 Y104.890 E2.63020
G1 X88.842 Y105.750 E2.68259
G1 X87.646 Y106.387 E2.73495
G1 X86.350 Y106.781 E2.78730
G1 X85.000 Y106.913 E2.83973
G1 X83.652 Y106.781 E2.89205
G1 X82.354 Y106.389 E2.94445
G1 X81.159 Y105.751 E2.99684
G1 X80.111 Y104.891 E3.04922
G1 X79.250 Y103.843 E3.10162
G1 X78.613 Y102.648 E3.15398
G1 X78.219 Y101.350 E3.20637
G1 X78.085 Y100.000 E3.25881
G1 X78.219 Y98.653 E3.31113
G1 X78.613 Y97.355 E3.36355
G1 X79.250 Y96.160 E3.41590
G1 X80.111 Y95.111 E3.46833
G1 X81.159 Y94.250 E3.52074
G1 X82.354 Y93.613 E3.57308
G1 X83.652 Y93.221 E3.62549
G1 X85.000 Y93.087 E3.67783
G1 X86.349 Y93.221 E3.73021
G1 X87.646 Y93.615 E3.78261
G1 X88.841 Y94.252 E3.83494
G1 X89.890 Y95.112 E3.88736
G1 X90.750 Y96.160 E3.93975
G1 X91.387 Y97.356 E3.99211
G1 X91.781 Y98.652 E4.04446
G1 X91.913 Y100.000 E4.09681
G1 X91.781 Y101.349 E4.14920
G1 X91.426 Y102.518 E4.19640
G1 X91.399 Y102.608 E4.20002
G1 X90.778 Y102.671 F12000.000
G1 F600.000 E3.20002
G92 E0
G1 X89.201 Y96.200 F12000.000
G1 F600.000 E1.00000
G1 X88.802 Y95.801 F882.674 E1.02194
G1 F600.000 E0.02194
G92 E0
G1 X80.731 Y101.957 F12000.000
G1 F600.000 E1.00000
G1 X79.204 Y100.430 F882.674 E1.08399
G1 X79.171 Y99.507 E1.11988
G1 X80.433 Y100.769 E1.18927
G1 X80.418 Y99.865 E1.22444
G1 X79.251 Y98.699 E1.28857
G1 X79.459 Y98.017 E1.31628
G1 X80.532 Y99.090 E1.37533
G1 X80.743 Y98.412 E1.40294
G1 X79.711 Y97.380 E1.45972
G1 X80.020 Y96.800 E1.48527
G1 X81.036 Y97.815 E1.54111
G1 X81.392 Y97.283 E1.56604
G1 X80.399 Y96.289 E1.62067
G1 X80.799 Y95.801 E1.64523
G1 X81.808 Y96.809 E1.70068
G1 X82.283 Y96.395 E1.72519
G1 X81.288 Y95.400 E1.77993
G1 X81.798 Y95.021 E1.80464
G1 X82.817 Y96.040 E1.86069
G1 X83.417 Y95.751 E1.88658
G1 X82.378 Y94.712 E1.94371
G1 X83.015 Y94.460 E1.97035
G1 X84.091 Y95.536 E2.02953
G1 X84.857 Y95.412 E2.05969
G1 X83.698 Y94.253 E2.12342
G1 X84.507 Y94.173 E2.15503
G1 X85.775 Y95.442 E2.22479
G1 X86.968 Y95.745 E2.27262
G1 X85.429 Y94.206 E2.35723
G1 X86.566 Y94.454 E2.40250
G1 X90.548 Y98.436 E2.62145
G1 X90.795 Y99.572 E2.66667
G1 X89.273 Y98.050 E2.75036
G1 X89.570 Y99.236 E2.79789
G1 X90.828 Y100.494 E2.86706
G1 X90.748 Y101.304 E2.89870
G1 X89.584 Y100.139 E2.96276
G1 X89.469 Y100.914 E2.99321
G1 X90.541 Y101.986 E3.05216
G1 X90.289 Y102.623 E3.07879
G1 X89.257 Y101.591 E3.13553
G1 X88.965 Y102.188 E3.16138
G1 X89.979 Y103.202 E3.21714
G1 X89.601 Y103.713 E3.24186
G1 X88.609 Y102.721 E3.29641
G1 X88.193 Y103.194 E3.32091
G1 X89.200 Y104.201 E3.37629
G1 X88.712 Y104.602 E3.40085
G1 X87.717 Y103.608 E3.45552
G1 X87.183 Y103.963 E3.48046
G1 X88.201 Y104.980 E3.53642
G1 X87.621 Y105.290 E3.56197
G1 X86.583 Y104.252 E3.61903
G1 X85.908 Y104.467 E3.64656
G1 X86.984 Y105.542 E3.70570
G1 X86.301 Y105.749 E3.73342
G1 X85.143 Y104.590 E3.79714
G1 X84.223 Y104.560 E3.83290
G1 X85.491 Y105.828 E3.90263
G1 X84.569 Y105.795 E3.93851
G1 X83.030 Y104.256 E4.02315
G1 X83.433 Y105.548 E4.07581
G1 X79.452 Y101.567 E4.29473
G1 F600.000 E3.29473
G92 E0
G1 X80.799 Y103.803 F12000.000
G1 F600.000 E1.00000
G1 X81.198 Y104.202 F882.674 E1.02195
G1 F600.000 E0.02195
G92 E0
G1 Z0.560 F12000.000
G1 X82.467 Y102.964
G1 F600.000 E1.00000
G1 X82.156 Y102.674 F600.000 E1.00723
G1 X81.843 Y102.295 E1.01558
G1 X81.579 Y101.880 E1.02395
G1 X81.372 Y101.436 E1.03228
G1 X81.221 Y100.971 E1.04058
G1 X81.128 Y100.492 E1.04889
G1 X81.097 Y100.000 E1.05727
G1 X81.128 Y99.510 E1.06561
G1 X81.221 Y99.031 E1.07391
G1 X81.372 Y98.564 E1.08225
G1 X81.580 Y98.121 E1.09056
G1 X81.843 Y97.707 E1.09891
G1 X82.156 Y97.328 E1.10727
G1 X82.514 Y96.994 E1.11560
G1 X82.908 Y96.707 E1.12389
G1 X83.338 Y96.470 E1.13223
G1 X83.795 Y96.289 E1.14058
G1 X84.271 Y96.167 E1.14893
G1 X84.756 Y96.106 E1.15725
G1 X85.246 Y96.106 E1.16557
G1 X85.731 Y96.167 E1.17389
G1 X86.207 Y96.289 E1.18224
G1 X86.664 Y96.470 E1.19059
G1 X87.094 Y96.707 E1.19893
G1 X87.488 Y96.994 E1.20722
G1 X87.846 Y97.328 E1.21555
G1 X88.159 Y97.707 E1.22391
G1 X88.422 Y98.121 E1.23226
G1 X88.630 Y98.564 E1.24057
G1 X88.781 Y99.031 E1.24891
G1 X88.874 Y99.512 E1.25724
G1 X88.903 Y100.000 E1.26555
G1 X88.874 Y100.490 E1.27389
G1 X88.781 Y100.972 E1.28223
G1 X88.630 Y101.436 E1.29053
G1 X88.423 Y101.880 E1.29887
G1 X88.159 Y102.295 E1.30723
G1 X87.846 Y102.674 E1.31559
G1 X87.488 Y103.008 E1.32392
G1 X87.094 Y103.295 E1.33221
G1 X86.664 Y103.532 E1.34055
G1 X86.207 Y103.713 E1.34890
G1 X85.731 Y103.835 E1.35725
G1 X85.246 Y103.896 E1.36556
G1 X84.756 Y103.896 E1.37389
G1 X84.271 Y103.835 E1.38221
G1 X83.795 Y103.713 E1.39056
G1 X83.338 Y103.532 E1.39891
G1 X82.908 Y103.295 E1.40725
G1 X82.518 Y103.011 E1.41547
G1 X82.467 Y102.964 E1.41664
G1 X82.779 Y102.629 F12000.000
G1 X82.490 Y102.360 F600.000 E1.42336
G1 X82.214 Y102.026 E1.43072
G1 X81.982 Y101.659 E1.43810
G1 X81.799 Y101.268 E1.44545
G1 X81.665 Y100.857 E1.45279
G1 X81.584 Y100.433 E1.46013
G1 X81.556 Y100.000 E1.46751
G1 X81.584 Y99.569 E1.47485
G1 X81.665 Y99.145 E1.48218
G1 X81.799 Y98.732 E1.48956
G1 X81.982 Y98.342 E1.49689
G1 X82.214 Y97.976 E1.50426
G1 X82.490 Y97.642 E1.51162
G1 X82.807 Y97.348 E1.51897
G1 X83.155 Y97.094 E1.52630
