; generated by Slic3r 0.9.9 on 2013-04-16 at 13:53:30

; layer_height = 0.21
; perimeters = 2
; top_solid_layers = 4
; bottom_solid_layers = 4
; fill_density = 0.2
; perimeter_speed = 35
; infill_speed = 45
; travel_speed = 150
; nozzle_diameter = 0.35
; filament_diameter = 2.8
; extrusion_multiplier = 1.088
; perimeters extrusion width = 0.49mm
; infill extrusion width = 0.49mm
; solid infill extrusion width = 0.49mm
; top infill extrusion width = 0.49mm
; first layer extrusion width = 0.70mm

G21 ; set units to millimeters
M107
M190 S70 ; wait for bed temperature to be reached
M104 S200 ; set temperature
G28 ; home all axes
M109 S200 ; wait for temperature to be reached
G90 ; use absolute coordinates
G92 E0
M82 ; use absolute distances for extrusion
G1 F600.000 E-1.00000
G92 E0
G1 Z0.350 F9000.000
G1 X42.074 Y64.875
G1 F600.000 E1.00000
G1 X43.034 Y64.265 F840.000 E1.04396
G1 X45.454 Y62.935 E1.15067
G1 X46.504 Y62.445 E1.19545
G1 X49.074 Y61.425 E1.30230
G1 X50.174 Y61.065 E1.34703
G1 X52.844 Y60.375 E1.45360
G1 X54.014 Y60.155 E1.49961
G1 X56.754 Y59.815 E1.60631
G1 X57.894 Y59.745 E1.65045
G1 X60.663 Y59.745 E1.75749
G1 X61.803 Y59.815 E1.80163
G1 X64.543 Y60.155 E1.90833
G1 X65.714 Y60.375 E1.95434
G1 X68.383 Y61.065 E2.06091
G1 X69.483 Y61.425 E2.10564
G1 X72.323 Y62.555 E2.22376
G1 X122.224 Y84.175 E4.32537
G1 X123.163 Y84.655 E4.36616
G1 X134.034 Y90.925 E4.85110
G1 X134.594 Y91.275 E4.87662
G1 X135.133 Y91.665 E4.90236
G1 X135.633 Y92.085 E4.92760
G1 X136.334 Y92.795 E4.96613
G1 X136.754 Y93.305 E4.99166
G1 X137.314 Y94.125 E5.03004
G1 X137.784 Y94.995 E5.06825
G1 X138.043 Y95.595 E5.09352
G1 X138.254 Y96.225 E5.11918
G1 X141.644 Y108.865 E5.62492
G1 X141.853 Y109.835 E5.66327
G1 X141.933 Y110.485 E5.68858
G1 X141.964 Y111.145 E5.71411
G1 X141.964 Y111.475 E5.72687
G1 X141.923 Y112.135 E5.75242
G1 X141.883 Y112.465 E5.76527
G1 X141.704 Y113.435 E5.80339
G1 X141.524 Y114.075 E5.82908
G1 X141.303 Y114.695 E5.85451
G1 X141.034 Y115.305 E5.88029
G1 X140.724 Y115.885 E5.90570
G1 X137.803 Y120.935 E6.13114
G1 X137.284 Y121.735 E6.16801
G1 X136.894 Y122.235 E6.19251
G1 X136.243 Y122.935 E6.22943
G1 X135.534 Y123.565 E6.26611
G1 X135.284 Y123.755 E6.27825
G1 X134.754 Y124.115 E6.30301
G1 X134.204 Y124.435 E6.32760
G1 X133.644 Y124.715 E6.35179
G1 X133.053 Y124.965 E6.37656
G1 X132.144 Y125.255 E6.41347
G1 X131.194 Y125.495 E6.45133
G1 X77.034 Y140.015 E8.61826
G1 X76.724 Y140.085 E8.63054
G1 X76.094 Y140.185 E8.65519
G1 X75.464 Y140.245 E8.67965
G1 X74.504 Y140.245 E8.71675
G1 X73.874 Y140.195 E8.74117
G1 X73.553 Y140.155 E8.75364
G1 X72.934 Y140.035 E8.77804
G1 X72.314 Y139.875 E8.80279
G1 X71.714 Y139.675 E8.82723
G1 X71.124 Y139.435 E8.85184
G1 X70.834 Y139.295 E8.86429
G1 X70.284 Y138.995 E8.88850
G1 X69.034 Y138.265 E8.94444
G1 X67.974 Y137.545 E8.99396
G1 X39.534 Y115.165 E10.39251
G1 X38.914 Y114.635 E10.42403
G1 X36.904 Y112.745 E10.53066
G1 X36.114 Y111.895 E10.57550
G1 X34.354 Y109.765 E10.68228
G1 X33.674 Y108.835 E10.72680
G1 X32.194 Y106.505 E10.83348
G1 X31.644 Y105.495 E10.87792
G1 X30.464 Y102.995 E10.98475
G1 X30.024 Y101.905 E11.03018
G1 X29.164 Y99.255 E11.13785
G1 X28.874 Y98.115 E11.18330
G1 X28.364 Y95.425 E11.28911
G1 X28.224 Y94.275 E11.33388
G1 X28.054 Y91.515 E11.44074
G1 X28.054 Y90.375 E11.48480
G1 X28.224 Y87.615 E11.59166
G1 X28.374 Y86.445 E11.63725
G1 X28.894 Y83.735 E11.74389
G1 X29.174 Y82.635 E11.78775
G1 X30.024 Y80.005 E11.89456
G1 X30.464 Y78.895 E11.94071
G1 X31.644 Y76.395 E12.04754
G1 X32.194 Y75.385 E12.09198
G1 X33.674 Y73.055 E12.19866
G1 X34.354 Y72.125 E12.24318
G1 X36.114 Y69.995 E12.34996
G1 X36.904 Y69.145 E12.39480
G1 X38.914 Y67.255 E12.50143
G1 X39.834 Y66.495 E12.54754
G1 X41.998 Y64.930 E12.65075
G1 X42.444 Y65.385 F9000.000
G1 X43.344 Y64.815 F840.000 E12.69192
G1 X45.764 Y63.485 E12.79863
G1 X46.734 Y63.025 E12.84012
G1 X49.303 Y62.005 E12.94697
G1 X50.324 Y61.675 E12.98840
G1 X52.994 Y60.985 E13.09498
G1 X54.094 Y60.775 E13.13825
G1 X56.834 Y60.435 E13.24495
G1 X57.894 Y60.375 E13.28598
G1 X60.663 Y60.375 E13.39303
G1 X61.724 Y60.435 E13.43406
G1 X64.464 Y60.775 E13.54076
G1 X65.564 Y60.985 E13.58404
G1 X68.234 Y61.675 E13.69061
G1 X69.254 Y62.005 E13.73204
G1 X71.823 Y63.025 E13.83889
G1 X121.974 Y84.755 E15.95105
G1 X122.853 Y85.195 E15.98908
G1 X133.724 Y91.465 E16.47402
G1 X134.243 Y91.795 E16.49782
G1 X134.493 Y91.965 E16.50951
G1 X134.983 Y92.345 E16.53347
G1 X135.433 Y92.765 E16.55726
G1 X135.863 Y93.205 E16.58103
G1 X136.254 Y93.685 E16.60493
G1 X136.613 Y94.185 E16.62874
G1 X136.933 Y94.715 E16.65267
G1 X137.084 Y94.985 E16.66460
G1 X137.344 Y95.535 E16.68811
G1 X137.663 Y96.405 E16.72394
G1 X141.123 Y109.325 E17.24083
G1 X141.233 Y109.925 E17.26440
G1 X141.314 Y110.535 E17.28817
G1 X141.334 Y110.845 E17.30018
G1 X141.334 Y111.465 E17.32414
G1 X141.303 Y112.075 E17.34774
G1 X141.163 Y112.995 E17.38370
G1 X141.013 Y113.595 E17.40761
G1 X140.724 Y114.465 E17.44304
G1 X140.334 Y115.305 E17.47883
G1 X137.263 Y120.625 E17.71620
G1 X136.933 Y121.145 E17.74000
G1 X136.373 Y121.885 E17.77587
G1 X135.954 Y122.345 E17.79994
G1 X135.504 Y122.765 E17.82373
G1 X135.024 Y123.165 E17.84787
G1 X134.774 Y123.345 E17.85978
G1 X134.263 Y123.685 E17.88346
G1 X133.724 Y123.985 E17.90734
G1 X133.163 Y124.245 E17.93120
G1 X132.584 Y124.465 E17.95517
G1 X132.284 Y124.565 E17.96739
G1 X76.874 Y139.415 E20.18428
G1 X76.263 Y139.525 E20.20823
G1 X75.654 Y139.605 E20.23201
G1 X75.344 Y139.625 E20.24401
G1 X74.413 Y139.615 E20.27996
G1 X73.793 Y139.555 E20.30403
G1 X72.883 Y139.385 E20.33980
G1 X72.284 Y139.215 E20.36390
G1 X71.994 Y139.115 E20.37576
G1 X71.424 Y138.875 E20.39966
G1 X70.864 Y138.605 E20.42368
G1 X69.344 Y137.725 E20.49156
G1 X68.364 Y137.055 E20.53744
G1 X39.924 Y114.675 E21.93599
G1 X39.344 Y114.175 E21.96558
G1 X37.334 Y112.285 E22.07221
G1 X36.594 Y111.495 E22.11404
G1 X34.834 Y109.365 E22.22082
G1 X34.204 Y108.495 E22.26233
G1 X32.724 Y106.165 E22.36900
G1 X32.204 Y105.225 E22.41051
G1 X31.024 Y102.725 E22.51735
G1 X30.624 Y101.705 E22.55969
G1 X29.764 Y99.055 E22.66736
G1 X29.494 Y98.005 E22.70925
G1 X28.984 Y95.315 E22.81506
G1 X28.844 Y94.235 E22.85715
G1 X28.674 Y91.475 E22.96401
G1 X28.674 Y90.415 E23.00497
G1 X28.844 Y87.655 E23.11184
G1 X28.984 Y86.555 E23.15469
G1 X29.504 Y83.845 E23.26133
G1 X29.764 Y82.825 E23.30201
G1 X30.614 Y80.195 E23.40882
G1 X31.024 Y79.165 E23.45166
G1 X32.204 Y76.665 E23.55849
G1 X32.724 Y75.725 E23.60001
G1 X34.204 Y73.395 E23.70668
G1 X34.834 Y72.525 E23.74819
G1 X36.594 Y70.395 E23.85497
G1 X37.334 Y69.605 E23.89680
G1 X39.344 Y67.715 E24.00342
G1 X40.204 Y67.005 E24.04652
G1 X42.368 Y65.440 E24.14973
G1 F600.000 E23.14973
G92 E0
G1 X46.265 Y70.567 F9000.000
G1 F600.000 E1.00000
G1 X48.923 Y69.096 F840.000 E1.11739
G1 X51.875 Y67.927 E1.24007
G1 X54.819 Y67.180 E1.35745
G1 X57.696 Y66.816 E1.46953
G1 X60.871 Y66.816 E1.59221
G1 X63.748 Y67.180 E1.70430
G1 X66.692 Y67.927 E1.82168
G1 X69.520 Y69.037 E1.93906
G1 X72.186 Y70.493 E2.05644
G1 X74.754 Y72.359 E2.17913
G1 X76.868 Y74.344 E2.29121
G1 X78.811 Y76.679 E2.40859
G1 X80.446 Y79.239 E2.52597
G1 X81.747 Y81.984 E2.64335
G1 X82.728 Y85.003 E2.76604
G1 X83.283 Y87.960 E2.88231
G1 X83.471 Y90.881 E2.99542
G1 X83.288 Y93.915 E3.11288
G1 X82.694 Y97.033 E3.23556
G1 X81.797 Y99.791 E3.34764
G1 X81.559 Y100.318 E3.36998
G1 X118.406 Y90.445 E4.84418
G1 X119.269 Y90.559 E4.87780
G1 X130.885 Y97.265 E5.39615
G1 X131.414 Y97.956 E5.42977
G1 X134.942 Y111.117 E5.95633
G1 X134.828 Y111.979 E5.98996
G1 X131.480 Y117.777 E6.24870
G1 X130.790 Y118.307 E6.28232
G1 X75.096 Y133.230 E8.51054
G1 X74.233 Y133.117 E8.54417
G1 X72.224 Y131.957 E8.63381
G1 X71.694 Y131.267 E8.66744
G1 X67.055 Y113.954 E9.36009
G1 X56.512 Y116.779 E9.78194
G1 X54.946 Y114.739 E9.88130
G1 X54.684 Y114.697 E9.89158
G1 X51.875 Y113.976 E10.00366
G1 X49.047 Y112.866 E10.12104
G1 X46.265 Y111.337 E10.24372
G1 X43.813 Y109.544 E10.36111
G1 X41.605 Y107.459 E10.47849
G1 X39.675 Y105.113 E10.59587
G1 X38.055 Y102.544 E10.71325
G1 X36.820 Y99.919 E10.82536
G1 X35.834 Y96.873 E10.94907
G1 X35.279 Y93.915 E11.06539
G1 X35.096 Y91.020 E11.17747
G1 X35.279 Y87.988 E11.29486
G1 X35.873 Y84.870 E11.41754
G1 X36.820 Y81.984 E11.53492
G1 X38.055 Y79.360 E11.64700
G1 X39.675 Y76.790 E11.76438
G1 X41.699 Y74.344 E11.88707
G1 X43.813 Y72.359 E11.99915
G1 X46.190 Y70.622 E12.11291
G1 X46.617 Y71.084 F9000.000
G1 X49.207 Y69.653 F840.000 E12.22726
G1 X52.049 Y68.527 E12.34540
G1 X54.917 Y67.797 E12.45975
G1 X57.755 Y67.439 E12.57031
G1 X60.812 Y67.439 E12.68845
G1 X63.650 Y67.797 E12.79901
G1 X66.518 Y68.527 E12.91336
G1 X69.271 Y69.611 E13.02771
G1 X71.950 Y71.084 E13.14584
G1 X74.340 Y72.828 E13.26019
G1 X76.426 Y74.786 E13.37076
G1 X78.317 Y77.062 E13.48511
G1 X79.908 Y79.557 E13.59946
G1 X81.173 Y82.232 E13.71381
G1 X82.118 Y85.139 E13.83194
G1 X82.661 Y88.019 E13.94520
G1 X82.846 Y90.901 E14.05679
G1 X82.666 Y93.856 E14.17120
G1 X82.093 Y96.859 E14.28933
G1 X81.209 Y99.580 E14.39989
G1 X80.420 Y101.270 E14.47199
G1 X118.448 Y91.081 E15.99340
G1 X119.064 Y91.162 E16.01742
G1 X130.465 Y97.744 E16.52616
G1 X130.843 Y98.237 E16.55017
G1 X134.306 Y111.158 E17.06712
G1 X134.225 Y111.775 E17.09114
G1 X131.001 Y117.357 E17.34028
G1 X130.508 Y117.736 E17.36430
G1 X75.054 Y132.594 E19.58291
G1 X74.438 Y132.513 E19.60693
G1 X72.644 Y131.478 E19.68697
G1 X72.266 Y130.985 E19.71099
G1 X67.497 Y113.188 E20.42299
G1 X56.753 Y116.067 E20.85284
G1 X55.482 Y114.411 E20.93352
G1 X55.608 Y114.193 E20.94326
G1 X54.820 Y114.087 E20.97399
G1 X52.049 Y113.376 E21.08455
G1 X49.296 Y112.292 E21.19890
G1 X46.700 Y110.872 E21.31325
G1 X44.227 Y109.075 E21.43138
G1 X42.074 Y107.045 E21.54573
G1 X40.192 Y104.761 E21.66008
G1 X38.612 Y102.260 E21.77443
G1 X37.394 Y99.671 E21.88502
G1 X36.444 Y96.737 E22.00418
G1 X35.901 Y93.856 E22.11747
G1 X35.721 Y91.001 E22.22804
G1 X35.913 Y87.950 E22.34617
G1 X36.474 Y85.044 E22.46052
G1 X37.394 Y82.232 E22.57487
G1 X38.659 Y79.557 E22.68922
G1 X40.192 Y77.142 E22.79978
G1 X42.141 Y74.786 E22.91792
G1 X44.227 Y72.828 E23.02848
G1 X46.541 Y71.139 E23.13921
G1 X46.968 Y71.601 F9000.000
G1 X49.491 Y70.210 F840.000 E23.25053
G1 X52.223 Y69.128 E23.36412
G1 X54.957 Y68.426 E23.47316
G1 X57.814 Y68.061 E23.58448
G1 X60.753 Y68.061 E23.69807
G1 X63.610 Y68.426 E23.80939
G1 X66.344 Y69.128 E23.91843
G1 X69.076 Y70.210 E24.03202
G1 X71.599 Y71.601 E24.14334
G1 X73.927 Y73.297 E24.25465
G1 X75.984 Y75.228 E24.36370
G1 X77.823 Y77.445 E24.47501
G1 X79.398 Y79.927 E24.58860
G1 X80.599 Y82.480 E24.69765
G1 X81.493 Y85.219 E24.80896
G1 X82.039 Y88.079 E24.92148
G1 X82.221 Y90.981 E25.03385
G1 X82.044 Y93.797 E25.14291
G1 X81.508 Y96.627 E25.25423
G1 X80.599 Y99.423 E25.36781
G1 X79.398 Y101.976 E25.47686
G1 X79.238 Y102.234 E25.48858
G1 X118.490 Y91.717 E27.05895
G1 X118.859 Y91.765 E27.07336
G1 X130.045 Y98.223 E27.57250
G1 X130.272 Y98.519 E27.58691
G1 X133.670 Y111.200 E28.09425
G1 X133.621 Y111.570 E28.10866
G1 X130.522 Y116.937 E28.34819
G1 X130.226 Y117.164 E28.36260
G1 X75.012 Y131.959 E30.57161
G1 X74.643 Y131.910 E30.58602
G1 X73.064 Y130.999 E30.65645
G1 X72.837 Y130.703 E30.67086
G1 X67.939 Y112.423 E31.40221
G1 X56.995 Y115.356 E31.84008
G1 X56.232 Y114.362 E31.88849
G1 X56.620 Y113.691 E31.91843
G1 X54.957 Y113.477 E31.98323
G1 X52.223 Y112.775 E32.09228
G1 X49.544 Y111.718 E32.20359
G1 X46.968 Y110.302 E32.31718
G1 X44.640 Y108.606 E32.42850
G1 X42.543 Y106.632 E32.53982
G1 X40.744 Y104.458 E32.64886
G1 X39.198 Y102.028 E32.76018
G1 X37.968 Y99.422 E32.87151
G1 X37.054 Y96.601 E32.98612
G1 X36.523 Y93.797 E33.09639
G1 X36.346 Y90.981 E33.20544
G1 X36.523 Y88.106 E33.31675
G1 X37.074 Y85.219 E33.43034
G1 X37.968 Y82.480 E33.54166
G1 X39.169 Y79.927 E33.65070
G1 X40.709 Y77.493 E33.76202
G1 X42.583 Y75.228 E33.87561
G1 X44.640 Y73.297 E33.98466
G1 X46.892 Y71.656 E34.09235
G1 X47.320 Y72.118 F9000.000
G1 X49.792 Y70.758 F840.000 E34.20139
G1 X52.398 Y69.728 E34.30967
G1 X55.093 Y69.036 E34.41720
G1 X57.873 Y68.684 E34.52549
G1 X60.694 Y68.684 E34.63453
G1 X63.455 Y69.032 E34.74205
G1 X66.169 Y69.728 E34.85034
G1 X68.793 Y70.767 E34.95938
G1 X71.247 Y72.118 E35.06767
G1 X73.498 Y73.753 E35.17519
G1 X75.542 Y75.670 E35.28348
G1 X77.329 Y77.829 E35.39176
G1 X78.841 Y80.211 E35.50080
G1 X80.033 Y82.747 E35.60909
G1 X80.892 Y85.393 E35.71661
G1 X81.416 Y88.138 E35.82461
G1 X81.596 Y90.961 E35.93393
G1 X81.419 Y93.758 E36.04221
G1 X80.897 Y96.491 E36.14974
G1 X80.025 Y99.174 E36.25878
G1 X78.841 Y101.692 E36.36631
G1 X77.852 Y103.252 E36.43770
G1 X118.531 Y92.352 E38.06520
G1 X118.655 Y92.369 E38.07001
G1 X129.625 Y98.702 E38.55953
G1 X129.700 Y98.801 E38.56434
G1 X133.034 Y111.242 E39.06207
G1 X133.018 Y111.365 E39.06688
G1 X130.043 Y116.517 E39.29680
G1 X129.944 Y116.593 E39.30160
G1 X74.971 Y131.323 E41.50100
G1 X74.848 Y131.307 E41.50581
G1 X73.484 Y130.520 E41.56663
G1 X73.409 Y130.421 E41.57144
G1 X68.381 Y111.658 E42.32213
G1 X57.236 Y114.644 E42.76801
G1 X56.982 Y114.313 E42.78415
G1 X57.631 Y113.189 E42.83430
G1 X55.093 Y112.867 E42.93318
G1 X52.398 Y112.175 E43.04070
G1 X49.792 Y111.145 E43.14898
G1 X47.336 Y109.796 E43.25727
G1 X45.053 Y108.137 E43.36631
G1 X43.012 Y106.218 E43.47460
G1 X41.238 Y104.074 E43.58212
G1 X39.736 Y101.709 E43.69041
G1 X38.541 Y99.174 E43.79870
G1 X37.665 Y96.464 E43.90877
G1 X37.146 Y93.738 E44.01601
G1 X36.971 Y90.961 E44.12354
G1 X37.148 Y88.145 E44.23258
G1 X37.675 Y85.393 E44.34086
G1 X38.542 Y82.729 E44.44915
G1 X39.726 Y80.211 E44.55667
G1 X41.227 Y77.845 E44.66496
G1 X43.025 Y75.670 E44.77400
G1 X45.053 Y73.766 E44.88153
G1 X47.244 Y72.173 E44.98619
G1 X47.663 Y72.641 F9000.000
G1 X50.050 Y71.329 F840.000 E45.09144
G1 X52.582 Y70.326 E45.19668
G1 X55.220 Y69.649 E45.30193
G1 X57.922 Y69.307 E45.40718
G1 X60.645 Y69.307 E45.51243
G1 X63.347 Y69.649 E45.61768
G1 X65.985 Y70.326 E45.72293
G1 X68.517 Y71.329 E45.82817
G1 X70.904 Y72.641 E45.93343
G1 X73.107 Y74.241 E46.03867
G1 X75.093 Y76.106 E46.14392
G1 X76.829 Y78.204 E46.24917
G1 X78.288 Y80.504 E46.35442
G1 X79.448 Y82.968 E46.45967
G1 X80.289 Y85.558 E46.56492
G1 X80.799 Y88.233 E46.67016
G1 X80.970 Y90.952 E46.77541
G1 X80.799 Y93.670 E46.88066
G1 X80.289 Y96.345 E46.98591
G1 X79.448 Y98.935 E47.09116
G1 X78.288 Y101.399 E47.19641
G1 X76.466 Y104.271 E47.32784
G1 X118.508 Y93.006 E49.00988
G1 X129.146 Y99.148 E49.48460
G1 X132.381 Y111.218 E49.96753
G1 X129.598 Y116.039 E50.18264
G1 X74.994 Y130.670 E52.36724
G1 X73.963 Y130.074 E52.41326
G1 X68.823 Y110.892 E53.18070
G1 X58.005 Y113.791 E53.61351
G1 X58.695 Y112.596 E53.66686
G1 X57.922 Y112.596 E53.69674
G1 X55.220 Y112.254 E53.80199
G1 X52.582 Y111.577 E53.90724
G1 X50.050 Y110.574 E54.01248
G1 X47.663 Y109.262 E54.11774
G1 X45.460 Y107.662 E54.22298
G1 X43.474 Y105.797 E54.32823
G1 X41.738 Y103.699 E54.43348
G1 X40.279 Y101.399 E54.53873
G1 X39.119 Y98.935 E54.64398
G1 X38.278 Y96.345 E54.74923
G1 X37.768 Y93.670 E54.85448
G1 X37.597 Y90.952 E54.95972
G1 X37.768 Y88.233 E55.06497
G1 X38.278 Y85.558 E55.17022
G1 X39.119 Y82.968 E55.27547
G1 X40.279 Y80.504 E55.38072
G1 X41.738 Y78.204 E55.48597
G1 X43.474 Y76.106 E55.59122
G1 X45.460 Y74.241 E55.69647
G1 X47.587 Y72.696 E55.79809
G1 X48.211 Y72.942 F9000.000
G1 F600.000 E54.79809
G92 E0
G1 X123.737 Y96.746 F9000.000
G1 F600.000 E1.00000
G1 X128.610 Y99.560 F840.000 E1.21744
G1 X131.711 Y111.130 E1.68036
G1 X129.186 Y115.502 E1.87547
G1 X124.247 Y116.826 E2.07307
G1 X123.870 Y115.417 E2.12942
G1 X124.453 Y115.560 E2.15265
G1 X124.844 Y115.605 E2.16786
G1 X125.238 Y115.601 E2.18308
G1 X125.629 Y115.548 E2.19832
G1 X126.010 Y115.446 E2.21356
G1 X126.376 Y115.296 E2.22883
G1 X126.718 Y115.103 E2.24403
G1 X127.034 Y114.869 E2.25922
G1 X127.320 Y114.595 E2.27453
G1 X127.567 Y114.288 E2.28975
G1 X127.775 Y113.954 E2.30495
G1 X127.939 Y113.596 E2.32018
G1 X128.057 Y113.220 E2.33541
G1 X128.128 Y112.831 E2.35070
G1 X128.148 Y112.437 E2.36592
G1 X128.119 Y112.044 E2.38115
G1 X128.046 Y111.686 E2.39527
G1 X124.563 Y98.686 E2.91537
G1 X124.447 Y98.341 E2.92943
G1 X124.276 Y97.986 E2.94470
