; generated by Slic3r 0.9.8 on 2013-03-23 at 11:17:11

; layer_height = 0.21
; perimeters = 2
; top_solid_layers = 4
; bottom_solid_layers = 4
; fill_density = 0.2
; perimeter_speed = 40
; infill_speed = 45
; travel_speed = 200
; scale = 1
; nozzle_diameter = 0.35
; filament_diameter = 2.8
; extrusion_multiplier = 1.088
; perimeters extrusion width = 0.49mm
; infill extrusion width = 0.49mm
; support material extrusion width = 0.49mm
; first layer extrusion width = 0.70mm

M107
M190 S70 ; wait for bed temperature to be reached
M104 S200 ; set temperature
G28 ; home all axes
M109 S200 ; wait for temperature to be reached
G90 ; use absolute coordinates
G21 ; set units to millimeters
G92 E0
M82 ; use absolute distances for extrusion
G1 F600.000 E-1.00000
G92 E0
G1 Z0.350 F12000.000
G1 X103.684 Y139.504
G1 F600.000 E1.00000
G1 X102.564 Y140.034 F960.000 E1.04788
G1 X101.854 Y140.324 E1.07752
G1 X97.284 Y141.944 E1.26490
G1 X96.074 Y142.294 E1.31358
G1 X95.324 Y142.474 E1.34338
G1 X90.554 Y143.354 E1.53083
G1 X89.324 Y143.514 E1.57876
G1 X88.574 Y143.564 E1.60781
G1 X83.724 Y143.694 E1.79531
G1 X82.984 Y143.684 E1.82391
G1 X82.424 Y143.654 E1.84558
G1 X81.714 Y143.584 E1.87315
G1 X76.904 Y142.954 E2.06062
G1 X76.134 Y142.824 E2.09080
G1 X74.924 Y142.534 E2.13888
G1 X70.274 Y141.154 E2.32633
G1 X69.634 Y140.934 E2.35248
G1 X69.104 Y140.734 E2.37438
G1 X68.394 Y140.434 E2.40416
G1 X64.014 Y138.344 E2.59171
G1 X63.334 Y137.984 E2.62145
G1 X62.854 Y137.704 E2.64292
G1 X62.274 Y137.334 E2.66951
G1 X58.274 Y134.584 E2.85709
G1 X57.314 Y133.854 E2.90370
G1 X56.694 Y133.314 E2.93548
G1 X53.184 Y129.974 E3.12272
G1 X52.324 Y129.064 E3.17110
G1 X51.844 Y128.494 E3.19990
G1 X48.894 Y124.654 E3.38703
G1 X48.154 Y123.554 E3.43827
G1 X47.794 Y122.944 E3.46564
G1 X45.484 Y118.684 E3.65291
G1 X45.184 Y118.074 E3.67918
G1 X44.664 Y116.854 E3.73043
G1 X43.044 Y112.284 E3.91781
G1 X42.694 Y111.074 E3.96649
G1 X42.514 Y110.324 E3.99630
G1 X41.634 Y105.554 E4.18374
G1 X41.474 Y104.324 E4.23168
G1 X41.424 Y103.574 E4.26072
G1 X41.294 Y98.724 E4.44822
G1 X41.304 Y97.984 E4.47682
G1 X41.334 Y97.424 E4.49849
G1 X41.404 Y96.694 E4.52683
G1 X42.044 Y91.884 E4.71435
G1 X42.254 Y90.744 E4.75915
G1 X42.454 Y89.924 E4.79177
G1 X43.834 Y85.274 E4.97921
G1 X44.054 Y84.634 E5.00537
G1 X44.254 Y84.104 E5.02726
G1 X44.554 Y83.394 E5.05705
G1 X46.644 Y79.014 E5.24459
G1 X47.004 Y78.334 E5.27433
G1 X47.284 Y77.854 E5.29580
G1 X47.654 Y77.274 E5.32239
G1 X50.404 Y73.274 E5.50998
G1 X51.134 Y72.314 E5.55659
G1 X51.674 Y71.694 E5.58836
G1 X55.014 Y68.184 E5.77560
G1 X55.924 Y67.324 E5.82399
G1 X56.504 Y66.844 E5.85308
G1 X60.354 Y63.894 E6.04052
G1 X61.364 Y63.204 E6.08779
G1 X62.044 Y62.794 E6.11848
G1 X66.304 Y60.484 E6.30575
G1 X67.424 Y59.954 E6.35363
G1 X68.144 Y59.664 E6.38363
G1 X72.724 Y58.044 E6.57137
G1 X73.864 Y57.704 E6.61734
G1 X74.664 Y57.514 E6.64912
G1 X79.434 Y56.634 E6.83657
G1 X80.684 Y56.474 E6.88527
G1 X81.424 Y56.424 E6.91393
G1 X86.274 Y56.294 E7.10143
G1 X87.014 Y56.304 E7.13003
G1 X87.574 Y56.334 E7.15170
G1 X88.304 Y56.404 E7.18004
G1 X93.104 Y57.044 E7.36718
G1 X94.244 Y57.254 E7.41197
G1 X95.064 Y57.454 E7.44459
G1 X99.714 Y58.834 E7.63204
G1 X100.354 Y59.054 E7.65819
G1 X100.884 Y59.254 E7.68008
G1 X101.594 Y59.554 E7.70987
G1 X105.974 Y61.644 E7.89742
G1 X106.654 Y62.004 E7.92715
G1 X107.134 Y62.284 E7.94863
G1 X107.714 Y62.654 E7.97521
G1 X111.714 Y65.404 E8.16280
G1 X112.674 Y66.134 E8.20941
G1 X113.284 Y66.664 E8.24064
G1 X116.804 Y70.004 E8.42816
G1 X117.374 Y70.604 E8.46014
G1 X118.144 Y71.504 E8.50591
G1 X121.094 Y75.354 E8.69335
G1 X121.784 Y76.364 E8.74062
G1 X122.194 Y77.044 E8.77131
G1 X124.504 Y81.304 E8.95858
G1 X124.804 Y81.914 E8.98485
G1 X125.034 Y82.424 E9.00647
G1 X125.324 Y83.144 E9.03647
G1 X126.944 Y87.724 E9.22421
G1 X127.284 Y88.864 E9.27018
G1 X127.474 Y89.664 E9.30196
G1 X128.354 Y94.434 E9.48941
G1 X128.514 Y95.684 E9.53811
G1 X128.564 Y96.424 E9.56677
G1 X128.694 Y101.274 E9.75427
G1 X128.684 Y102.014 E9.78287
G1 X128.654 Y102.574 E9.80454
G1 X128.584 Y103.284 E9.83211
G1 X127.954 Y108.084 E10.01920
G1 X127.824 Y108.854 E10.04938
G1 X127.534 Y110.064 E10.09746
G1 X126.154 Y114.714 E10.28491
G1 X125.934 Y115.354 E10.31106
G1 X125.734 Y115.884 E10.33295
G1 X125.434 Y116.594 E10.36274
G1 X123.344 Y120.974 E10.55029
G1 X122.984 Y121.654 E10.58002
G1 X122.704 Y122.134 E10.60149
G1 X122.334 Y122.714 E10.62808
G1 X119.584 Y126.714 E10.81567
G1 X118.854 Y127.674 E10.86228
G1 X118.324 Y128.284 E10.89350
G1 X114.984 Y131.804 E11.08103
G1 X114.384 Y132.374 E11.11301
G1 X113.494 Y133.144 E11.15849
G1 X109.654 Y136.094 E11.34562
G1 X108.554 Y136.834 E11.39685
G1 X107.944 Y137.194 E11.42423
G1 X103.766 Y139.459 E11.60788
G1 X103.684 Y139.504 E11.61150
G1 X103.384 Y138.954 F12000.000
G1 X102.314 Y139.464 F960.000 E11.65731
G1 X101.644 Y139.734 E11.68522
G1 X97.074 Y141.354 E11.87260
G1 X95.914 Y141.694 E11.91931
G1 X95.204 Y141.854 E11.94744
G1 X90.434 Y142.734 E12.13489
G1 X89.264 Y142.884 E12.18047
G1 X88.554 Y142.934 E12.20798
G1 X83.704 Y143.064 E12.39547
G1 X83.014 Y143.054 E12.42214
G1 X81.794 Y142.964 E12.46942
G1 X76.984 Y142.334 E12.65689
G1 X76.264 Y142.214 E12.68510
G1 X75.104 Y141.934 E12.73121
G1 X70.454 Y140.554 E12.91866
G1 X69.854 Y140.354 E12.94310
G1 X69.324 Y140.154 E12.96499
G1 X68.664 Y139.864 E12.99285
G1 X64.284 Y137.774 E13.18040
G1 X63.644 Y137.444 E13.20823
G1 X63.164 Y137.164 E13.22970
G1 X62.624 Y136.824 E13.25436
G1 X58.624 Y134.074 E13.44195
G1 X57.704 Y133.364 E13.48686
G1 X57.124 Y132.864 E13.51645
G1 X53.614 Y129.524 E13.70369
G1 X52.784 Y128.644 E13.75044
G1 X52.344 Y128.104 E13.77736
G1 X49.394 Y124.264 E13.96449
G1 X48.984 Y123.694 E13.99163
G1 X48.674 Y123.214 E14.01371
G1 X48.344 Y122.644 E14.03916
G1 X46.034 Y118.384 E14.22644
G1 X45.754 Y117.824 E14.25063
G1 X45.524 Y117.314 E14.27225
G1 X45.254 Y116.644 E14.30017
G1 X43.634 Y112.074 E14.48754
G1 X43.294 Y110.914 E14.53426
G1 X43.134 Y110.204 E14.56238
G1 X42.254 Y105.434 E14.74983
G1 X42.104 Y104.264 E14.79542
G1 X42.054 Y103.554 E14.82292
G1 X41.924 Y98.704 E15.01042
G1 X41.934 Y98.014 E15.03709
G1 X42.024 Y96.774 E15.08513
G1 X42.664 Y91.964 E15.27265
G1 X42.864 Y90.864 E15.31586
G1 X43.054 Y90.104 E15.34613
G1 X44.434 Y85.454 E15.53358
G1 X44.634 Y84.854 E15.55802
G1 X44.834 Y84.324 E15.57991
G1 X45.124 Y83.664 E15.60777
G1 X47.214 Y79.284 E15.79532
G1 X47.544 Y78.644 E15.82315
G1 X47.824 Y78.164 E15.84462
G1 X48.164 Y77.624 E15.86928
G1 X50.914 Y73.624 E16.05687
G1 X51.624 Y72.704 E16.10178
G1 X52.124 Y72.124 E16.13137
G1 X55.464 Y68.614 E16.31862
G1 X56.344 Y67.784 E16.36536
G1 X56.884 Y67.334 E16.39253
G1 X60.734 Y64.384 E16.57997
G1 X61.704 Y63.724 E16.62531
G1 X62.344 Y63.344 E16.65407
G1 X66.604 Y61.034 E16.84134
G1 X67.674 Y60.524 E16.88715
G1 X68.344 Y60.254 E16.91507
G1 X72.924 Y58.634 E17.10281
G1 X74.034 Y58.304 E17.14756
G1 X74.784 Y58.134 E17.17728
G1 X79.554 Y57.254 E17.36473
G1 X80.194 Y57.154 E17.38976
G1 X80.754 Y57.094 E17.41152
G1 X81.444 Y57.054 E17.43823
G1 X86.294 Y56.924 E17.62573
G1 X86.984 Y56.934 E17.65240
G1 X88.224 Y57.024 E17.70044
G1 X93.024 Y57.664 E17.88758
G1 X94.124 Y57.864 E17.93079
G1 X94.884 Y58.054 E17.96106
G1 X99.534 Y59.434 E18.14851
G1 X100.134 Y59.634 E18.17295
G1 X100.664 Y59.834 E18.19484
G1 X101.324 Y60.124 E18.22270
G1 X105.704 Y62.214 E18.41025
G1 X106.344 Y62.544 E18.43808
G1 X106.824 Y62.824 E18.45955
G1 X107.364 Y63.164 E18.48421
G1 X111.364 Y65.914 E18.67180
G1 X112.284 Y66.624 E18.71671
G1 X112.854 Y67.114 E18.74576
G1 X116.374 Y70.454 E18.93328
G1 X116.904 Y71.014 E18.96308
G1 X117.654 Y71.884 E19.00746
G1 X120.604 Y75.734 E19.19490
G1 X121.264 Y76.704 E19.24024
G1 X121.644 Y77.344 E19.26901
G1 X123.954 Y81.604 E19.45628
G1 X124.234 Y82.164 E19.48048
G1 X124.464 Y82.674 E19.50210
G1 X124.734 Y83.344 E19.53001
G1 X126.354 Y87.924 E19.71775
G1 X126.684 Y89.034 E19.76251
G1 X126.854 Y89.784 E19.79222
G1 X127.734 Y94.554 E19.97967
G1 X127.834 Y95.194 E20.00470
G1 X127.894 Y95.754 E20.02647
G1 X127.934 Y96.444 E20.05318
G1 X128.064 Y101.294 E20.24068
G1 X128.054 Y101.984 E20.26734
G1 X127.964 Y103.204 E20.31462
G1 X127.334 Y108.004 E20.50171
G1 X127.214 Y108.724 E20.52991
G1 X126.934 Y109.884 E20.57603
G1 X125.554 Y114.534 E20.76348
G1 X125.354 Y115.134 E20.78792
G1 X125.154 Y115.664 E20.80981
G1 X124.864 Y116.324 E20.83767
G1 X122.774 Y120.704 E21.02522
G1 X122.444 Y121.344 E21.05304
G1 X122.164 Y121.824 E21.07452
G1 X121.824 Y122.364 E21.09918
G1 X119.074 Y126.364 E21.28677
G1 X118.364 Y127.284 E21.33168
G1 X117.874 Y127.854 E21.36072
G1 X114.534 Y131.374 E21.54825
G1 X113.974 Y131.904 E21.57804
G1 X113.104 Y132.644 E21.62218
G1 X109.264 Y135.594 E21.80931
G1 X108.694 Y136.004 E21.83645
G1 X108.214 Y136.314 E21.85853
G1 X107.644 Y136.644 E21.88398
G1 X103.466 Y138.909 E22.06763
G1 X103.384 Y138.954 E22.07126
G1 F600.000 E21.07126
G92 E0
G1 X99.690 Y131.886 F12000.000
G1 F600.000 E1.00000
G1 X98.867 Y132.252 F960.000 E1.03480
G1 X98.530 Y132.215 E1.04790
G1 X97.659 Y131.565 E1.08991
G1 X96.876 Y130.911 E1.12935
G1 X96.219 Y130.287 E1.16435
G1 X95.794 Y129.824 E1.18864
G1 X95.381 Y129.972 E1.20558
G1 X95.342 Y130.597 E1.22981
G1 X95.227 Y131.477 E1.26407
G1 X95.027 Y132.497 E1.30426
G1 X94.760 Y133.549 E1.34621
G1 X94.521 Y133.791 E1.35933
G1 X93.650 Y134.024 E1.39419
G1 X93.323 Y133.934 E1.40730
G1 X92.565 Y133.157 E1.44926
G1 X91.894 Y132.388 E1.48869
G1 X91.342 Y131.669 E1.52373
G1 X90.996 Y131.147 E1.54794
G1 X90.565 Y131.226 E1.56489
G1 X90.428 Y131.839 E1.58914
G1 X90.171 Y132.708 E1.62415
G1 X89.819 Y133.666 E1.66359
G1 X89.390 Y134.664 E1.70558
G1 X89.117 Y134.865 E1.71869
G1 X88.221 Y134.959 E1.75350
G1 X87.912 Y134.819 E1.76660
G1 X87.285 Y133.932 E1.80858
G1 X86.730 Y133.047 E1.84895
G1 X86.191 Y132.030 E1.89342
G1 X86.045 Y131.700 E1.90735
G1 X85.615 Y131.712 E1.92396
G1 X85.488 Y132.045 E1.93775
G1 X85.140 Y132.815 E1.97039
G1 X84.673 Y133.698 E2.00899
G1 X83.909 Y134.926 E2.06488
G1 X83.611 Y135.079 E2.07786
G1 X82.712 Y135.033 E2.11261
G1 X82.429 Y134.846 E2.12574
G1 X81.949 Y133.872 E2.16769
G1 X81.548 Y132.934 E2.20712
G1 X81.245 Y132.078 E2.24220
G1 X81.077 Y131.475 E2.26641
G1 X80.643 Y131.417 E2.28335
G1 X80.324 Y131.957 E2.30758
G1 X79.822 Y132.689 E2.34187
G1 X79.180 Y133.507 E2.38207
G1 X78.464 Y134.324 E2.42403
G1 X78.142 Y134.431 E2.43715
G1 X77.260 Y134.243 E2.47201
G1 X77.010 Y134.014 E2.48511
G1 X76.688 Y132.977 E2.52705
G1 X76.438 Y131.988 E2.56648
G1 X76.274 Y131.096 E2.60154
G1 X76.202 Y130.474 E2.62571
G1 X75.782 Y130.350 E2.64267
G1 X75.382 Y130.832 E2.66689
G1 X74.758 Y131.490 E2.70193
G1 X74.010 Y132.185 E2.74137
G1 X73.176 Y132.878 E2.78331
G1 X72.841 Y132.934 E2.79642
G1 X71.999 Y132.610 E2.83128
G1 X71.787 Y132.345 E2.84439
G1 X71.631 Y131.271 E2.88634
G1 X71.539 Y130.235 E2.92653
G1 X71.517 Y129.348 E2.96082
G1 X71.543 Y128.721 E2.98507
G1 X71.148 Y128.533 E3.00198
G1 X70.677 Y128.949 E3.02626
G1 X69.957 Y129.500 E3.06130
G1 X69.111 Y130.068 E3.10070
G1 X68.178 Y130.624 E3.14267
G1 X67.838 Y130.627 E3.15579
G1 X67.057 Y130.176 E3.19064
G1 X66.890 Y129.881 E3.20376
G1 X66.904 Y128.795 E3.24573
G1 X66.975 Y127.758 E3.28588
G1 X67.091 Y126.878 E3.32017
G1 X67.216 Y126.262 E3.34445
G1 X66.855 Y126.015 E3.36137
G1 X66.325 Y126.351 E3.38561
G1 X65.546 Y126.775 E3.41989
G1 X64.603 Y127.213 E3.46009
G1 X63.594 Y127.616 E3.50204
G1 X63.259 Y127.565 E3.51515
G1 X62.558 Y126.997 E3.55002
G1 X62.439 Y126.679 E3.56312
G1 X62.622 Y125.610 E3.60507
G1 X62.849 Y124.615 E3.64450
G1 X63.107 Y123.746 E3.67954
G1 X63.326 Y123.158 E3.70378
G1 X63.008 Y122.856 E3.72071
G1 X62.433 Y123.105 E3.74492
G1 X61.578 Y123.409 E3.77997
G1 X60.596 Y123.687 E3.81941
G1 X59.538 Y123.927 E3.86135
G1 X59.215 Y123.824 E3.87446
G1 X58.611 Y123.155 E3.90930
G1 X58.542 Y122.822 E3.92242
G1 X58.892 Y121.794 E3.96439
G1 X59.279 Y120.829 E4.00458
G1 X59.662 Y120.028 E4.03887
G1 X59.971 Y119.481 E4.06314
G1 X59.704 Y119.134 E4.08005
G1 X59.097 Y119.291 E4.10428
G1 X58.204 Y119.456 E4.13935
G1 X57.191 Y119.578 E4.17878
G1 X56.108 Y119.650 E4.22074
G1 X55.804 Y119.497 E4.23386
G1 X55.314 Y118.741 E4.26868
G1 X55.299 Y118.403 E4.28176
G1 X55.812 Y117.426 E4.32440
G1 X56.338 Y116.548 E4.36396
G1 X56.841 Y115.818 E4.39824
G1 X57.231 Y115.327 E4.42246
G1 X57.023 Y114.945 E4.43925
G1 X56.665 Y114.983 E4.45315
G1 X55.515 Y115.025 E4.49762
G1 X54.471 Y114.987 E4.53799
G1 X53.390 Y114.887 E4.57997
G1 X53.114 Y114.690 E4.59308
G1 X52.748 Y113.867 E4.62788
G1 X52.785 Y113.530 E4.64099
G1 X53.435 Y112.659 E4.68299
G1 X54.089 Y111.876 E4.72243
G1 X54.712 Y111.219 E4.75742
G1 X55.175 Y110.793 E4.78172
G1 X55.028 Y110.381 E4.79865
G1 X54.403 Y110.342 E4.82286
G1 X53.524 Y110.227 E4.85713
G1 X52.503 Y110.027 E4.89734
G1 X51.450 Y109.759 E4.93930
G1 X51.209 Y109.521 E4.95241
G1 X50.975 Y108.650 E4.98725
G1 X51.065 Y108.323 E5.00036
G1 X51.843 Y107.565 E5.04232
G1 X52.612 Y106.894 E5.08175
G1 X53.331 Y106.342 E5.11680
G1 X53.853 Y105.996 E5.14100
G1 X53.773 Y105.565 E5.15795
G1 X53.161 Y105.428 E5.18221
G1 X52.293 Y105.171 E5.21720
G1 X51.334 Y104.820 E5.25665
G1 X50.336 Y104.390 E5.29865
G1 X50.135 Y104.117 E5.31175
G1 X50.041 Y103.221 E5.34656
G1 X50.181 Y102.912 E5.35967
G1 X51.068 Y102.285 E5.40164
G1 X51.953 Y101.730 E5.44201
G1 X52.970 Y101.191 E5.48649
G1 X53.299 Y101.045 E5.50042
G1 X53.288 Y100.611 E5.51719
G1 X52.705 Y100.381 E5.54142
G1 X51.904 Y100.000 E5.57570
G1 X51.009 Y99.502 E5.61526
G1 X50.076 Y98.913 E5.65790
G1 X49.921 Y98.612 E5.67099
G1 X49.967 Y97.712 E5.70580
G1 X50.154 Y97.429 E5.71892
G1 X51.128 Y96.949 E5.76087
G1 X52.066 Y96.548 E5.80031
G1 X52.922 Y96.245 E5.83539
G1 X53.525 Y96.077 E5.85960
G1 X53.582 Y95.643 E5.87653
G1 X53.043 Y95.324 E5.90076
G1 X52.311 Y94.822 E5.93506
G1 X51.492 Y94.180 E5.97525
G1 X50.676 Y93.464 E6.01722
G1 X50.569 Y93.142 E6.03034
G1 X50.757 Y92.260 E6.06519
G1 X50.986 Y92.010 E6.07829
G1 X52.022 Y91.688 E6.12022
G1 X53.012 Y91.438 E6.15966
G1 X53.904 Y91.274 E6.19471
G1 X54.526 Y91.202 E6.21890
G1 X54.650 Y90.782 E6.23585
G1 X54.167 Y90.382 E6.26008
G1 X53.509 Y89.758 E6.29512
G1 X52.815 Y89.010 E6.33455
G1 X52.121 Y88.176 E6.37649
G1 X52.066 Y87.841 E6.38960
G1 X52.389 Y86.999 E6.42446
G1 X52.654 Y86.787 E6.43756
G1 X53.729 Y86.631 E6.47952
G1 X54.765 Y86.539 E6.51972
G1 X55.652 Y86.517 E6.55400
G1 X56.278 Y86.543 E6.57824
G1 X56.467 Y86.148 E6.59516
G1 X56.051 Y85.677 E6.61944
G1 X55.500 Y84.957 E6.65449
G1 X54.931 Y84.111 E6.69388
G1 X54.376 Y83.178 E6.73585
G1 X54.373 Y82.838 E6.74897
G1 X54.824 Y82.057 E6.78382
G1 X55.120 Y81.890 E6.79694
G1 X56.205 Y81.904 E6.83891
G1 X57.242 Y81.975 E6.87906
G1 X58.122 Y82.091 E6.91335
G1 X58.737 Y82.216 E6.93763
G1 X58.985 Y81.855 E6.95454
G1 X58.649 Y81.325 E6.97878
G1 X58.225 Y80.546 E7.01307
G1 X57.787 Y79.603 E7.05326
G1 X57.384 Y78.594 E7.09522
G1 X57.435 Y78.259 E7.10833
G1 X58.003 Y77.558 E7.14319
G1 X58.321 Y77.438 E7.15630
G1 X59.390 Y77.622 E7.19824
G1 X60.385 Y77.849 E7.23768
G1 X61.254 Y78.107 E7.27271
G1 X61.842 Y78.326 E7.29695
G1 X62.144 Y78.008 E7.31389
G1 X61.895 Y77.433 E7.33809
G1 X61.591 Y76.578 E7.37315
G1 X61.313 Y75.597 E7.41258
G1 X61.073 Y74.538 E7.45452
G1 X61.176 Y74.215 E7.46762
G1 X61.845 Y73.611 E7.50247
G1 X62.178 Y73.542 E7.51560
G1 X63.206 Y73.892 E7.55756
G1 X64.171 Y74.279 E7.59776
G1 X64.972 Y74.662 E7.63205
G1 X65.518 Y74.971 E7.65631
G1 X65.866 Y74.704 E7.67323
G1 X65.709 Y74.097 E7.69745
G1 X65.544 Y73.204 E7.73253
G1 X65.422 Y72.191 E7.77197
G1 X65.350 Y71.108 E7.81392
G1 X65.503 Y70.804 E7.82704
G1 X66.258 Y70.314 E7.86186
G1 X66.597 Y70.299 E7.87494
G1 X67.574 Y70.812 E7.91758
G1 X68.452 Y71.338 E7.95713
G1 X69.182 Y71.841 E7.99142
G1 X69.673 Y72.231 E8.01564
G1 X70.055 Y72.023 E8.03243
G1 X70.016 Y71.666 E8.04633
G1 X69.975 Y70.515 E8.09080
G1 X70.013 Y69.471 E8.13117
G1 X70.112 Y68.390 E8.17315
G1 X70.310 Y68.114 E8.18626
G1 X71.133 Y67.748 E8.22107
G1 X71.470 Y67.785 E8.23417
G1 X72.341 Y68.435 E8.27617
G1 X73.124 Y69.089 E8.31561
G1 X73.781 Y69.713 E8.35062
G1 X74.206 Y70.175 E8.37490
G1 X74.619 Y70.028 E8.39184
