; generated by Slic3r 0.9.8 on 2013-03-21 at 00:41:43

; layer_height = 0.21
; perimeters = 2
; top_solid_layers = 4
; bottom_solid_layers = 4
; fill_density = 0.2
; perimeter_speed = 45
; infill_speed = 45
; travel_speed = 200
; scale = 1
; nozzle_diameter = 0.35
; filament_diameter = 2.8
; extrusion_multiplier = 1.088
; perimeters extrusion width = 0.49mm
; infill extrusion width = 0.49mm
; first layer extrusion width = 0.70mm

M107
M190 S70 ; wait for bed temperature to be reached
M104 S200 ; set temperature
G28 ; home all axes
M109 S200 ; wait for temperature to be reached
G90 ; use absolute coordinates
G21 ; set units to millimeters
G92 E0
M82 ; use absolute distances for extrusion
G1 F600.000 E-1.00000
G92 E0
G1 Z0.350 F12000.000
G1 X112.922 Y110.057
G1 F600.000 E1.00000
G1 X113.402 Y112.157 F1350.000 E1.08325
G1 X113.612 Y113.427 E1.13299
G1 X113.692 Y114.077 E1.15830
G1 X113.842 Y115.857 E1.22733
G1 X113.892 Y117.147 E1.27722
G1 X113.892 Y117.867 E1.30505
G1 X113.842 Y119.147 E1.35455
G1 X113.692 Y120.927 E1.42358
G1 X113.612 Y121.577 E1.44889
G1 X113.402 Y122.847 E1.49864
G1 X112.992 Y124.667 E1.57073
G1 X112.822 Y125.327 E1.59707
G1 X112.442 Y126.557 E1.64682
G1 X111.812 Y128.277 E1.71761
G1 X111.582 Y128.847 E1.74136
G1 X111.052 Y130.017 E1.79100
G1 X110.172 Y131.697 E1.86429
G1 X109.862 Y132.237 E1.88836
G1 X109.182 Y133.327 E1.93800
G1 X108.832 Y133.837 E1.96191
G1 X107.772 Y135.287 E2.03132
G1 X106.962 Y136.287 E2.08105
G1 X106.522 Y136.787 E2.10679
G1 X105.642 Y137.727 E2.15655
G1 X105.172 Y138.197 E2.18224
G1 X103.852 Y139.397 E2.25118
G1 X102.342 Y140.627 E2.32644
G1 X101.292 Y141.377 E2.37631
G1 X99.822 Y142.307 E2.44353
G1 X98.142 Y143.247 E2.51793
G1 X97.482 Y143.577 E2.54644
G1 X96.302 Y144.107 E2.59643
G1 X94.562 Y144.777 E2.66849
G1 X93.972 Y144.977 E2.69256
G1 X92.742 Y145.347 E2.74220
G1 X90.922 Y145.787 E2.81456
G1 X90.342 Y145.907 E2.83745
G1 X89.072 Y146.117 E2.88719
G1 X87.212 Y146.317 E2.95949
G1 X86.572 Y146.367 E2.98430
G1 X85.282 Y146.407 E3.03417
G1 X83.422 Y146.367 E3.10607
G1 X82.782 Y146.317 E3.13088
G1 X80.922 Y146.117 E3.20317
G1 X79.652 Y145.907 E3.25292
G1 X77.822 Y145.497 E3.32539
G1 X77.252 Y145.347 E3.34817
G1 X76.022 Y144.977 E3.39781
G1 X75.462 Y144.787 E3.42066
G1 X73.652 Y144.097 E3.49552
G1 X72.482 Y143.567 E3.54515
G1 X71.912 Y143.277 E3.56987
G1 X70.452 Y142.477 E3.63421
G1 X69.242 Y141.737 E3.68902
G1 X68.662 Y141.347 E3.71603
G1 X67.162 Y140.247 E3.78791
G1 X66.162 Y139.427 E3.83789
G1 X64.782 Y138.157 E3.91036
G1 X64.352 Y137.727 E3.93387
G1 X63.472 Y136.787 E3.98363
G1 X63.082 Y136.337 E4.00664
G1 X62.002 Y135.007 E4.07285
G1 X61.172 Y133.867 E4.12734
G1 X60.802 Y133.327 E4.15264
G1 X60.122 Y132.237 E4.20229
G1 X59.782 Y131.647 E4.22860
G1 X58.942 Y130.017 E4.29947
G1 X58.412 Y128.847 E4.34910
G1 X57.742 Y127.137 E4.42008
G1 X57.512 Y126.467 E4.44745
G1 X57.052 Y124.867 E4.51179
G1 X56.722 Y123.487 E4.56663
G1 X56.592 Y122.847 E4.59186
G1 X56.382 Y121.577 E4.64161
G1 X56.182 Y119.717 E4.71390
G1 X56.132 Y119.077 E4.73871
G1 X56.092 Y117.797 E4.78820
G1 X56.132 Y115.927 E4.86048
G1 X56.182 Y115.287 E4.88529
G1 X56.382 Y113.427 E4.95759
G1 X56.592 Y112.157 E5.00733
G1 X56.712 Y111.577 E5.03022
G1 X57.132 Y109.837 E5.09939
G1 X69.952 Y65.737 E6.87419
G1 X70.452 Y64.087 E6.94082
G1 X70.732 Y63.387 E6.96996
G1 X71.052 Y62.717 E6.99865
G1 X71.692 Y61.527 E7.05087
G1 X72.252 Y60.617 E7.09216
G1 X72.682 Y60.047 E7.11975
G1 X73.782 Y58.717 E7.18645
G1 X74.032 Y58.447 E7.20067
G1 X74.562 Y57.937 E7.22910
G1 X75.892 Y56.837 E7.29580
G1 X76.462 Y56.407 E7.32339
G1 X77.372 Y55.847 E7.36468
G1 X78.562 Y55.207 E7.41690
G1 X79.232 Y54.887 E7.44559
G1 X79.932 Y54.607 E7.47473
G1 X81.932 Y54.007 E7.55542
G1 X82.992 Y53.797 E7.59718
G1 X84.702 Y53.627 E7.66359
G1 X85.412 Y53.587 E7.69107
G1 X85.772 Y53.587 E7.70498
G1 X86.482 Y53.627 E7.73246
G1 X87.832 Y53.757 E7.78488
G1 X88.552 Y53.857 E7.81297
G1 X88.912 Y53.927 E7.82714
G1 X89.622 Y54.117 E7.85554
G1 X90.912 Y54.507 E7.90762
G1 X91.592 Y54.737 E7.93537
G1 X91.932 Y54.877 E7.94958
G1 X92.582 Y55.197 E7.97757
G1 X93.782 Y55.837 E8.03013
G1 X94.412 Y56.197 E8.05817
G1 X95.012 Y56.617 E8.08648
G1 X95.292 Y56.837 E8.10024
G1 X96.622 Y57.937 E8.16694
G1 X96.892 Y58.187 E8.18116
G1 X97.402 Y58.717 E8.20958
G1 X98.502 Y60.047 E8.27628
G1 X98.932 Y60.617 E8.30387
G1 X99.492 Y61.527 E8.34516
G1 X100.302 Y63.047 E8.41173
G1 X100.602 Y63.737 E8.44080
G1 X100.732 Y64.087 E8.45523
G1 X101.232 Y65.737 E8.52186
G1 X112.898 Y109.967 E10.28956
G1 X112.922 Y110.057 E10.29318
G1 X112.322 Y110.217 F12000.000
G1 X112.782 Y112.257 F1350.000 E10.37400
G1 X112.992 Y113.527 E10.42375
G1 X113.072 Y114.127 E10.44714
G1 X113.222 Y115.887 E10.51540
G1 X113.272 Y117.177 E10.56529
G1 X113.272 Y117.847 E10.59118
G1 X113.222 Y119.127 E10.64069
G1 X113.072 Y120.877 E10.70856
G1 X112.992 Y121.477 E10.73195
G1 X112.682 Y123.267 E10.80216
G1 X112.392 Y124.527 E10.85212
G1 X112.222 Y125.147 E10.87697
G1 X111.682 Y126.857 E10.94627
G1 X111.232 Y128.057 E10.99580
G1 X111.012 Y128.587 E11.01797
G1 X110.482 Y129.757 E11.06761
G1 X109.332 Y131.907 E11.16184
G1 X108.652 Y132.997 E11.21148
G1 X107.582 Y134.507 E11.28300
G1 X106.472 Y135.897 E11.35175
G1 X106.072 Y136.357 E11.37530
G1 X105.192 Y137.297 E11.42506
G1 X104.752 Y137.737 E11.44911
G1 X103.812 Y138.607 E11.49861
G1 X102.462 Y139.737 E11.56664
G1 X101.972 Y140.117 E11.59061
G1 X100.922 Y140.867 E11.64047
G1 X99.492 Y141.777 E11.70598
G1 X97.842 Y142.697 E11.77898
G1 X97.222 Y143.007 E11.80577
G1 X95.542 Y143.747 E11.87671
G1 X94.342 Y144.197 E11.92624
G1 X92.562 Y144.747 E11.99824
G1 X92.032 Y144.887 E12.01942
G1 X90.242 Y145.287 E12.09030
G1 X88.972 Y145.497 E12.14005
G1 X87.152 Y145.697 E12.21081
G1 X86.552 Y145.737 E12.23404
G1 X84.722 Y145.777 E12.30478
G1 X83.442 Y145.737 E12.35427
G1 X82.842 Y145.697 E12.37751
G1 X81.562 Y145.567 E12.42723
G1 X81.022 Y145.497 E12.44827
G1 X79.752 Y145.287 E12.49802
G1 X79.212 Y145.177 E12.51932
G1 X77.432 Y144.747 E12.59008
G1 X76.202 Y144.377 E12.63972
G1 X75.672 Y144.197 E12.66135
G1 X73.912 Y143.527 E12.73413
G1 X72.742 Y142.997 E12.78377
G1 X70.782 Y141.947 E12.86969
G1 X69.572 Y141.207 E12.92451
G1 X69.032 Y140.847 E12.94959
G1 X67.992 Y140.097 E12.99914
G1 X66.562 Y138.947 E13.07005
G1 X66.142 Y138.577 E13.09169
G1 X65.212 Y137.707 E13.14090
G1 X64.802 Y137.297 E13.16331
G1 X63.922 Y136.357 E13.21307
G1 X63.562 Y135.947 E13.23415
G1 X62.512 Y134.647 E13.29873
G1 X61.332 Y132.997 E13.37712
G1 X60.652 Y131.907 E13.42677
G1 X60.342 Y131.357 E13.45117
G1 X59.512 Y129.757 E13.52083
G1 X58.982 Y128.587 E13.57047
G1 X58.332 Y126.917 E13.63972
G1 X58.112 Y126.287 E13.66551
G1 X57.662 Y124.727 E13.72825
G1 X57.332 Y123.347 E13.78309
G1 X57.212 Y122.747 E13.80673
G1 X57.002 Y121.477 E13.85648
G1 X56.802 Y119.657 E13.92723
G1 X56.762 Y119.057 E13.95047
G1 X56.722 Y117.777 E13.99996
G1 X56.762 Y115.947 E14.07070
G1 X56.802 Y115.347 E14.09394
G1 X57.002 Y113.527 E14.16470
G1 X57.212 Y112.257 E14.21444
G1 X57.322 Y111.717 E14.23574
G1 X57.732 Y110.007 E14.30369
G1 X70.552 Y65.917 E16.07812
G1 X71.052 Y64.287 E16.14401
G1 X71.302 Y63.637 E16.17092
G1 X71.602 Y63.007 E16.19789
G1 X72.242 Y61.817 E16.25011
G1 X72.582 Y61.247 E16.27576
G1 X73.172 Y60.437 E16.31448
G1 X74.032 Y59.387 E16.36693
G1 X74.482 Y58.877 E16.39322
G1 X74.972 Y58.407 E16.41946
G1 X76.282 Y57.327 E16.48507
G1 X77.092 Y56.737 E16.52379
G1 X77.662 Y56.397 E16.54944
G1 X78.852 Y55.757 E16.60166
G1 X79.482 Y55.457 E16.62862
G1 X80.132 Y55.207 E16.65554
G1 X82.092 Y54.617 E16.73464
G1 X82.412 Y54.537 E16.74739
G1 X83.082 Y54.417 E16.77369
G1 X84.762 Y54.247 E16.83895
G1 X85.422 Y54.217 E16.86448
G1 X86.422 Y54.247 E16.90314
G1 X88.112 Y54.417 E16.96878
G1 X88.782 Y54.537 E16.99508
G1 X89.442 Y54.707 E17.02142
G1 X90.732 Y55.097 E17.07350
G1 X91.682 Y55.447 E17.11263
G1 X92.292 Y55.747 E17.13890
G1 X93.492 Y56.387 E17.19146
G1 X94.072 Y56.727 E17.21744
G1 X94.902 Y57.327 E17.25702
G1 X96.212 Y58.407 E17.32263
G1 X96.462 Y58.637 E17.33575
G1 X96.932 Y59.127 E17.36199
G1 X98.012 Y60.437 E17.42760
G1 X98.602 Y61.247 E17.46633
G1 X98.942 Y61.817 E17.49198
G1 X99.582 Y63.007 E17.54420
G1 X99.882 Y63.637 E17.57116
G1 X100.012 Y63.957 E17.58451
G1 X100.242 Y64.617 E17.61152
G1 X100.712 Y66.197 E17.67522
G1 X112.298 Y110.127 E19.43093
G1 X112.322 Y110.217 E19.43455
G1 F600.000 E18.43455
G92 E0
G1 X100.577 Y120.534 F12000.000
G1 F600.000 E1.00000
G1 X100.193 Y120.582 F1050.000 E1.01493
G1 X99.807 Y120.582 E1.02988
G1 X99.423 Y120.534 E1.04481
G1 X99.049 Y120.438 E1.05974
G1 X98.690 Y120.295 E1.07466
G1 X98.352 Y120.109 E1.08959
G1 X98.039 Y119.882 E1.10453
G1 X97.757 Y119.617 E1.11947
G1 X97.511 Y119.320 E1.13439
G1 X97.304 Y118.994 E1.14932
G1 X97.139 Y118.644 E1.16426
G1 X97.020 Y118.276 E1.17919
G1 X96.947 Y117.897 E1.19412
G1 X96.923 Y117.511 E1.20905
G1 X96.947 Y117.126 E1.22399
G1 X97.020 Y116.746 E1.23891
G1 X97.139 Y116.379 E1.25385
G1 X97.304 Y116.029 E1.26879
G1 X97.511 Y115.703 E1.28371
G1 X97.757 Y115.405 E1.29864
G1 X98.039 Y115.141 E1.31358
G1 X98.352 Y114.913 E1.32852
G1 X98.690 Y114.727 E1.34344
G1 X99.049 Y114.585 E1.35837
G1 X99.423 Y114.489 E1.37330
G1 X99.807 Y114.441 E1.38823
G1 X100.193 Y114.441 E1.40317
G1 X100.577 Y114.489 E1.41811
G1 X100.951 Y114.585 E1.43304
G1 X101.310 Y114.727 E1.44796
G1 X101.648 Y114.913 E1.46289
G1 X101.961 Y115.141 E1.47783
G1 X102.243 Y115.405 E1.49277
G1 X102.489 Y115.703 E1.50769
G1 X102.696 Y116.029 E1.52262
G1 X102.861 Y116.379 E1.53756
G1 X102.980 Y116.746 E1.55249
G1 X103.053 Y117.126 E1.56742
G1 X103.077 Y117.511 E1.58235
G1 X103.053 Y117.897 E1.59729
G1 X102.980 Y118.276 E1.61221
G1 X102.861 Y118.644 E1.62715
G1 X102.696 Y118.994 E1.64209
G1 X102.489 Y119.320 E1.65701
G1 X102.243 Y119.617 E1.67194
G1 X101.961 Y119.882 E1.68687
G1 X101.648 Y120.109 E1.70182
G1 X101.310 Y120.295 E1.71674
G1 X100.951 Y120.438 E1.73167
G1 X100.667 Y120.510 E1.74298
G1 X100.577 Y120.534 E1.74660
G1 X100.459 Y119.919 F12000.000
G1 X100.154 Y119.957 F1050.000 E1.75849
G1 X99.846 Y119.957 E1.77039
G1 X99.541 Y119.919 E1.78228
G1 X99.243 Y119.842 E1.79417
G1 X98.957 Y119.729 E1.80607
G1 X98.687 Y119.581 E1.81796
G1 X98.438 Y119.400 E1.82986
G1 X98.213 Y119.189 E1.84175
G1 X98.017 Y118.952 E1.85364
G1 X97.853 Y118.692 E1.86553
G1 X97.721 Y118.414 E1.87743
G1 X97.626 Y118.121 E1.88932
G1 X97.569 Y117.819 E1.90121
G1 X97.549 Y117.511 E1.91311
G1 X97.569 Y117.204 E1.92500
G1 X97.626 Y116.902 E1.93689
G1 X97.721 Y116.609 E1.94879
G1 X97.852 Y116.331 E1.96068
G1 X98.017 Y116.071 E1.97257
G1 X98.214 Y115.834 E1.98447
G1 X98.438 Y115.623 E1.99636
G1 X98.687 Y115.442 E2.00826
G1 X98.957 Y115.294 E2.02015
G1 X99.243 Y115.181 E2.03204
G1 X99.541 Y115.104 E2.04393
G1 X99.846 Y115.065 E2.05583
G1 X100.154 Y115.065 E2.06772
G1 X100.459 Y115.104 E2.07962
G1 X100.757 Y115.181 E2.09151
G1 X101.043 Y115.294 E2.10340
G1 X101.313 Y115.442 E2.11529
G1 X101.562 Y115.623 E2.12719
G1 X101.786 Y115.834 E2.13908
G1 X101.983 Y116.071 E2.15097
G1 X102.147 Y116.331 E2.16286
G1 X102.279 Y116.609 E2.17476
G1 X102.374 Y116.902 E2.18666
G1 X102.431 Y117.204 E2.19855
G1 X102.451 Y117.511 E2.21044
G1 X102.431 Y117.819 E2.22234
G1 X102.374 Y118.121 E2.23423
G1 X102.279 Y118.414 E2.24612
G1 X102.147 Y118.692 E2.25802
G1 X101.983 Y118.952 E2.26991
G1 X101.786 Y119.189 E2.28180
G1 X101.562 Y119.400 E2.29369
G1 X101.313 Y119.581 E2.30559
G1 X101.043 Y119.729 E2.31748
G1 X100.757 Y119.842 E2.32937
G1 X100.550 Y119.895 E2.33764
G1 X100.459 Y119.919 E2.34126
G1 X100.242 Y120.504 F12000.000
G1 F600.000 E1.34126
G92 E0
G1 X73.053 Y117.897 F12000.000
G1 F600.000 E1.00000
G1 X72.980 Y118.276 F1050.000 E1.01493
G1 X72.861 Y118.644 E1.02986
G1 X72.696 Y118.994 E1.04480
G1 X72.489 Y119.320 E1.05973
G1 X72.243 Y119.617 E1.07465
G1 X71.961 Y119.882 E1.08959
G1 X71.648 Y120.109 E1.10453
G1 X71.310 Y120.295 E1.11946
G1 X70.951 Y120.438 E1.13438
G1 X70.577 Y120.534 E1.14931
G1 X70.193 Y120.582 E1.16424
G1 X69.807 Y120.582 E1.17919
G1 X69.423 Y120.534 E1.19412
G1 X69.049 Y120.438 E1.20905
G1 X68.690 Y120.295 E1.22397
G1 X68.352 Y120.109 E1.23890
G1 X68.039 Y119.882 E1.25385
G1 X67.757 Y119.617 E1.26878
G1 X67.511 Y119.320 E1.28370
G1 X67.304 Y118.994 E1.29863
G1 X67.139 Y118.644 E1.31357
G1 X67.020 Y118.276 E1.32850
G1 X66.947 Y117.897 E1.34343
G1 X66.923 Y117.511 E1.35836
G1 X66.947 Y117.126 E1.37330
G1 X67.020 Y116.746 E1.38823
G1 X67.139 Y116.379 E1.40316
G1 X67.304 Y116.029 E1.41810
G1 X67.511 Y115.703 E1.43303
G1 X67.757 Y115.405 E1.44795
G1 X68.039 Y115.141 E1.46289
G1 X68.352 Y114.913 E1.47783
G1 X68.690 Y114.727 E1.49275
G1 X69.049 Y114.585 E1.50768
G1 X69.423 Y114.489 E1.52261
G1 X69.807 Y114.441 E1.53754
G1 X70.193 Y114.441 E1.55249
G1 X70.577 Y114.489 E1.56742
G1 X70.951 Y114.585 E1.58235
G1 X71.310 Y114.727 E1.59727
G1 X71.648 Y114.913 E1.61220
G1 X71.961 Y115.141 E1.62714
G1 X72.243 Y115.405 E1.64208
G1 X72.489 Y115.703 E1.65700
G1 X72.696 Y116.029 E1.67193
G1 X72.861 Y116.379 E1.68687
G1 X72.980 Y116.746 E1.70180
G1 X73.053 Y117.126 E1.71673
G1 X73.077 Y117.511 E1.73166
G1 X73.058 Y117.803 E1.74298
G1 X73.053 Y117.897 E1.74660
G1 X72.431 Y117.819 F12000.000
G1 X72.374 Y118.121 F1050.000 E1.75849
G1 X72.279 Y118.414 E1.77039
G1 X72.147 Y118.692 E1.78228
G1 X71.983 Y118.952 E1.79417
G1 X71.786 Y119.189 E1.80606
G1 X71.562 Y119.400 E1.81796
G1 X71.313 Y119.581 E1.82985
G1 X71.043 Y119.729 E1.84175
G1 X70.757 Y119.842 E1.85364
G1 X70.459 Y119.919 E1.86553
G1 X70.154 Y119.957 E1.87742
G1 X69.846 Y119.957 E1.88932
G1 X69.541 Y119.919 E1.90121
G1 X69.243 Y119.842 E1.91310
G1 X68.957 Y119.729 E1.92500
G1 X68.687 Y119.581 E1.93689
G1 X68.438 Y119.400 E1.94879
G1 X68.214 Y119.189 E1.96068
G1 X68.017 Y118.952 E1.97257
G1 X67.853 Y118.692 E1.98446
G1 X67.721 Y118.414 E1.99636
G1 X67.626 Y118.121 E2.00825
G1 X67.569 Y117.819 E2.02014
G1 X67.549 Y117.511 E2.03204
G1 X67.569 Y117.204 E2.04393
G1 X67.626 Y116.902 E2.05582
G1 X67.721 Y116.609 E2.06772
G1 X67.853 Y116.331 E2.07961
G1 X68.017 Y116.071 E2.09150
G1 X68.214 Y115.834 E2.10339
G1 X68.438 Y115.623 E2.11529
G1 X68.687 Y115.442 E2.12719
G1 X68.957 Y115.294 E2.13908
G1 X69.243 Y115.181 E2.15097
G1 X69.541 Y115.104 E2.16286
G1 X69.846 Y115.065 E2.17475
G1 X70.154 Y115.065 E2.18665
G1 X70.459 Y115.104 E2.19855
G1 X70.757 Y115.181 E2.21044
G1 X71.043 Y115.294 E2.22233
G1 X71.313 Y115.442 E2.23422
G1 X71.562 Y115.623 E2.24612
G1 X71.786 Y115.834 E2.25801
G1 X71.983 Y116.071 E2.26990
G1 X72.147 Y116.331 E2.28179
G1 X72.279 Y116.609 E2.29369
G1 X72.374 Y116.902 E2.30559
G1 X72.431 Y117.204 E2.31748
G1 X72.451 Y117.511 E2.32937
G1 X72.437 Y117.725 E2.33764
G1 X72.431 Y117.819 E2.34126
G1 X72.921 Y118.207 F12000.000
G1 F600.000 E1.34126
G92 E0
G1 X79.823 Y117.511 F12000.000
G1 F600.000 E1.00000
G1 X79.864 Y116.862 F1050.000 E1.02513
G1 X79.986 Y116.224 E1.05025
G1 X80.187 Y115.606 E1.07537
G1 X80.464 Y115.017 E1.10050
G1 X80.812 Y114.468 E1.12562
G1 X81.226 Y113.968 E1.15074
G1 X81.700 Y113.523 E1.17587
G1 X82.226 Y113.140 E1.20099
G1 X82.796 Y112.827 E1.22611
G1 X83.400 Y112.588 E1.25123
G1 X83.949 Y112.447 E1.27312
G1 X84.675 Y112.345 E1.30146
G1 X85.325 Y112.345 E1.32658
G1 X85.970 Y112.426 E1.35171
G1 X86.600 Y112.588 E1.37683
G1 X87.204 Y112.827 E1.40196
G1 X87.700 Y113.100 E1.42384
G1 X88.300 Y113.523 E1.45218
G1 X88.774 Y113.968 E1.47731
G1 X89.188 Y114.468 E1.50243
G1 X89.536 Y115.017 E1.52755
G1 X89.813 Y115.606 E1.55268
G1 X90.014 Y116.224 E1.57780
G1 X90.136 Y116.862 E1.60292
G1 X90.177 Y117.511 E1.62804
G1 X90.136 Y118.160 E1.65317
G1 X90.014 Y118.799 E1.67829
G1 X89.813 Y119.417 E1.70341
G1 X89.536 Y120.005 E1.72854
G1 X89.188 Y120.554 E1.75366
G1 X88.774 Y121.055 E1.77879
G1 X88.300 Y121.500 E1.80391
G1 X87.774 Y121.882 E1.82903
G1 X87.204 Y122.195 E1.85416
G1 X86.600 Y122.435 E1.87928
G1 X85.970 Y122.596 E1.90440
G1 X85.325 Y122.678 E1.92953
G1 X84.675 Y122.678 E1.95465
G1 X84.030 Y122.596 E1.97978
G1 X83.400 Y122.435 E2.00490
G1 X82.796 Y122.195 E2.03002
G1 X82.226 Y121.882 E2.05515
G1 X81.700 Y121.500 E2.08027
G1 X81.173 Y120.991 E2.10861
