; generated by Slic3r 0.9.9 on 2013-04-16 at 21:21:47

; layer_height = 0.21
; perimeters = 2
; top_solid_layers = 4
; bottom_solid_layers = 4
; fill_density = 0.2
; perimeter_speed = 35
; infill_speed = 45
; travel_speed = 150
; nozzle_diameter = 0.35
; filament_diameter = 2.8
; extrusion_multiplier = 1.088
; perimeters extrusion width = 0.49mm
; infill extrusion width = 0.49mm
; solid infill extrusion width = 0.49mm
; top infill extrusion width = 0.49mm
; first layer extrusion width = 0.70mm

G21 ; set units to millimeters
M107
M190 S70 ; wait for bed temperature to be reached
M104 S200 ; set temperature
G28 ; home all axes
M109 S200 ; wait for temperature to be reached
G90 ; use absolute coordinates
G92 E0
M82 ; use absolute distances for extrusion
G1 F600.000 E-1.00000
G92 E0
G1 Z0.350 F9000.000
G1 X53.170 Y80.440
G1 F600.000 E1.00000
G1 X53.690 Y80.100 F840.000 E1.02401
G1 X54.240 Y79.790 E1.04841
G1 X54.810 Y79.520 E1.07278
G1 X55.400 Y79.280 E1.09740
G1 X55.700 Y79.180 E1.10962
G1 X56.310 Y79.010 E1.13409
G1 X56.930 Y78.880 E1.15857
G1 X57.870 Y78.770 E1.19514
G1 X58.500 Y78.750 E1.21950
G1 X111.500 Y78.750 E3.26769
G1 X112.130 Y78.770 E3.29205
G1 X112.450 Y78.800 E3.30447
G1 X113.070 Y78.880 E3.32863
G1 X113.690 Y79.010 E3.35311
G1 X114.600 Y79.280 E3.38979
G1 X115.190 Y79.520 E3.41441
G1 X115.760 Y79.790 E3.43878
G1 X116.310 Y80.100 E3.46318
G1 X116.830 Y80.440 E3.48719
G1 X117.340 Y80.820 E3.51177
G1 X117.810 Y81.240 E3.53613
G1 X118.260 Y81.690 E3.56072
G1 X118.680 Y82.160 E3.58508
G1 X119.060 Y82.670 E3.60966
G1 X119.400 Y83.190 E3.63367
G1 X119.710 Y83.740 E3.65807
G1 X119.980 Y84.310 E3.68244
G1 X120.220 Y84.900 E3.70706
G1 X120.410 Y85.500 E3.73138
G1 X120.560 Y86.120 E3.75603
G1 X120.620 Y86.430 E3.76823
G1 X120.700 Y87.050 E3.79239
G1 X120.730 Y87.370 E3.80481
G1 X120.750 Y88.000 E3.82917
G1 X120.750 Y112.000 E4.75665
G1 X120.730 Y112.630 E4.78101
G1 X120.620 Y113.570 E4.81758
G1 X120.410 Y114.500 E4.85443
G1 X120.220 Y115.100 E4.87875
G1 X119.980 Y115.690 E4.90336
G1 X119.710 Y116.260 E4.92774
G1 X119.400 Y116.810 E4.95214
G1 X119.060 Y117.330 E4.97615
G1 X118.680 Y117.840 E5.00073
G1 X118.260 Y118.310 E5.02508
G1 X117.810 Y118.760 E5.04968
G1 X117.340 Y119.180 E5.07404
G1 X116.830 Y119.560 E5.09861
G1 X116.310 Y119.900 E5.12262
G1 X115.760 Y120.210 E5.14702
G1 X115.190 Y120.480 E5.17140
G1 X114.600 Y120.720 E5.19601
G1 X114.000 Y120.910 E5.22033
G1 X113.380 Y121.060 E5.24498
G1 X113.070 Y121.120 E5.25719
G1 X112.130 Y121.230 E5.29376
G1 X111.500 Y121.250 E5.31812
G1 X58.500 Y121.250 E7.36631
G1 X57.870 Y121.230 E7.39067
G1 X57.550 Y121.200 E7.40309
G1 X56.930 Y121.120 E7.42725
G1 X56.310 Y120.990 E7.45173
G1 X55.400 Y120.720 E7.48841
G1 X54.810 Y120.480 E7.51302
G1 X54.240 Y120.210 E7.53740
G1 X53.690 Y119.900 E7.56180
G1 X53.170 Y119.560 E7.58581
G1 X52.660 Y119.180 E7.61039
G1 X52.190 Y118.760 E7.63474
G1 X51.740 Y118.310 E7.65934
G1 X51.320 Y117.840 E7.68370
G1 X50.940 Y117.330 E7.70827
G1 X50.600 Y116.810 E7.73228
G1 X50.290 Y116.260 E7.75668
G1 X50.020 Y115.690 E7.78106
G1 X49.780 Y115.100 E7.80567
G1 X49.590 Y114.500 E7.82999
G1 X49.380 Y113.570 E7.86684
G1 X49.270 Y112.630 E7.90341
G1 X49.250 Y112.000 E7.92777
G1 X49.250 Y88.000 E8.85525
G1 X49.270 Y87.370 E8.87961
G1 X49.300 Y87.050 E8.89203
G1 X49.380 Y86.430 E8.91619
G1 X49.440 Y86.120 E8.92839
G1 X49.590 Y85.500 E8.95304
G1 X49.780 Y84.900 E8.97737
G1 X50.150 Y84.030 E9.01390
G1 X50.290 Y83.740 E9.02635
G1 X50.600 Y83.190 E9.05074
G1 X51.130 Y82.410 E9.08719
G1 X51.320 Y82.160 E9.09932
G1 X51.740 Y81.690 E9.12368
G1 X52.420 Y81.030 E9.16030
G1 X52.660 Y80.820 E9.17263
G1 X53.094 Y80.495 E9.19358
G1 X53.430 Y81.020 F9000.000
G1 X53.930 Y80.690 F840.000 E9.21673
G1 X54.450 Y80.380 E9.24013
G1 X55.270 Y80.000 E9.27506
G1 X55.830 Y79.800 E9.29804
G1 X56.710 Y79.560 E9.33329
G1 X57.600 Y79.420 E9.36810
G1 X58.200 Y79.380 E9.39134
G1 X111.800 Y79.380 E11.46272
G1 X112.400 Y79.420 E11.48596
G1 X112.700 Y79.460 E11.49765
G1 X113.590 Y79.630 E11.53267
G1 X114.170 Y79.800 E11.55603
G1 X114.730 Y80.000 E11.57901
G1 X115.550 Y80.380 E11.61393
G1 X116.070 Y80.690 E11.63733
G1 X116.570 Y81.020 E11.66048
G1 X117.270 Y81.590 E11.69536
G1 X117.700 Y82.010 E11.71859
G1 X118.110 Y82.460 E11.74212
G1 X118.300 Y82.690 E11.75365
G1 X118.650 Y83.180 E11.77692
G1 X119.120 Y83.950 E11.81178
G1 X119.500 Y84.770 E11.84671
G1 X119.700 Y85.330 E11.86969
G1 X119.870 Y85.910 E11.89304
G1 X119.940 Y86.210 E11.90495
G1 X120.080 Y87.100 E11.93977
G1 X120.120 Y87.700 E11.96300
G1 X120.120 Y112.300 E12.91367
G1 X120.080 Y112.900 E12.93691
G1 X120.040 Y113.200 E12.94861
G1 X119.870 Y114.090 E12.98362
G1 X119.700 Y114.670 E13.00698
G1 X119.500 Y115.230 E13.02996
G1 X119.120 Y116.050 E13.06489
G1 X118.810 Y116.570 E13.08828
G1 X118.480 Y117.070 E13.11143
G1 X117.910 Y117.770 E13.14632
G1 X117.490 Y118.200 E13.16955
G1 X117.040 Y118.610 E13.19307
G1 X116.570 Y118.980 E13.21619
G1 X116.070 Y119.310 E13.23934
G1 X115.550 Y119.620 E13.26274
G1 X115.010 Y119.880 E13.28590
G1 X114.730 Y120.000 E13.29767
G1 X113.880 Y120.290 E13.33238
G1 X113.290 Y120.440 E13.35590
G1 X112.700 Y120.540 E13.37903
G1 X112.400 Y120.580 E13.39073
G1 X111.800 Y120.620 E13.41397
G1 X58.200 Y120.620 E15.48534
G1 X57.600 Y120.580 E15.50858
G1 X57.300 Y120.540 E15.52028
G1 X56.410 Y120.370 E15.55529
G1 X55.830 Y120.200 E15.57865
G1 X55.270 Y120.000 E15.60163
G1 X54.450 Y119.620 E15.63656
G1 X53.930 Y119.310 E15.65995
G1 X53.430 Y118.980 E15.68310
G1 X52.730 Y118.410 E15.71799
G1 X52.300 Y117.990 E15.74122
G1 X51.890 Y117.540 E15.76474
G1 X51.520 Y117.070 E15.78786
G1 X51.190 Y116.570 E15.81101
G1 X50.880 Y116.050 E15.83441
G1 X50.620 Y115.510 E15.85757
G1 X50.500 Y115.230 E15.86934
G1 X50.210 Y114.380 E15.90405
G1 X50.060 Y113.790 E15.92757
G1 X49.960 Y113.200 E15.95070
G1 X49.920 Y112.900 E15.96239
G1 X49.880 Y112.300 E15.98563
G1 X49.880 Y87.700 E16.93630
G1 X49.920 Y87.100 E16.95954
G1 X50.060 Y86.210 E16.99436
G1 X50.210 Y85.620 E17.01788
G1 X50.500 Y84.770 E17.05259
G1 X50.880 Y83.950 E17.08752
G1 X51.350 Y83.180 E17.12238
G1 X51.520 Y82.930 E17.13406
G1 X51.890 Y82.460 E17.15718
G1 X52.300 Y82.010 E17.18070
G1 X52.730 Y81.590 E17.20393
G1 X53.355 Y81.076 E17.23520
G1 F600.000 E16.23520
G92 E0
G1 X57.594 Y85.813 F9000.000
G1 F600.000 E1.00000
G1 X112.406 Y85.813 F840.000 E3.11821
G1 X113.687 Y87.094 E3.18823
G1 X113.687 Y112.906 E4.18573
G1 X112.406 Y114.187 E4.25575
G1 X57.594 Y114.187 E6.37396
G1 X56.313 Y112.906 E6.44398
G1 X56.313 Y102.768 E6.83577
G1 X57.594 Y101.486 E6.90579
G1 X58.813 Y101.486 E6.95290
G1 X58.813 Y98.514 E7.06778
G1 X57.594 Y98.514 E7.11488
G1 X56.313 Y97.232 E7.18490
G1 X56.313 Y87.094 E7.57670
G1 X57.528 Y85.879 E7.64309
G1 X57.853 Y86.438 F9000.000
G1 X112.147 Y86.438 F840.000 E9.74130
G1 X113.062 Y87.353 E9.79131
G1 X113.062 Y112.647 E10.76881
G1 X112.147 Y113.562 E10.81882
G1 X57.853 Y113.562 E12.91702
G1 X56.938 Y112.647 E12.96704
G1 X56.938 Y103.026 E13.33883
G1 X57.853 Y102.111 E13.38884
G1 X59.438 Y102.111 E13.45009
G1 X59.438 Y97.889 E13.61327
G1 X57.853 Y97.889 E13.67452
G1 X56.938 Y96.974 E13.72453
G1 X56.938 Y87.353 E14.09633
G1 X57.787 Y86.504 E14.14272
G1 X58.112 Y87.063 F9000.000
G1 X111.888 Y87.063 F840.000 E16.22092
G1 X112.437 Y87.612 E16.25092
G1 X112.437 Y112.388 E17.20841
G1 X111.888 Y112.937 E17.23842
G1 X58.112 Y112.937 E19.31662
G1 X57.563 Y112.388 E19.34663
G1 X57.563 Y103.285 E19.69841
G1 X58.112 Y102.736 E19.72842
G1 X60.063 Y102.736 E19.80382
G1 X60.063 Y97.264 E20.01530
G1 X58.112 Y97.264 E20.09069
G1 X57.563 Y96.715 E20.12070
G1 X57.563 Y87.612 E20.47248
G1 X58.045 Y87.129 E20.49887
G1 X58.371 Y87.688 F9000.000
G1 X111.629 Y87.688 F840.000 E22.55706
G1 X111.812 Y87.871 E22.56706
G1 X111.812 Y112.129 E23.50455
G1 X111.629 Y112.312 E23.51455
G1 X58.371 Y112.312 E25.57274
G1 X58.188 Y112.129 E25.58275
G1 X58.188 Y103.544 E25.91453
G1 X58.371 Y103.361 E25.92453
G1 X60.688 Y103.361 E26.01407
G1 X60.688 Y96.639 E26.27385
G1 X58.371 Y96.639 E26.36339
G1 X58.188 Y96.456 E26.37339
G1 X58.188 Y87.871 E26.70517
G1 X58.304 Y87.754 E26.71155
G1 X58.812 Y88.312 F9000.000
G1 X111.188 Y88.312 F840.000 E28.73559
G1 X111.188 Y111.688 E29.63892
G1 X58.812 Y111.688 E31.66296
G1 X58.812 Y103.986 E31.96059
G1 X61.312 Y103.986 E32.05720
G1 X61.312 Y96.014 E32.36528
G1 X58.812 Y96.014 E32.46189
G1 X58.812 Y88.406 E32.75590
G1 X59.354 Y88.625 F9000.000
G1 X59.437 Y88.937
G1 X110.563 Y88.937 F840.000 E34.73164
G1 X110.563 Y111.063 E35.58668
G1 X59.437 Y111.063 E37.56242
G1 X59.437 Y104.611 E37.81175
G1 X61.937 Y104.611 E37.90836
G1 X61.937 Y95.389 E38.26473
G1 X59.437 Y95.389 E38.36135
G1 X59.437 Y89.031 E38.60706
G1 X109.938 Y110.438 F9000.000
G1 X60.062 Y110.438 F840.000 E40.53450
G1 X60.062 Y105.236 E40.73553
G1 X62.562 Y105.236 E40.83215
G1 X62.562 Y94.764 E41.23682
G1 X60.062 Y94.764 E41.33343
G1 X60.062 Y89.562 E41.53446
G1 X109.938 Y89.562 E43.46191
G1 X109.938 Y110.344 E44.26502
G1 X109.485 Y90.015 F9000.000
G1 X109.485 Y90.899 F1080.000 E44.29919
G1 X108.601 Y90.015 E44.34751
G1 X107.717 Y90.015 E44.38167
G1 X109.485 Y91.783 E44.47829
G1 X109.485 Y92.667 E44.51245
G1 X106.833 Y90.015 E44.65739
G1 X105.949 Y90.015 E44.69155
G1 X109.485 Y93.551 E44.88480
G1 X109.485 Y94.434 E44.91896
G1 X105.066 Y90.015 E45.16051
G1 X104.182 Y90.015 E45.19467
G1 X109.485 Y95.318 E45.48454
G1 X109.485 Y96.202 E45.51870
G1 X103.298 Y90.015 E45.85688
G1 X102.414 Y90.015 E45.89103
G1 X109.485 Y97.086 E46.27752
G1 X109.485 Y97.970 E46.31168
G1 X101.530 Y90.015 E46.74647
G1 X100.646 Y90.015 E46.78063
G1 X109.485 Y98.854 E47.26374
G1 X109.485 Y99.737 E47.29790
G1 X99.763 Y90.015 E47.82931
G1 X98.879 Y90.015 E47.86347
G1 X109.485 Y100.621 E48.44319
G1 X109.485 Y101.505 E48.47735
G1 X97.995 Y90.015 E49.10538
G1 X97.111 Y90.015 E49.13954
G1 X109.485 Y102.389 E49.81589
G1 X109.485 Y103.273 E49.85005
G1 X96.227 Y90.015 E50.57470
G1 X95.343 Y90.015 E50.60886
G1 X109.485 Y104.157 E51.38182
G1 X109.485 Y105.040 E51.41598
G1 X94.460 Y90.015 E52.23725
G1 X93.576 Y90.015 E52.27141
G1 X109.485 Y105.924 E53.14099
G1 X109.485 Y106.808 E53.17515
G1 X92.692 Y90.015 E54.09303
G1 X91.808 Y90.015 E54.12719
G1 X109.485 Y107.692 E55.09339
G1 X109.485 Y108.576 E55.12755
G1 X90.924 Y90.015 E56.14206
G1 X90.040 Y90.015 E56.17622
G1 X109.485 Y109.460 E57.23904
G1 X109.126 Y109.985 E57.26362
G1 X89.157 Y90.015 E58.35514
G1 X88.273 Y90.015 E58.38930
G1 X108.242 Y109.985 E59.48083
G1 X107.359 Y109.985 E59.51499
G1 X87.389 Y90.015 E60.60651
G1 X86.505 Y90.015 E60.64067
G1 X106.475 Y109.985 E61.73219
G1 X105.591 Y109.985 E61.76635
G1 X85.621 Y90.015 E62.85788
G1 X84.737 Y90.015 E62.89204
G1 X104.707 Y109.985 E63.98356
G1 X103.823 Y109.985 E64.01772
G1 X83.854 Y90.015 E65.10925
G1 X82.970 Y90.015 E65.14341
G1 X102.939 Y109.985 E66.23493
G1 X102.056 Y109.985 E66.26909
G1 X82.086 Y90.015 E67.36061
G1 X81.202 Y90.015 E67.39477
G1 X101.172 Y109.985 E68.48630
G1 X100.288 Y109.985 E68.52046
G1 X80.318 Y90.015 E69.61198
G1 X79.434 Y90.015 E69.64614
G1 X99.404 Y109.985 E70.73766
G1 X98.520 Y109.985 E70.77182
G1 X78.551 Y90.015 E71.86335
G1 X77.667 Y90.015 E71.89751
G1 X97.636 Y109.985 E72.98903
G1 X96.753 Y109.985 E73.02319
G1 X76.783 Y90.015 E74.11472
G1 X75.899 Y90.015 E74.14888
G1 X95.869 Y109.985 E75.24040
G1 X94.985 Y109.985 E75.27456
G1 X75.015 Y90.015 E76.36608
G1 X74.131 Y90.015 E76.40024
G1 X94.101 Y109.985 E77.49177
G1 X93.217 Y109.985 E77.52593
G1 X73.247 Y90.015 E78.61745
G1 X72.364 Y90.015 E78.65161
G1 X92.333 Y109.985 E79.74314
G1 X91.450 Y109.985 E79.77730
G1 X71.480 Y90.015 E80.86882
G1 X70.596 Y90.015 E80.90298
G1 X90.566 Y109.985 E81.99450
G1 X89.682 Y109.985 E82.02866
G1 X69.712 Y90.015 E83.12019
G1 X68.828 Y90.015 E83.15435
G1 X88.798 Y109.985 E84.24587
G1 X87.914 Y109.985 E84.28003
G1 X67.944 Y90.015 E85.37155
G1 X67.061 Y90.015 E85.40571
G1 X87.030 Y109.985 E86.49724
G1 X86.147 Y109.985 E86.53140
G1 X66.177 Y90.015 E87.62292
G1 X65.293 Y90.015 E87.65708
G1 X85.263 Y109.985 E88.74861
G1 X84.379 Y109.985 E88.78277
G1 X64.409 Y90.015 E89.87429
G1 X63.525 Y90.015 E89.90845
G1 X83.495 Y109.985 E90.99997
G1 X82.611 Y109.985 E91.03413
G1 X62.641 Y90.015 E92.12566
G1 X61.758 Y90.015 E92.15982
G1 X81.727 Y109.985 E93.25134
G1 X80.844 Y109.985 E93.28550
G1 X60.874 Y90.015 E94.37703
G1 X60.515 Y90.540 E94.40160
G1 X79.960 Y109.985 E95.46442
G1 X79.076 Y109.985 E95.49858
G1 X60.515 Y91.424 E96.51309
G1 X60.515 Y94.076 F9000.000
G1 X60.751 Y94.311 F1080.000 E96.52598
G1 X61.635 Y94.311 E96.56014
G1 X60.515 Y93.192 E96.62133
G1 X60.515 Y92.308 E96.65549
G1 X62.519 Y94.311 E96.76499
G1 X63.015 Y94.808 F9000.000
G1 X78.192 Y109.985 F1080.000 E97.59454
G1 X77.308 Y109.985 E97.62870
G1 X63.015 Y95.692 E98.40995
G1 X63.015 Y96.576 E98.44411
G1 X76.424 Y109.985 E99.17704
G1 X75.541 Y109.985 E99.21120
G1 X63.015 Y97.459 E99.89583
G1 X63.015 Y98.343 E99.92999
G1 X74.657 Y109.985 E100.56630
G1 X73.773 Y109.985 E100.60046
G1 X63.015 Y99.227 E101.18847
G1 X63.015 Y100.111 E101.22263
G1 X72.889 Y109.985 E101.76232
G1 X72.005 Y109.985 E101.79648
G1 X63.015 Y100.995 E102.28787
G1 X63.015 Y101.879 E102.32203
G1 X71.121 Y109.985 E102.76511
G1 X70.238 Y109.985 E102.79927
G1 X63.015 Y102.762 E103.19403
G1 X63.015 Y103.646 E103.22819
G1 X69.354 Y109.985 E103.57465
G1 X68.470 Y109.985 E103.60881
G1 X63.015 Y104.530 E103.90696
G1 X63.015 Y105.414 E103.94112
G1 X67.586 Y109.985 E104.19096
G1 X66.702 Y109.985 E104.22512
G1 X62.406 Y105.689 E104.45995
G1 X61.522 Y105.689 E104.49410
G1 X65.818 Y109.985 E104.72893
G1 X64.935 Y109.985 E104.76309
G1 X60.638 Y105.689 E104.99792
G1 X60.515 Y106.449 E105.02770
G1 X64.051 Y109.985 E105.22095
G1 X63.167 Y109.985 E105.25511
G1 X60.515 Y107.333 E105.40005
G1 X60.515 Y108.217 E105.43421
G1 X62.283 Y109.985 E105.53084
G1 X61.399 Y109.985 E105.56500
G1 X60.515 Y109.101 E105.61332
G1 X60.515 Y109.985 E105.64748
G1 F600.000 E104.64748
G92 E0
G1 Z0.560 F9000.000
G1 X110.813 Y88.687
G1 F600.000 E1.00000
G1 X110.813 Y111.313 F2100.000 E1.38463
G1 X59.187 Y111.313 E2.26227
G1 X59.187 Y105.015 E2.36933
G1 X61.687 Y105.015 E2.41183
G1 X61.687 Y94.985 E2.58234
G1 X59.187 Y94.985 E2.62484
G1 X59.187 Y88.687 E2.73190
G1 X110.744 Y88.687 E3.60837
G1 X111.271 Y88.229 F9000.000
G1 X111.271 Y111.771 F2100.000 E4.00858
G1 X58.729 Y111.771 E4.90179
G1 X58.729 Y104.557 E5.02443
G1 X61.229 Y104.557 E5.06693
G1 X61.229 Y95.443 E5.22187
G1 X58.729 Y95.443 E5.26437
G1 X58.729 Y88.229 E5.38700
G1 X111.202 Y88.229 E6.27905
G1 X111.042 Y88.626 F9000.000
G1 X110.481 Y110.981
G1 X109.829 Y110.981 F2700.000 E6.29017
G1 X110.481 Y110.329 E6.30591
G1 X110.481 Y109.678 E6.31703
G1 X109.178 Y110.981 E6.34850
G1 X108.527 Y110.981 E6.35962
G1 X110.481 Y109.027 E6.40681
G1 X110.481 Y108.376 E6.41794
G1 X107.876 Y110.981 E6.48086
G1 X107.225 Y110.981 E6.49199
G1 X110.481 Y107.725 E6.57064
G1 X110.481 Y107.074 E6.58176
G1 X106.574 Y110.981 E6.67615
G1 X105.923 Y110.981 E6.68727
G1 X110.481 Y106.423 E6.79739
G1 X110.481 Y105.772 E6.80851
G1 X105.272 Y110.981 E6.93436
G1 X104.621 Y110.981 E6.94548
G1 X110.481 Y105.121 E7.08705
G1 X110.481 Y104.470 E7.09818
G1 X103.970 Y110.981 E7.25548
G1 X103.318 Y110.981 E7.26661
G1 X110.481 Y103.819 E7.43964
G1 X110.481 Y103.167 E7.45077
G1 X102.667 Y110.981 E7.63953
G1 X102.016 Y110.981 E7.65065
G1 X110.481 Y102.516 E7.85515
G1 X110.481 Y101.865 E7.86627
G1 X101.365 Y110.981 E8.08650
G1 X100.714 Y110.981 E8.09762
G1 X110.481 Y101.214 E8.33358
G1 X110.481 Y100.563 E8.34470
G1 X100.063 Y110.981 E8.59639
G1 X99.412 Y110.981 E8.60751
G1 X110.481 Y99.912 E8.87493
G1 X110.481 Y99.261 E8.88605
G1 X98.761 Y110.981 E9.16920
G1 X98.110 Y110.981 E9.18032
G1 X110.481 Y98.610 E9.47920
G1 X110.481 Y97.959 E9.49032
G1 X97.459 Y110.981 E9.80493
G1 X96.808 Y110.981 E9.81605
G1 X110.481 Y97.308 E10.14639
G1 X110.481 Y96.656 E10.15751
G1 X96.156 Y110.981 E10.50358
G1 X95.505 Y110.981 E10.51470
G1 X110.481 Y96.005 E10.87650
G1 X110.481 Y95.354 E10.88762
G1 X94.854 Y110.981 E11.26515
G1 X94.203 Y110.981 E11.27627
G1 X110.481 Y94.703 E11.66953
G1 X110.481 Y94.052 E11.68065
G1 X93.552 Y110.981 E12.08964
