; generated by Slic3r 0.9.9 on 2013-05-19 at 22:14:37

; layer_height = 0.21
; perimeters = 3
; top_solid_layers = 2
; bottom_solid_layers = 2
; fill_density = 0.2
; perimeter_speed = 35
; infill_speed = 45
; travel_speed = 150
; nozzle_diameter = 0.35
; filament_diameter = 2.8
; extrusion_multiplier = 1.088
; perimeters extrusion width = 0.49mm
; infill extrusion width = 0.49mm
; solid infill extrusion width = 0.49mm
; top infill extrusion width = 0.49mm
; first layer extrusion width = 0.70mm

G21 ; set units to millimeters
M190 S70 ; wait for bed temperature to be reached
M104 S200 ; set temperature
G28 ; home all axes
M109 S200 ; wait for temperature to be reached
G90 ; use absolute coordinates
G92 E0
M82 ; use absolute distances for extrusion
M106 S331
G1 F600.000 E-1.00000
G92 E0
G1 Z0.350 F9000.000
G1 X106.484 Y95.229
G1 F600.000 E1.00000
G1 X106.929 Y94.735 F720.000 E1.02570
G1 X109.674 Y94.152 E1.13414
G1 X112.238 Y95.293 E1.24258
G1 X113.640 Y97.723 E1.35100
G1 X113.347 Y100.514 E1.45944
G1 X111.470 Y102.600 E1.56788
G1 X108.725 Y103.182 E1.67633
G1 X106.161 Y102.041 E1.78478
G1 X104.758 Y99.612 E1.89319
G1 X105.052 Y96.821 E2.00163
G1 X106.421 Y95.299 E2.08077
G1 X106.949 Y95.647 F9000.000
G1 X107.257 Y95.304 F720.000 E2.09861
G1 X109.605 Y94.806 E2.19136
G1 X111.798 Y95.782 E2.28411
G1 X112.998 Y97.860 E2.37683
G1 X112.746 Y100.247 E2.46958
G1 X111.141 Y102.031 E2.56233
G1 X108.793 Y102.529 E2.65508
G1 X106.601 Y101.553 E2.74784
G1 X105.401 Y99.475 E2.84056
G1 X105.652 Y97.088 E2.93331
G1 X106.886 Y95.717 E3.00460
G1 X107.413 Y96.065 F9000.000
G1 X107.586 Y95.873 F720.000 E3.01459
G1 X109.536 Y95.459 E3.09164
G1 X111.358 Y96.270 E3.16870
G1 X112.355 Y97.996 E3.24573
G1 X112.146 Y99.979 E3.32279
G1 X110.813 Y101.462 E3.39985
G1 X108.862 Y101.876 E3.47690
G1 X107.040 Y101.065 E3.55397
G1 X106.044 Y99.339 E3.63099
G1 X106.252 Y97.355 E3.70806
G1 X107.351 Y96.135 E3.77151
G1 X107.333 Y95.819 F9000.000
G1 X107.487 Y95.702
G1 X106.072 Y97.275
G1 X104.897 Y104.695
G1 X105.242 Y103.632
G1 X107.512 Y105.282 F720.000 E3.87995
G1 X108.380 Y107.951 E3.98840
G1 X107.512 Y110.619 E4.09685
G1 X105.242 Y112.269 E4.20529
G1 X102.437 Y112.269 E4.31371
G1 X100.167 Y110.619 E4.42215
G1 X99.299 Y107.951 E4.53059
G1 X100.167 Y105.282 E4.63904
G1 X102.437 Y103.632 E4.74748
G1 X105.149 Y103.632 E4.85228
G1 X105.039 Y104.257 F9000.000
G1 X106.981 Y105.668 F720.000 E4.94503
G1 X107.723 Y107.951 E5.03778
G1 X106.981 Y110.233 E5.13053
G1 X105.039 Y111.644 E5.22329
G1 X102.640 Y111.644 E5.31601
G1 X100.698 Y110.233 E5.40876
G1 X99.956 Y107.951 E5.50151
G1 X100.698 Y105.668 E5.59426
G1 X102.640 Y104.257 E5.68702
G1 X104.945 Y104.257 E5.77612
G1 X104.836 Y104.882 F9000.000
G1 X106.449 Y106.055 F720.000 E5.85318
G1 X107.066 Y107.951 E5.93024
G1 X106.449 Y109.847 E6.00729
G1 X104.836 Y111.019 E6.08436
G1 X102.843 Y111.019 E6.16138
G1 X101.230 Y109.847 E6.23845
G1 X100.613 Y107.951 E6.31550
G1 X101.230 Y106.055 E6.39256
G1 X102.843 Y104.882 E6.46962
G1 X104.742 Y104.882 E6.54302
G1 X105.342 Y104.515 F9000.000
G1 X104.897 Y104.695
G1 X106.609 Y105.939
G1 X111.608 Y110.093
G1 X108.841 Y113.830
G1 X108.725 Y112.719
G1 X111.470 Y113.302 F840.000 E6.65147
G1 X113.324 Y115.362 E6.75861
G1 X114.060 Y115.206 E6.78770
G1 X115.058 Y115.206 E6.82625
G1 X115.794 Y115.362 E6.85534
G1 X117.648 Y113.302 E6.96247
G1 X120.393 Y112.719 E7.07092
G1 X122.957 Y113.860 E7.17936
G1 X124.360 Y116.290 E7.28778
G1 X124.066 Y119.080 E7.39622
G1 X122.189 Y121.166 E7.50467
G1 X119.444 Y121.749 E7.61311
G1 X119.024 Y121.562 E7.63087
G1 X118.917 Y121.891 E7.64424
G1 X118.419 Y122.755 E7.68278
G1 X117.751 Y123.496 E7.72133
G1 X116.944 Y124.082 E7.75987
G1 X116.033 Y124.488 E7.79841
G1 X115.058 Y124.695 E7.83696
G1 X114.060 Y124.695 E7.87551
G1 X113.085 Y124.488 E7.91405
G1 X112.174 Y124.082 E7.95259
G1 X111.367 Y123.496 E7.99113
G1 X110.699 Y122.755 E8.02968
G1 X110.201 Y121.891 E8.06822
G1 X110.094 Y121.562 E8.08159
G1 X109.674 Y121.749 E8.09935
G1 X106.929 Y121.166 E8.20779
G1 X105.052 Y119.080 E8.31624
G1 X104.758 Y116.290 E8.42468
G1 X106.161 Y113.860 E8.53310
G1 X108.639 Y112.757 E8.63792
G1 X108.793 Y113.372 F9000.000
G1 X111.141 Y113.871 F840.000 E8.73067
G1 X112.746 Y115.655 E8.82342
G1 X112.806 Y116.221 E8.84544
G1 X113.279 Y116.011 E8.86544
G1 X114.126 Y115.831 E8.89891
G1 X114.992 Y115.831 E8.93237
G1 X115.839 Y116.011 E8.96584
G1 X116.312 Y116.221 E8.98584
G1 X116.372 Y115.655 E9.00786
G1 X117.977 Y113.871 E9.10061
G1 X120.325 Y113.372 E9.19337
G1 X122.517 Y114.348 E9.28612
G1 X123.717 Y116.426 E9.37884
G1 X123.466 Y118.813 E9.47159
G1 X121.861 Y120.597 E9.56434
G1 X119.513 Y121.096 E9.65709
G1 X118.644 Y120.709 E9.69382
G1 X118.343 Y121.636 E9.73147
G1 X117.910 Y122.386 E9.76494
G1 X117.331 Y123.029 E9.79841
G1 X116.630 Y123.538 E9.83187
G1 X115.839 Y123.890 E9.86534
G1 X114.992 Y124.070 E9.89881
G1 X114.126 Y124.070 E9.93228
G1 X113.279 Y123.890 E9.96574
G1 X112.488 Y123.538 E9.99921
G1 X111.787 Y123.029 E10.03268
G1 X111.208 Y122.386 E10.06615
G1 X110.775 Y121.636 E10.09961
G1 X110.474 Y120.709 E10.13726
G1 X109.605 Y121.096 E10.17399
G1 X107.257 Y120.597 E10.26674
G1 X105.652 Y118.813 E10.35949
G1 X105.401 Y116.426 E10.45225
G1 X106.601 Y114.348 E10.54496
G1 X108.708 Y113.411 E10.63409
G1 X116.972 Y115.922 F9000.000
G1 X118.305 Y114.440 F720.000 E10.71115
G1 X120.256 Y114.026 E10.78821
G1 X122.078 Y114.837 E10.86527
G1 X123.074 Y116.563 E10.94229
G1 X122.866 Y118.546 E11.01936
G1 X121.532 Y120.028 E11.09641
G1 X119.582 Y120.442 E11.17347
G1 X118.758 Y120.076 E11.20831
G1 X118.653 Y119.080 E11.24698
G1 X118.383 Y118.248 E11.28079
G1 X117.945 Y117.490 E11.31461
G1 X117.360 Y116.840 E11.34843
G1 X116.910 Y116.513 E11.36994
G1 X116.962 Y116.015 E11.38928
G1 X116.659 Y115.381 F9000.000
G1 X116.259 Y116.882
G1 X116.910 Y117.339 F720.000 E11.42002
G1 X117.402 Y117.885 E11.44841
G1 X117.769 Y118.521 E11.47680
G1 X117.996 Y119.220 E11.50519
G1 X118.073 Y119.951 E11.53359
G1 X117.996 Y120.681 E11.56198
G1 X117.769 Y121.380 E11.59037
G1 X117.402 Y122.016 E11.61876
G1 X116.910 Y122.562 E11.64715
G1 X116.316 Y122.994 E11.67554
G1 X115.645 Y123.293 E11.70393
G1 X114.926 Y123.446 E11.73232
G1 X114.192 Y123.446 E11.76072
G1 X113.473 Y123.293 E11.78911
G1 X112.802 Y122.994 E11.81750
G1 X112.208 Y122.562 E11.84589
G1 X111.716 Y122.016 E11.87428
G1 X111.349 Y121.380 E11.90267
G1 X111.122 Y120.681 E11.93106
G1 X111.045 Y119.951 E11.95945
G1 X111.122 Y119.220 E11.98784
G1 X111.349 Y118.521 E12.01623
G1 X111.716 Y117.885 E12.04462
G1 X112.208 Y117.339 E12.07302
G1 X112.802 Y116.907 E12.10141
G1 X113.473 Y116.608 E12.12980
G1 X114.192 Y116.456 E12.15819
G1 X114.926 Y116.456 E12.18658
G1 X115.645 Y116.608 E12.21497
G1 X116.174 Y116.844 E12.23734
G1 X116.808 Y116.583 F9000.000
G1 X112.208 Y116.513
G1 X111.758 Y116.840 F720.000 E12.25885
G1 X111.173 Y117.490 E12.29267
G1 X110.735 Y118.248 E12.32648
G1 X110.465 Y119.080 E12.36030
G1 X110.360 Y120.076 E12.39897
G1 X109.536 Y120.442 E12.43381
G1 X107.586 Y120.028 E12.51086
G1 X106.252 Y118.546 E12.58792
G1 X106.044 Y116.563 E12.66499
G1 X107.040 Y114.837 E12.74201
G1 X108.862 Y114.026 E12.81907
G1 X110.813 Y114.440 E12.89613
G1 X112.146 Y115.922 E12.97319
G1 X112.199 Y116.420 E12.99253
G1 X112.452 Y117.013 F9000.000
G1 X113.116 Y112.393
G1 X112.224 Y111.996 F720.000 E13.03026
G1 X111.434 Y111.422 E13.06800
G1 X110.780 Y110.696 E13.10573
G1 X110.292 Y109.851 E13.14347
G1 X109.990 Y108.922 E13.18121
G1 X109.888 Y107.951 E13.21894
G1 X109.990 Y106.980 E13.25668
G1 X110.292 Y106.051 E13.29441
G1 X110.780 Y105.205 E13.33215
G1 X111.434 Y104.480 E13.36988
G1 X112.224 Y103.906 E13.40762
G1 X113.116 Y103.508 E13.44536
G1 X114.071 Y103.305 E13.48310
G1 X115.047 Y103.305 E13.52082
G1 X116.002 Y103.508 E13.55856
G1 X116.895 Y103.906 E13.59630
G1 X117.684 Y104.480 E13.63404
G1 X118.338 Y105.205 E13.67177
G1 X118.826 Y106.051 E13.70950
G1 X119.128 Y106.980 E13.74724
G1 X119.230 Y107.951 E13.78498
G1 X119.128 Y108.922 E13.82271
G1 X118.826 Y109.851 E13.86045
G1 X118.338 Y110.696 E13.89818
G1 X117.684 Y111.422 E13.93592
G1 X116.895 Y111.996 E13.97365
G1 X116.002 Y112.393 E14.01139
G1 X115.047 Y112.596 E14.04913
G1 X114.071 Y112.596 E14.08686
G1 X113.207 Y112.412 E14.12098
G1 X113.310 Y111.795 F9000.000
G1 X112.538 Y111.452 F720.000 E14.15364
G1 X111.854 Y110.955 E14.18630
G1 X111.289 Y110.327 E14.21896
G1 X110.866 Y109.595 E14.25161
G1 X110.605 Y108.791 E14.28428
G1 X110.517 Y107.951 E14.31693
G1 X110.605 Y107.110 E14.34959
G1 X110.866 Y106.306 E14.38225
G1 X111.289 Y105.575 E14.41491
G1 X111.854 Y104.947 E14.44757
G1 X112.538 Y104.450 E14.48023
G1 X113.310 Y104.106 E14.51289
G1 X114.137 Y103.930 E14.54555
G1 X114.981 Y103.930 E14.57821
G1 X115.808 Y104.106 E14.61087
G1 X116.580 Y104.450 E14.64353
G1 X117.264 Y104.947 E14.67619
G1 X117.829 Y105.575 E14.70885
G1 X118.252 Y106.306 E14.74150
G1 X118.513 Y107.110 E14.77417
G1 X118.601 Y107.951 E14.80683
G1 X118.513 Y108.791 E14.83948
G1 X118.252 Y109.595 E14.87215
G1 X117.829 Y110.327 E14.90480
G1 X117.264 Y110.955 E14.93746
G1 X116.580 Y111.452 E14.97012
G1 X115.808 Y111.795 E15.00278
G1 X114.981 Y111.971 E15.03545
G1 X114.136 Y111.971 E15.06810
G1 X113.401 Y111.815 E15.09714
G1 X113.504 Y111.198 F9000.000
G1 X112.852 Y110.907 F720.000 E15.12472
G1 X112.274 Y110.488 E15.15231
G1 X111.797 Y109.957 E15.17989
G1 X111.440 Y109.339 E15.20747
G1 X111.219 Y108.660 E15.23506
G1 X111.145 Y107.951 E15.26264
G1 X111.219 Y107.241 E15.29022
G1 X111.440 Y106.562 E15.31780
G1 X111.797 Y105.944 E15.34539
G1 X112.274 Y105.413 E15.37297
G1 X112.852 Y104.994 E15.40055
G1 X113.504 Y104.704 E15.42814
G1 X114.202 Y104.555 E15.45572
G1 X114.916 Y104.555 E15.48330
G1 X115.614 Y104.704 E15.51089
G1 X116.266 Y104.994 E15.53847
G1 X116.844 Y105.413 E15.56605
G1 X117.321 Y105.944 E15.59364
G1 X117.678 Y106.562 E15.62122
G1 X117.899 Y107.241 E15.64880
G1 X117.973 Y107.951 E15.67638
G1 X117.899 Y108.660 E15.70397
G1 X117.678 Y109.339 E15.73155
G1 X117.321 Y109.957 E15.75913
G1 X116.844 Y110.488 E15.78672
G1 X116.266 Y110.907 E15.81430
G1 X115.614 Y111.198 E15.84188
G1 X114.916 Y111.346 E15.86947
G1 X114.202 Y111.346 E15.89705
G1 X113.596 Y111.217 E15.92101
G1 X113.025 Y111.599 F9000.000
G1 X121.400 Y109.988
G1 X120.738 Y107.951 F720.000 E16.00380
G1 X121.606 Y105.282 E16.11225
G1 X123.876 Y103.632 E16.22069
G1 X126.681 Y103.632 E16.32911
G1 X128.951 Y105.282 E16.43755
G1 X129.819 Y107.951 E16.54600
G1 X128.951 Y110.619 E16.65444
G1 X126.681 Y112.269 E16.76289
G1 X123.876 Y112.269 E16.87130
G1 X121.606 Y110.619 E16.97974
G1 X121.429 Y110.077 E17.00178
G1 X121.995 Y109.795 F9000.000
G1 X121.395 Y107.951 F720.000 E17.07671
G1 X122.137 Y105.668 E17.16946
G1 X124.079 Y104.257 E17.26222
G1 X126.478 Y104.257 E17.35493
G1 X128.420 Y105.668 E17.44769
G1 X129.162 Y107.951 E17.54044
G1 X128.420 Y110.233 E17.63319
G1 X126.478 Y111.644 E17.72594
G1 X124.079 Y111.644 E17.81866
G1 X122.137 Y110.233 E17.91142
G1 X122.024 Y109.884 E17.92561
G1 X122.589 Y109.601 F9000.000
G1 X122.052 Y107.951 F720.000 E17.99269
G1 X122.669 Y106.055 E18.06975
G1 X124.282 Y104.882 E18.14681
G1 X126.275 Y104.882 E18.22383
G1 X127.888 Y106.055 E18.30090
G1 X128.505 Y107.951 E18.37795
G1 X127.888 Y109.847 E18.45501
G1 X126.275 Y111.019 E18.53207
G1 X124.282 Y111.019 E18.60910
G1 X122.669 Y109.847 E18.68616
G1 X122.618 Y109.690 E18.69252
G1 X121.978 Y109.472 F9000.000
G1 X120.393 Y103.182
G1 X117.648 Y102.600 F720.000 E18.80097
G1 X115.771 Y100.514 E18.90941
G1 X115.478 Y97.723 E19.01785
G1 X116.880 Y95.293 E19.12627
G1 X119.444 Y94.152 E19.23471
G1 X122.189 Y94.735 E19.34315
G1 X124.066 Y96.821 E19.45161
G1 X124.360 Y99.612 E19.56005
G1 X122.957 Y102.041 E19.66846
G1 X120.479 Y103.144 E19.77328
G1 X120.325 Y102.529 F9000.000
G1 X117.977 Y102.031 F720.000 E19.86604
G1 X116.372 Y100.247 E19.95878
G1 X116.120 Y97.860 E20.05154
G1 X117.320 Y95.782 E20.14426
G1 X119.513 Y94.806 E20.23701
G1 X121.861 Y95.304 E20.32976
G1 X123.466 Y97.088 E20.42251
G1 X123.717 Y99.475 E20.51527
G1 X122.517 Y101.553 E20.60799
G1 X120.410 Y102.491 E20.69712
G1 X120.256 Y101.876 F9000.000
G1 X118.305 Y101.462 F720.000 E20.77418
G1 X116.972 Y99.979 E20.85123
G1 X116.763 Y97.996 E20.92830
G1 X117.760 Y96.270 E21.00532
G1 X119.582 Y95.459 E21.08238
G1 X121.532 Y95.873 E21.15944
G1 X122.866 Y97.355 E21.23649
G1 X123.074 Y99.339 E21.31356
G1 X122.078 Y101.065 E21.39058
G1 X120.342 Y101.837 E21.46403
G1 X119.944 Y102.417 F9000.000
G1 X106.435 Y92.567
G1 X108.232 Y91.745 F840.000 E21.54039
G1 X110.109 Y91.134 E21.61669
G1 X112.008 Y90.742 E21.69162
G1 X114.039 Y90.558 E21.77043
G1 X116.089 Y90.620 E21.84971
G1 X118.050 Y90.910 E21.92631
G1 X119.922 Y91.401 E22.00109
G1 X121.744 Y92.109 E22.07665
G1 X123.503 Y93.027 E22.15333
G1 X125.194 Y94.181 E22.23243
G1 X126.687 Y95.479 E22.30889
G1 X128.032 Y96.944 E22.38574
G1 X129.209 Y98.567 E22.46323
G1 X130.188 Y100.311 E22.54050
G1 X130.941 Y102.099 E22.61550
G1 X131.510 Y104.022 E22.69298
G1 X131.839 Y105.955 E22.76876
G1 X131.959 Y107.951 E22.84602
G1 X131.837 Y109.979 E22.92455
G1 X131.503 Y111.887 E22.99941
G1 X130.948 Y113.794 E23.07616
G1 X130.169 Y115.625 E23.15304
G1 X129.209 Y117.334 E23.22882
G1 X128.032 Y118.958 E23.30630
G1 X126.675 Y120.437 E23.38389
G1 X125.184 Y121.724 E23.45998
G1 X123.569 Y122.834 E23.53574
G1 X121.798 Y123.771 E23.61316
G1 X119.922 Y124.501 E23.69096
G1 X118.009 Y125.003 E23.76740
G1 X116.058 Y125.282 E23.84356
G1 X114.079 Y125.342 E23.92007
G1 X112.082 Y125.170 E23.99754
G1 X110.132 Y124.776 E24.07440
G1 X108.277 Y124.172 E24.14981
G1 X106.460 Y123.349 E24.22688
G1 X104.753 Y122.320 E24.30391
G1 X103.191 Y121.121 E24.37999
G1 X101.767 Y119.740 E24.45668
G1 X100.494 Y118.191 E24.53416
G1 X99.405 Y116.498 E24.61194
G1 X98.534 Y114.722 E24.68838
G1 X97.867 Y112.849 E24.76521
G1 X97.414 Y110.917 E24.84191
G1 X97.190 Y108.928 E24.91926
G1 X97.190 Y106.941 E24.99605
G1 X97.424 Y104.944 E25.07373
G1 X97.872 Y103.030 E25.14970
G1 X98.533 Y101.184 E25.22547
G1 X99.409 Y99.397 E25.30240
G1 X100.483 Y97.727 E25.37912
G1 X101.739 Y96.189 E25.45588
G1 X103.149 Y94.821 E25.53175
G1 X104.714 Y93.605 E25.60837
G1 X106.354 Y92.616 E25.68240
G1 X105.887 Y92.168 F9000.000
G1 X105.778 Y91.308 F840.000 E25.71592
G1 X106.424 Y91.885 E25.74942
G1 X107.743 Y91.281 E25.80546
G1 X107.732 Y90.415 E25.83894
G1 X108.310 Y91.062 E25.87245
G1 X109.686 Y90.614 E25.92839
G1 X109.775 Y89.750 E25.96195
G1 X110.276 Y90.461 E25.99555
G1 X111.695 Y90.168 E26.05154
G1 X111.881 Y89.325 E26.08492
G1 X112.299 Y90.088 E26.11856
G1 X113.741 Y89.958 E26.17449
G1 X114.022 Y89.140 E26.20790
G1 X114.347 Y89.942 E26.24135
G1 X115.796 Y89.986 E26.29734
G1 X116.169 Y89.202 E26.33089
G1 X116.403 Y90.035 E26.36429
G1 X117.833 Y90.246 E26.42015
G1 X118.296 Y89.508 E26.45384
G1 X118.433 Y90.364 E26.48736
G1 X119.835 Y90.732 E26.54336
G1 X120.374 Y90.053 E26.57685
G1 X120.413 Y90.921 E26.61042
G1 X121.761 Y91.445 E26.66630
G1 X122.377 Y90.832 E26.69987
G1 X122.315 Y91.702 E26.73356
G1 X123.600 Y92.373 E26.78960
G1 X124.276 Y91.836 E26.82295
G1 X124.119 Y92.691 E26.85653
G1 X125.314 Y93.506 E26.91244
G1 X126.050 Y93.049 E26.94589
G1 X125.796 Y93.876 E26.97930
G1 X126.890 Y94.827 E27.03531
G1 X127.674 Y94.456 E27.06884
G1 X127.326 Y95.250 E27.10237
G1 X128.305 Y96.317 E27.15833
G1 X129.127 Y96.038 E27.19186
G1 X128.691 Y96.787 E27.22536
G1 X129.542 Y97.962 E27.28140
G1 X130.389 Y97.777 E27.31492
G1 X129.872 Y98.470 E27.34836
G1 X130.581 Y99.734 E27.40439
G1 X131.447 Y99.648 E27.43799
G1 X130.852 Y100.278 E27.47147
G1 X131.414 Y101.613 E27.52743
G1 X132.282 Y101.627 E27.56100
G1 X131.618 Y102.188 E27.59459
G1 X132.029 Y103.577 E27.65057
G1 X132.889 Y103.688 E27.68405
G1 X132.168 Y104.167 E27.71748
G1 X132.411 Y105.595 E27.77348
G1 X133.255 Y105.805 E27.80706
G1 X132.480 Y106.204 E27.84073
G1 X132.567 Y107.647 E27.89661
G1 X133.377 Y107.951 E27.93004
G1 X132.567 Y108.254 E27.96348
G1 X132.480 Y109.697 E28.01935
G1 X133.255 Y110.096 E28.05302
G1 X132.414 Y110.305 E28.08650
G1 X132.165 Y111.732 E28.14248
G1 X132.889 Y112.213 E28.17606
