; generated by Slic3r 0.9.9 on 2013-05-19 at 19:56:57

; layer_height = 0.21
; perimeters = 3
; top_solid_layers = 2
; bottom_solid_layers = 2
; fill_density = 0.2
; perimeter_speed = 35
; infill_speed = 45
; travel_speed = 150
; nozzle_diameter = 0.35
; filament_diameter = 2.8
; extrusion_multiplier = 1.088
; perimeters extrusion width = 0.49mm
; infill extrusion width = 0.49mm
; solid infill extrusion width = 0.49mm
; top infill extrusion width = 0.49mm
; first layer extrusion width = 0.70mm

G21 ; set units to millimeters
M190 S70 ; wait for bed temperature to be reached
M104 S200 ; set temperature
G28 ; home all axes
M109 S200 ; wait for temperature to be reached
G90 ; use absolute coordinates
G92 E0
M82 ; use absolute distances for extrusion
M106 S331
G1 F600.000 E-1.00000
G92 E0
G1 Z0.350 F9000.000
G1 X132.862 Y108.447
G1 F600.000 E1.00000
G1 X133.232 Y108.036 F720.000 E1.02135
G1 X133.679 Y107.712 E1.04269
G1 X134.183 Y107.487 E1.06404
G1 X134.724 Y107.372 E1.08539
G1 X135.276 Y107.372 E1.10674
G1 X135.817 Y107.487 E1.12809
G1 X136.321 Y107.712 E1.14944
G1 X136.768 Y108.036 E1.17079
G1 X137.138 Y108.447 E1.19213
G1 X137.414 Y108.925 E1.21348
G1 X137.585 Y109.450 E1.23483
G1 X137.642 Y110.000 E1.25618
G1 X137.585 Y110.549 E1.27753
G1 X137.414 Y111.075 E1.29889
G1 X137.138 Y111.553 E1.32023
G1 X136.768 Y111.964 E1.34157
G1 X136.321 Y112.288 E1.36292
G1 X135.817 Y112.513 E1.38427
G1 X135.276 Y112.628 E1.40562
G1 X134.724 Y112.628 E1.42697
G1 X134.183 Y112.513 E1.44832
G1 X133.679 Y112.288 E1.46967
G1 X133.232 Y111.964 E1.49102
G1 X132.862 Y111.553 E1.51236
G1 X132.586 Y111.075 E1.53371
G1 X132.415 Y110.549 E1.55507
G1 X132.358 Y110.000 E1.57641
G1 X132.415 Y109.451 E1.59776
G1 X132.586 Y108.925 E1.61912
G1 X132.815 Y108.528 E1.63684
G1 X133.371 Y108.816 F9000.000
G1 X133.652 Y108.503 F720.000 E1.65311
G1 X133.993 Y108.256 E1.66938
G1 X134.378 Y108.084 E1.68566
G1 X134.789 Y107.997 E1.70193
G1 X135.211 Y107.997 E1.71820
G1 X135.622 Y108.084 E1.73447
G1 X136.007 Y108.256 E1.75075
G1 X136.348 Y108.503 E1.76702
G1 X136.629 Y108.816 E1.78329
G1 X136.840 Y109.181 E1.79956
G1 X136.970 Y109.581 E1.81583
G1 X137.014 Y110.000 E1.83211
G1 X136.970 Y110.419 E1.84838
G1 X136.840 Y110.819 E1.86466
G1 X136.629 Y111.184 E1.88093
G1 X136.348 Y111.497 E1.89719
G1 X136.007 Y111.744 E1.91347
G1 X135.622 Y111.916 E1.92974
G1 X135.211 Y112.003 E1.94601
G1 X134.789 Y112.003 E1.96229
G1 X134.378 Y111.916 E1.97856
G1 X133.993 Y111.744 E1.99483
G1 X133.652 Y111.497 E2.01110
G1 X133.371 Y111.184 E2.02737
G1 X133.160 Y110.819 E2.04364
G1 X133.030 Y110.419 E2.05992
G1 X132.986 Y110.000 E2.07619
G1 X133.030 Y109.581 E2.09247
G1 X133.160 Y109.181 E2.10874
G1 X133.324 Y108.897 E2.12139
G1 X133.213 Y108.426 F9000.000
G1 X87.414 Y91.075
G1 X87.138 Y91.553 F720.000 E2.14274
G1 X86.768 Y91.964 E2.16409
G1 X86.321 Y92.288 E2.18543
G1 X85.817 Y92.513 E2.20678
G1 X85.276 Y92.628 E2.22813
G1 X84.724 Y92.628 E2.24948
G1 X84.183 Y92.513 E2.27083
G1 X83.679 Y92.288 E2.29218
G1 X83.232 Y91.964 E2.31353
G1 X82.862 Y91.553 E2.33488
G1 X82.586 Y91.075 E2.35622
G1 X82.415 Y90.549 E2.37757
G1 X82.358 Y90.000 E2.39892
G1 X82.415 Y89.451 E2.42027
G1 X82.586 Y88.925 E2.44162
G1 X82.862 Y88.447 E2.46297
G1 X83.232 Y88.036 E2.48432
G1 X83.679 Y87.712 E2.50567
G1 X84.183 Y87.487 E2.52702
G1 X84.724 Y87.372 E2.54836
G1 X85.276 Y87.372 E2.56971
G1 X85.817 Y87.487 E2.59106
G1 X86.321 Y87.712 E2.61241
G1 X86.768 Y88.036 E2.63376
G1 X87.138 Y88.447 E2.65511
G1 X87.414 Y88.925 E2.67646
G1 X87.585 Y89.451 E2.69781
G1 X87.642 Y90.000 E2.71915
G1 X87.585 Y90.549 E2.74050
G1 X87.443 Y90.986 E2.75823
G1 X86.840 Y90.819 F9000.000
G1 X86.629 Y91.184 F720.000 E2.77450
G1 X86.348 Y91.497 E2.79078
G1 X86.007 Y91.744 E2.80705
G1 X85.622 Y91.916 E2.82332
G1 X85.211 Y92.003 E2.83959
G1 X84.789 Y92.003 E2.85586
G1 X84.378 Y91.916 E2.87214
G1 X83.993 Y91.744 E2.88841
G1 X83.652 Y91.497 E2.90468
G1 X83.371 Y91.184 E2.92095
G1 X83.160 Y90.819 E2.93723
G1 X83.030 Y90.419 E2.95350
G1 X82.986 Y90.000 E2.96977
G1 X83.030 Y89.581 E2.98604
G1 X83.160 Y89.181 E3.00232
G1 X83.371 Y88.816 E3.01859
G1 X83.652 Y88.503 E3.03486
G1 X83.993 Y88.256 E3.05113
G1 X84.378 Y88.084 E3.06741
G1 X84.789 Y87.997 E3.08368
G1 X85.211 Y87.997 E3.09995
G1 X85.622 Y88.084 E3.11622
G1 X86.007 Y88.256 E3.13250
G1 X86.348 Y88.503 E3.14877
G1 X86.629 Y88.816 E3.16504
G1 X86.840 Y89.181 E3.18131
G1 X86.970 Y89.581 E3.19759
G1 X87.014 Y90.000 E3.21386
G1 X86.970 Y90.419 E3.23013
G1 X86.869 Y90.730 E3.24278
G1 X87.076 Y91.168 F9000.000
G1 X37.414 Y108.925
G1 X37.585 Y109.451 F720.000 E3.26414
G1 X37.642 Y110.000 E3.28549
G1 X37.585 Y110.549 E3.30683
G1 X37.414 Y111.075 E3.32819
G1 X37.138 Y111.553 E3.34954
G1 X36.768 Y111.964 E3.37088
G1 X36.321 Y112.288 E3.39223
G1 X35.817 Y112.513 E3.41358
G1 X35.276 Y112.628 E3.43493
G1 X34.724 Y112.628 E3.45628
G1 X34.183 Y112.513 E3.47763
G1 X33.679 Y112.288 E3.49898
G1 X33.232 Y111.964 E3.52032
G1 X32.862 Y111.553 E3.54167
G1 X32.586 Y111.075 E3.56301
G1 X32.415 Y110.549 E3.58437
G1 X32.358 Y110.000 E3.60572
G1 X32.415 Y109.451 E3.62707
G1 X32.586 Y108.925 E3.64842
G1 X32.862 Y108.447 E3.66977
G1 X33.232 Y108.036 E3.69111
G1 X33.679 Y107.712 E3.71246
G1 X34.183 Y107.487 E3.73381
G1 X34.724 Y107.372 E3.75516
G1 X35.276 Y107.372 E3.77651
G1 X35.817 Y107.487 E3.79786
G1 X36.321 Y107.712 E3.81921
G1 X36.768 Y108.036 E3.84056
G1 X37.138 Y108.447 E3.86190
G1 X37.367 Y108.844 E3.87962
G1 X36.840 Y109.181 F9000.000
G1 X36.970 Y109.581 F720.000 E3.89590
G1 X37.014 Y110.000 E3.91217
G1 X36.970 Y110.419 E3.92844
G1 X36.840 Y110.819 E3.94472
G1 X36.629 Y111.184 E3.96099
G1 X36.348 Y111.497 E3.97726
G1 X36.007 Y111.744 E3.99353
G1 X35.622 Y111.916 E4.00980
G1 X35.211 Y112.003 E4.02608
G1 X34.789 Y112.003 E4.04235
G1 X34.378 Y111.916 E4.05862
G1 X33.993 Y111.744 E4.07490
G1 X33.652 Y111.497 E4.09117
G1 X33.371 Y111.184 E4.10744
G1 X33.160 Y110.819 E4.12371
G1 X33.030 Y110.419 E4.13999
G1 X32.986 Y110.000 E4.15626
G1 X33.030 Y109.581 E4.17253
G1 X33.160 Y109.181 E4.18881
G1 X33.371 Y108.816 E4.20507
G1 X33.652 Y108.503 E4.22135
G1 X33.993 Y108.256 E4.23762
G1 X34.378 Y108.084 E4.25389
G1 X34.789 Y107.997 E4.27016
G1 X35.211 Y107.997 E4.28644
G1 X35.622 Y108.084 E4.30271
G1 X36.007 Y108.256 E4.31898
G1 X36.348 Y108.503 E4.33525
G1 X36.629 Y108.816 E4.35152
G1 X36.793 Y109.100 E4.36417
G1 X37.257 Y109.239 F9000.000
G1 X37.321 Y110.493
G1 X84.895 Y98.472
G1 X134.153 Y112.060
G1 X133.879 Y113.410
G1 X127.009 Y113.410 F840.000 E4.62967
G1 X126.720 Y113.089 E4.64636
G1 X126.286 Y112.774 E4.66711
G1 X125.902 Y112.603 E4.68335
G1 X85.748 Y97.545 E6.34061
G1 X85.269 Y97.443 E6.35955
G1 X84.731 Y97.443 E6.38032
G1 X84.252 Y97.545 E6.39926
G1 X44.098 Y112.603 E8.05652
G1 X43.714 Y112.774 E8.07276
G1 X43.280 Y113.090 E8.09352
G1 X42.991 Y113.410 E8.11020
G1 X36.121 Y113.410 E8.37570
G1 X36.067 Y113.245 E8.38240
G1 X37.189 Y112.431 E8.43597
G1 X37.646 Y111.923 E8.46239
G1 X37.988 Y111.331 E8.48881
G1 X38.199 Y110.680 E8.51525
G1 X38.271 Y110.000 E8.54167
G1 X38.199 Y109.320 E8.56810
G1 X37.988 Y108.669 E8.59453
G1 X37.646 Y108.077 E8.62095
G1 X37.189 Y107.569 E8.64737
G1 X36.635 Y107.167 E8.67379
G1 X36.011 Y106.889 E8.70022
G1 X34.730 Y106.617 E8.75082
G1 X34.713 Y106.424 E8.75831
G1 X82.797 Y87.190 E10.75964
G1 X82.952 Y87.413 E10.77012
G1 X82.354 Y88.077 E10.80468
G1 X82.012 Y88.670 E10.83110
G1 X81.801 Y89.320 E10.85753
G1 X81.729 Y90.000 E10.88395
G1 X81.801 Y90.680 E10.91038
G1 X82.012 Y91.330 E10.93680
G1 X82.354 Y91.923 E10.96323
G1 X82.811 Y92.431 E10.98965
G1 X83.365 Y92.833 E11.01608
G1 X83.989 Y93.111 E11.04250
G1 X84.658 Y93.253 E11.06893
G1 X85.342 Y93.253 E11.09535
G1 X86.011 Y93.111 E11.12178
G1 X86.635 Y92.833 E11.14821
G1 X87.189 Y92.431 E11.17463
G1 X87.646 Y91.923 E11.20105
G1 X87.988 Y91.330 E11.22748
G1 X88.199 Y90.680 E11.25390
G1 X88.271 Y90.000 E11.28033
G1 X88.199 Y89.320 E11.30676
G1 X87.988 Y88.670 E11.33318
G1 X87.646 Y88.077 E11.35961
G1 X87.048 Y87.413 E11.39416
G1 X87.203 Y87.190 E11.40464
G1 X135.286 Y106.424 E13.40597
G1 X135.270 Y106.617 E13.41347
G1 X133.989 Y106.889 E13.46407
G1 X133.365 Y107.167 E13.49049
G1 X132.811 Y107.569 E13.51692
G1 X132.354 Y108.077 E13.54334
G1 X132.012 Y108.669 E13.56975
G1 X131.801 Y109.320 E13.59619
G1 X131.729 Y110.000 E13.62262
G1 X131.801 Y110.680 E13.64904
G1 X132.012 Y111.331 E13.67547
G1 X132.354 Y111.923 E13.70189
G1 X132.811 Y112.431 E13.72831
G1 X133.933 Y113.245 E13.78188
G1 X133.908 Y113.321 E13.78496
G1 X135.424 Y114.035 F9000.000
G1 X126.674 Y114.035 F840.000 E14.12312
G1 X126.572 Y113.858 E14.13102
G1 X126.300 Y113.556 E14.14672
G1 X125.971 Y113.318 E14.16240
G1 X125.665 Y113.181 E14.17538
G1 X85.572 Y98.147 E15.83010
G1 X85.203 Y98.068 E15.84470
G1 X84.797 Y98.068 E15.86039
G1 X84.428 Y98.147 E15.87498
G1 X44.335 Y113.181 E17.52971
G1 X44.029 Y113.318 E17.54269
G1 X43.700 Y113.556 E17.55837
G1 X43.428 Y113.858 E17.57407
G1 X43.326 Y114.035 E17.58196
G1 X34.576 Y114.035 E17.92012
G1 X33.746 Y113.859 E17.95291
G1 X32.971 Y113.514 E17.98569
G1 X32.285 Y113.015 E18.01847
G1 X31.717 Y112.385 E18.05125
G1 X31.293 Y111.650 E18.08403
G1 X31.031 Y110.844 E18.11681
G1 X30.942 Y110.000 E18.14959
G1 X31.031 Y109.156 E18.18237
G1 X31.293 Y108.350 E18.21515
G1 X31.717 Y107.615 E18.24793
G1 X32.285 Y106.985 E18.28071
G1 X32.971 Y106.486 E18.31349
G1 X33.820 Y106.108 E18.34939
G1 X83.728 Y86.145 E20.42668
G1 X84.576 Y85.965 E20.46017
G1 X85.424 Y85.965 E20.49295
G1 X86.272 Y86.145 E20.52643
G1 X136.180 Y106.108 E22.60373
G1 X137.029 Y106.486 E22.63962
G1 X137.715 Y106.985 E22.67240
G1 X138.283 Y107.615 E22.70518
G1 X138.707 Y108.350 E22.73796
G1 X138.969 Y109.156 E22.77074
G1 X139.058 Y110.000 E22.80352
G1 X138.969 Y110.844 E22.83631
G1 X138.707 Y111.650 E22.86909
G1 X138.283 Y112.385 E22.90187
G1 X137.715 Y113.015 E22.93465
G1 X137.029 Y113.514 E22.96743
G1 X136.254 Y113.859 E23.00021
G1 X135.516 Y114.016 E23.02937
G1 X135.490 Y114.660 F9000.000
G1 X126.264 Y114.660 F840.000 E23.38591
G1 X126.201 Y114.466 E23.39381
G1 X126.063 Y114.228 E23.40444
G1 X125.879 Y114.023 E23.41505
G1 X125.657 Y113.862 E23.42566
G1 X125.428 Y113.760 E23.43538
G1 X85.397 Y98.748 E25.08756
G1 X85.137 Y98.693 E25.09781
G1 X84.863 Y98.693 E25.10843
G1 X84.603 Y98.748 E25.11868
G1 X44.572 Y113.760 E26.77087
G1 X44.343 Y113.862 E26.78058
G1 X44.121 Y114.023 E26.79120
G1 X43.937 Y114.228 E26.80181
G1 X43.799 Y114.466 E26.81243
G1 X43.736 Y114.660 E26.82034
G1 X34.510 Y114.660 E27.17688
G1 X33.552 Y114.457 E27.21474
G1 X32.657 Y114.058 E27.25259
G1 X31.865 Y113.482 E27.29045
G1 X31.209 Y112.754 E27.32831
G1 X30.719 Y111.906 E27.36616
G1 X30.417 Y110.974 E27.40402
G1 X30.314 Y110.000 E27.44188
G1 X30.417 Y109.026 E27.47974
G1 X30.719 Y108.094 E27.51759
G1 X31.209 Y107.246 E27.55545
G1 X31.865 Y106.518 E27.59330
G1 X32.657 Y105.942 E27.63116
G1 X33.577 Y105.533 E27.67006
G1 X83.546 Y85.545 E29.74989
G1 X84.510 Y85.340 E29.78798
G1 X85.490 Y85.340 E29.82584
G1 X86.454 Y85.545 E29.86393
G1 X136.423 Y105.533 E31.94376
G1 X137.343 Y105.942 E31.98266
G1 X138.135 Y106.518 E32.02052
G1 X138.791 Y107.246 E32.05837
G1 X139.281 Y108.094 E32.09623
G1 X139.583 Y109.026 E32.13408
G1 X139.680 Y109.942 E32.16968
G1 X139.583 Y110.974 E32.20975
G1 X139.281 Y111.906 E32.24761
G1 X138.791 Y112.754 E32.28546
G1 X138.135 Y113.482 E32.32332
G1 X137.343 Y114.058 E32.36118
G1 X136.448 Y114.457 E32.39904
G1 X135.581 Y114.641 E32.43327
G1 X135.140 Y114.142 F9000.000
G1 X136.378 Y114.259
G1 X138.620 Y112.630
G1 X135.796 Y107.852
G1 X133.876 Y108.054
G1 X133.777 Y106.308
G1 X133.263 Y106.681 F1080.000 E32.45789
G1 X132.299 Y105.717 E32.51077
G1 X130.821 Y105.126 E32.57249
G1 X132.750 Y107.054 E32.67825
G1 X132.286 Y107.477 E32.70258
G1 X129.343 Y104.534 E32.86392
G1 X127.866 Y103.943 E32.92563
G1 X131.893 Y107.970 E33.14646
G1 X131.577 Y108.542 E33.17176
G1 X126.388 Y103.352 E33.45633
G1 X124.910 Y102.761 E33.51804
G1 X131.360 Y109.211 E33.87172
G1 X131.275 Y110.013 E33.90299
G1 X123.432 Y102.170 E34.33306
G1 X121.954 Y101.579 E34.39477
G1 X131.454 Y111.078 E34.91567
G1 X132.404 Y112.915 E34.99587
G1 X120.477 Y100.988 E35.64993
G1 X118.999 Y100.397 E35.71164
G1 X131.560 Y112.957 E36.40042
G1 X130.673 Y112.957 E36.43480
G1 X117.521 Y99.805 E37.15598
G1 X116.043 Y99.214 E37.21770
G1 X129.786 Y112.957 E37.97130
G1 X128.900 Y112.957 E38.00568
G1 X114.565 Y98.623 E38.79170
G1 X113.088 Y98.032 E38.85341
G1 X128.013 Y112.957 E39.67184
G1 X126.641 Y112.472 E39.72828
G1 X111.610 Y97.441 E40.55250
G1 X110.132 Y96.850 E40.61422
G1 X125.101 Y111.819 E41.43503
G1 X123.682 Y111.287 E41.49378
G1 X108.654 Y96.259 E42.31783
G1 X107.176 Y95.668 E42.37955
G1 X122.263 Y110.755 E43.20684
G1 X120.845 Y110.223 E43.26559
G1 X105.699 Y95.077 E44.09613
G1 X104.221 Y94.485 E44.15784
G1 X119.426 Y109.691 E44.99162
G1 X118.007 Y109.159 E45.05037
G1 X102.743 Y93.894 E45.88739
G1 X101.265 Y93.303 E45.94910
G1 X116.589 Y108.627 E46.78936
G1 X115.170 Y108.095 E46.84811
G1 X99.787 Y92.712 E47.69162
G1 X98.310 Y92.121 E47.75333
G1 X113.751 Y107.563 E48.60007
G1 X112.333 Y107.031 E48.65882
G1 X96.832 Y91.530 E49.50881
G1 X95.354 Y90.939 E49.57052
G1 X110.914 Y106.499 E50.42375
G1 X109.495 Y105.967 E50.48250
G1 X93.876 Y90.348 E51.33897
G1 X92.398 Y89.756 E51.40068
G1 X108.077 Y105.435 E52.26039
G1 X106.658 Y104.903 E52.31914
G1 X90.921 Y89.165 E53.18209
G1 X89.443 Y88.574 E53.24380
G1 X105.239 Y104.371 E54.11000
G1 X103.821 Y103.839 E54.16874
G1 X88.374 Y88.392 E55.01575
G1 X88.683 Y89.588 E55.06362
G1 X102.402 Y103.307 E55.81590
G1 X100.983 Y102.775 E55.87465
G1 X88.677 Y90.468 E56.54945
G1 X88.510 Y91.188 E56.57811
G1 X99.564 Y102.243 E57.18426
G1 X98.146 Y101.711 E57.24301
G1 X88.238 Y91.803 E57.78629
G1 X87.884 Y92.335 E57.81109
G1 X96.727 Y101.179 E58.29600
G1 X95.308 Y100.647 E58.35475
G1 X87.457 Y92.795 E58.78527
G1 X86.944 Y93.168 E58.80988
G1 X93.890 Y100.115 E59.19077
G1 X92.471 Y99.583 E59.24952
G1 X86.346 Y93.457 E59.58539
G1 X85.652 Y93.650 E59.61332
G1 X91.052 Y99.051 E59.90945
G1 X89.634 Y98.519 E59.96820
G1 X84.821 Y93.706 E60.23210
G1 X83.711 Y93.483 E60.27599
G1 X88.215 Y97.987 E60.52296
G1 X86.796 Y97.454 E60.58171
G1 X78.671 Y89.329 E61.02728
G1 X78.037 Y89.582 E61.05373
G1 X85.480 Y97.025 E61.46187
G1 X84.581 Y97.012 E61.49675
G1 X77.404 Y89.835 E61.89029
G1 X76.771 Y90.089 E61.91674
G1 X83.882 Y97.200 E62.30669
G1 X83.237 Y97.442 E62.33339
G1 X76.137 Y90.342 E62.72271
G1 X75.504 Y90.595 E62.74916
G1 X82.592 Y97.684 E63.13784
G1 X81.947 Y97.926 E63.16455
G1 X74.871 Y90.849 E63.55260
G1 X74.237 Y91.102 E63.57905
G1 X81.302 Y98.167 E63.96647
G1 X80.658 Y98.409 E63.99318
G1 X73.604 Y91.356 E64.37997
G1 X72.971 Y91.609 E64.40642
G1 X80.013 Y98.651 E64.79258
G1 X79.368 Y98.893 E64.81928
G1 X72.337 Y91.862 E65.20481
G1 X71.704 Y92.116 E65.23126
G1 X78.723 Y99.135 E65.61616
G1 X78.078 Y99.377 E65.64286
G1 X71.071 Y92.369 E66.02713
G1 X70.437 Y92.622 E66.05358
G1 X77.433 Y99.618 E66.43721
G1 X76.788 Y99.860 E66.46392
G1 X69.804 Y92.876 E66.84692
G1 X69.170 Y93.129 E66.87337
G1 X76.144 Y100.102 E67.25574
G1 X75.499 Y100.344 E67.28245
G1 X68.537 Y93.382 E67.66419
G1 X67.904 Y93.636 E67.69064
G1 X74.854 Y100.586 E68.07175
G1 X74.209 Y100.827 E68.09845
G1 X67.270 Y93.889 E68.47893
G1 X66.637 Y94.142 E68.50538
G1 X73.564 Y101.069 E68.88522
G1 X72.919 Y101.311 E68.91193
G1 X66.004 Y94.396 E69.29114
G1 X65.370 Y94.649 E69.31759
G1 X72.274 Y101.553 E69.69617
G1 X71.630 Y101.795 E69.72288
G1 X64.737 Y94.902 E70.10083
G1 X64.104 Y95.156 E70.12728
G1 X70.985 Y102.037 E70.50460
G1 X70.340 Y102.278 E70.53130
G1 X63.470 Y95.409 E70.90799
G1 X62.837 Y95.662 E70.93444
G1 X69.695 Y102.520 E71.31050
G1 X69.050 Y102.762 E71.33720
G1 X62.204 Y95.916 E71.71263
G1 X61.570 Y96.169 E71.73908
G1 X68.405 Y103.004 E72.11387
G1 X67.760 Y103.246 E72.14058
G1 X60.937 Y96.422 E72.51474
G1 X60.304 Y96.676 E72.54119
G1 X67.116 Y103.487 E72.91472
G1 X66.471 Y103.729 E72.94142
G1 X59.670 Y96.929 E73.31432
G1 X59.037 Y97.182 E73.34077
G1 X65.826 Y103.971 E73.71304
G1 X65.181 Y104.213 E73.73975
G1 X58.404 Y97.436 E74.11138
