; generated by Slic3r 0.9.9 on 2013-06-08 at 21:36:27

; layer_height = 0.21
; perimeters = 3
; top_solid_layers = 3
; bottom_solid_layers = 3
; fill_density = 0.2
; perimeter_speed = 35
; infill_speed = 45
; travel_speed = 150
; nozzle_diameter = 0.35
; filament_diameter = 2.8
; extrusion_multiplier = 1.088
; perimeters extrusion width = 0.49mm
; infill extrusion width = 0.49mm
; solid infill extrusion width = 0.49mm
; top infill extrusion width = 0.49mm
; support material extrusion width = 0.49mm
; first layer extrusion width = 0.42mm

G21 ; set units to millimeters
M190 S70 ; wait for bed temperature to be reached
M104 S200 ; set temperature
G28 ; home all axes
M109 S200 ; wait for temperature to be reached
G90 ; use absolute coordinates
G92 E0
M82 ; use absolute distances for extrusion
M106 S331
G1 F600.000 E-1.00000
G92 E0
G1 Z0.210 F9000.000
G1 X63.171 Y75.455
G1 F600.000 E1.00000
G1 X68.402 Y71.654 F840.000 E1.09716
G1 X68.751 Y71.453 E1.10322
G1 X74.658 Y68.823 E1.20039
G1 X75.041 Y68.698 E1.20645
G1 X81.162 Y67.397 E1.30048
G1 X81.406 Y67.153 E1.30567
G1 X88.594 Y67.153 E1.41367
G1 X88.838 Y67.397 E1.41887
G1 X94.959 Y68.698 E1.51290
G1 X95.342 Y68.823 E1.51895
G1 X101.249 Y71.453 E1.61612
G1 X101.598 Y71.654 E1.62218
G1 X106.829 Y75.455 E1.71934
G1 X107.129 Y75.725 E1.72540
G1 X111.456 Y80.530 E1.82256
G1 X111.693 Y80.856 E1.82862
G1 X114.925 Y86.456 E1.92579
G1 X115.089 Y86.824 E1.93185
G1 X117.088 Y92.973 E2.02901
G1 X117.171 Y93.368 E2.03507
G1 X117.449 Y96.008 E2.07496
G1 X117.847 Y96.406 E2.08343
G1 X117.847 Y103.594 E2.19143
G1 X117.449 Y103.992 E2.19990
G1 X117.171 Y106.632 E2.23979
G1 X117.088 Y107.027 E2.24585
G1 X115.089 Y113.176 E2.34301
G1 X114.925 Y113.544 E2.34907
G1 X111.693 Y119.144 E2.44624
G1 X111.456 Y119.470 E2.45230
G1 X107.129 Y124.275 E2.54946
G1 X106.829 Y124.545 E2.55552
G1 X101.598 Y128.346 E2.65268
G1 X101.249 Y128.547 E2.65874
G1 X95.342 Y131.177 E2.75590
G1 X94.959 Y131.302 E2.76196
G1 X88.838 Y132.603 E2.85599
G1 X88.594 Y132.847 E2.86119
G1 X81.406 Y132.847 E2.96919
G1 X81.162 Y132.603 E2.97438
G1 X75.041 Y131.302 E3.06841
G1 X74.658 Y131.177 E3.07447
G1 X68.751 Y128.547 E3.17164
G1 X68.402 Y128.346 E3.17770
G1 X63.171 Y124.545 E3.27486
G1 X62.871 Y124.275 E3.28092
G1 X58.544 Y119.470 E3.37808
G1 X58.307 Y119.144 E3.38414
G1 X55.075 Y113.544 E3.48131
G1 X54.911 Y113.176 E3.48737
G1 X52.912 Y107.027 E3.58453
G1 X52.829 Y106.632 E3.59059
G1 X52.551 Y103.992 E3.63048
G1 X52.153 Y103.594 E3.63895
G1 X52.153 Y96.406 E3.74695
G1 X52.551 Y96.008 E3.75542
G1 X52.829 Y93.368 E3.79531
G1 X52.912 Y92.973 E3.80137
G1 X54.911 Y86.824 E3.89853
G1 X55.075 Y86.456 E3.90459
G1 X58.307 Y80.856 E4.00175
G1 X58.544 Y80.530 E4.00781
G1 X62.871 Y75.725 E4.10498
G1 X63.126 Y75.495 E4.11012
G1 X63.426 Y75.770 F9000.000
G1 X68.623 Y71.994 F840.000 E4.20665
G1 X68.935 Y71.814 E4.21207
G1 X74.803 Y69.201 E4.30860
G1 X75.146 Y69.090 E4.31402
G1 X81.364 Y67.768 E4.40953
G1 X81.574 Y67.558 E4.41401
G1 X88.426 Y67.558 E4.51697
G1 X88.636 Y67.768 E4.52145
G1 X94.854 Y69.090 E4.61696
G1 X95.197 Y69.201 E4.62238
G1 X101.065 Y71.814 E4.71891
G1 X101.377 Y71.994 E4.72433
G1 X106.574 Y75.770 E4.82085
G1 X106.842 Y76.011 E4.82627
G1 X111.140 Y80.785 E4.92280
G1 X111.352 Y81.077 E4.92822
G1 X114.564 Y86.640 E5.02475
G1 X114.711 Y86.969 E5.03017
G1 X116.696 Y93.078 E5.12669
G1 X116.771 Y93.431 E5.13212
G1 X117.061 Y96.193 E5.17385
G1 X117.442 Y96.574 E5.18195
G1 X117.442 Y103.426 E5.28491
G1 X117.061 Y103.807 E5.29301
G1 X116.771 Y106.569 E5.33473
G1 X116.696 Y106.922 E5.34016
G1 X114.711 Y113.031 E5.43668
G1 X114.564 Y113.360 E5.44210
G1 X111.352 Y118.923 E5.53863
G1 X111.140 Y119.215 E5.54405
G1 X106.842 Y123.989 E5.64058
G1 X106.574 Y124.230 E5.64600
G1 X101.377 Y128.006 E5.74252
G1 X101.065 Y128.186 E5.74795
G1 X95.197 Y130.799 E5.84447
G1 X94.854 Y130.910 E5.84989
G1 X88.636 Y132.232 E5.94541
G1 X88.426 Y132.442 E5.94988
G1 X81.574 Y132.442 E6.05284
G1 X81.364 Y132.232 E6.05732
G1 X75.146 Y130.910 E6.15283
G1 X74.803 Y130.799 E6.15825
G1 X68.935 Y128.186 E6.25478
G1 X68.623 Y128.006 E6.26020
G1 X63.426 Y124.230 E6.35673
G1 X63.158 Y123.989 E6.36215
G1 X58.860 Y119.215 E6.45867
G1 X58.648 Y118.923 E6.46410
G1 X55.436 Y113.360 E6.56062
G1 X55.289 Y113.031 E6.56604
G1 X53.304 Y106.922 E6.66257
G1 X53.229 Y106.569 E6.66799
G1 X52.939 Y103.807 E6.70972
G1 X52.558 Y103.426 E6.71782
G1 X52.558 Y96.574 E6.82078
G1 X52.939 Y96.193 E6.82888
G1 X53.229 Y93.431 E6.87061
G1 X53.304 Y93.078 E6.87603
G1 X55.289 Y86.969 E6.97256
G1 X55.436 Y86.640 E6.97798
G1 X58.648 Y81.077 E7.07450
G1 X58.860 Y80.785 E7.07993
G1 X63.158 Y76.011 E7.17645
G1 X63.381 Y75.811 E7.18096
G1 X63.681 Y76.085 F9000.000
G1 X68.843 Y72.334 F840.000 E7.27685
G1 X69.119 Y72.175 E7.28163
G1 X74.949 Y69.580 E7.37752
G1 X75.251 Y69.482 E7.38230
G1 X81.556 Y68.148 E7.47915
G1 X81.742 Y67.963 E7.48309
G1 X88.258 Y67.963 E7.58101
G1 X88.444 Y68.148 E7.58495
G1 X94.749 Y69.482 E7.68179
G1 X95.051 Y69.580 E7.68658
G1 X100.881 Y72.175 E7.78246
G1 X101.157 Y72.334 E7.78725
G1 X106.319 Y76.085 E7.88314
G1 X106.555 Y76.298 E7.88792
G1 X110.825 Y81.040 E7.98381
G1 X111.012 Y81.298 E7.98859
G1 X114.203 Y86.824 E8.08448
G1 X114.332 Y87.115 E8.08926
G1 X116.304 Y93.183 E8.18515
G1 X116.370 Y93.495 E8.18993
G1 X116.673 Y96.378 E8.23350
G1 X117.037 Y96.742 E8.24123
G1 X117.037 Y103.258 E8.33915
G1 X116.673 Y103.622 E8.34689
G1 X116.370 Y106.505 E8.39045
G1 X116.304 Y106.817 E8.39524
G1 X114.332 Y112.885 E8.49112
G1 X114.203 Y113.176 E8.49591
G1 X111.012 Y118.702 E8.59180
G1 X110.825 Y118.960 E8.59658
G1 X106.555 Y123.702 E8.69247
G1 X106.319 Y123.915 E8.69725
G1 X101.157 Y127.666 E8.79314
G1 X100.881 Y127.825 E8.79792
G1 X95.051 Y130.420 E8.89381
G1 X94.749 Y130.518 E8.89859
G1 X88.444 Y131.852 E8.99544
G1 X88.258 Y132.037 E8.99938
G1 X81.742 Y132.037 E9.09730
G1 X81.556 Y131.852 E9.10124
G1 X75.251 Y130.518 E9.19808
G1 X74.949 Y130.420 E9.20287
G1 X69.119 Y127.825 E9.29875
G1 X68.843 Y127.666 E9.30354
G1 X63.681 Y123.915 E9.39943
G1 X63.445 Y123.702 E9.40421
G1 X59.175 Y118.960 E9.50010
G1 X58.988 Y118.702 E9.50488
G1 X55.797 Y113.176 E9.60077
G1 X55.668 Y112.885 E9.60555
G1 X53.696 Y106.817 E9.70144
G1 X53.630 Y106.505 E9.70622
G1 X53.327 Y103.622 E9.74979
G1 X52.963 Y103.258 E9.75752
G1 X52.963 Y96.742 E9.85544
G1 X53.327 Y96.378 E9.86318
G1 X53.630 Y93.495 E9.90674
G1 X53.696 Y93.183 E9.91153
G1 X55.668 Y87.115 E10.00741
G1 X55.797 Y86.824 E10.01220
G1 X58.988 Y81.298 E10.10809
G1 X59.175 Y81.040 E10.11287
G1 X63.445 Y76.298 E10.20876
G1 X63.636 Y76.126 E10.21263
G1 X63.936 Y76.400 F9000.000
G1 X69.064 Y72.675 F840.000 E10.30788
G1 X69.303 Y72.537 E10.31202
G1 X75.094 Y69.959 E10.40727
G1 X75.356 Y69.873 E10.41142
G1 X81.556 Y68.555 E10.50667
G1 X81.741 Y68.536 E10.50947
G1 X81.910 Y68.368 E10.51304
G1 X88.090 Y68.368 E10.60592
G1 X88.259 Y68.536 E10.60950
G1 X88.444 Y68.555 E10.61229
G1 X94.644 Y69.873 E10.70754
G1 X94.906 Y69.959 E10.71169
G1 X100.697 Y72.537 E10.80694
G1 X100.936 Y72.675 E10.81108
G1 X106.064 Y76.400 E10.90633
G1 X106.269 Y76.585 E10.91048
G1 X110.510 Y81.295 E11.00573
G1 X110.672 Y81.519 E11.00988
G1 X113.841 Y87.008 E11.10513
G1 X113.954 Y87.260 E11.10927
G1 X115.912 Y93.288 E11.20452
G1 X115.970 Y93.558 E11.20867
G1 X116.286 Y96.563 E11.25407
G1 X116.632 Y96.910 E11.26144
G1 X116.632 Y103.090 E11.35431
G1 X116.286 Y103.437 E11.36168
G1 X115.970 Y106.442 E11.40708
G1 X115.912 Y106.712 E11.41123
G1 X113.954 Y112.740 E11.50648
G1 X113.841 Y112.992 E11.51063
G1 X110.672 Y118.481 E11.60588
G1 X110.510 Y118.705 E11.61002
G1 X106.269 Y123.415 E11.70527
G1 X106.064 Y123.600 E11.70942
G1 X100.936 Y127.325 E11.80467
G1 X100.697 Y127.463 E11.80881
G1 X94.906 Y130.041 E11.90406
G1 X94.644 Y130.127 E11.90821
G1 X88.444 Y131.445 E12.00346
G1 X88.259 Y131.464 E12.00626
G1 X88.090 Y131.632 E12.00983
G1 X81.910 Y131.632 E12.10271
G1 X81.741 Y131.464 E12.10629
G1 X81.556 Y131.445 E12.10908
G1 X75.356 Y130.127 E12.20433
G1 X75.094 Y130.041 E12.20848
G1 X69.303 Y127.463 E12.30373
G1 X69.064 Y127.325 E12.30787
G1 X63.936 Y123.600 E12.40312
G1 X63.731 Y123.415 E12.40727
G1 X59.490 Y118.705 E12.50252
G1 X59.328 Y118.481 E12.50667
G1 X56.159 Y112.992 E12.60192
G1 X56.046 Y112.740 E12.60606
G1 X54.088 Y106.712 E12.70131
G1 X54.030 Y106.442 E12.70546
G1 X53.714 Y103.437 E12.75086
G1 X53.368 Y103.090 E12.75823
G1 X53.368 Y96.910 E12.85111
G1 X53.714 Y96.563 E12.85847
G1 X54.030 Y93.558 E12.90387
G1 X54.088 Y93.288 E12.90802
G1 X56.046 Y87.260 E13.00327
G1 X56.159 Y87.008 E13.00742
G1 X59.328 Y81.519 E13.10267
G1 X59.490 Y81.295 E13.10681
G1 X63.731 Y76.585 E13.20206
G1 X63.891 Y76.441 E13.20530
G1 X64.192 Y76.715 F9000.000
G1 X69.285 Y73.015 F840.000 E13.29991
G1 X69.487 Y72.898 E13.30342
G1 X75.239 Y70.337 E13.39803
G1 X75.461 Y70.265 E13.40154
G1 X81.620 Y68.956 E13.49615
G1 X81.918 Y68.932 E13.50065
G1 X82.077 Y68.773 E13.50403
G1 X87.923 Y68.773 E13.59187
G1 X88.082 Y68.932 E13.59524
G1 X88.380 Y68.956 E13.59975
G1 X94.539 Y70.265 E13.69436
G1 X94.761 Y70.337 E13.69787
G1 X100.513 Y72.898 E13.79248
G1 X100.715 Y73.015 E13.79599
G1 X105.808 Y76.715 E13.89060
G1 X105.982 Y76.872 E13.89411
G1 X110.195 Y81.551 E13.98872
G1 X110.332 Y81.739 E13.99223
G1 X113.480 Y87.192 E14.08684
G1 X113.575 Y87.405 E14.09035
G1 X115.521 Y93.393 E14.18496
G1 X115.569 Y93.622 E14.18847
G1 X115.898 Y96.748 E14.23570
G1 X116.227 Y97.077 E14.24271
G1 X116.227 Y102.923 E14.33054
G1 X115.898 Y103.252 E14.33755
G1 X115.569 Y106.378 E14.38478
G1 X115.521 Y106.607 E14.38829
G1 X113.575 Y112.595 E14.48290
G1 X113.480 Y112.808 E14.48641
G1 X110.332 Y118.261 E14.58102
G1 X110.195 Y118.449 E14.58453
G1 X105.982 Y123.128 E14.67914
G1 X105.808 Y123.285 E14.68265
G1 X100.715 Y126.985 E14.77726
G1 X100.513 Y127.102 E14.78077
G1 X94.761 Y129.663 E14.87538
G1 X94.539 Y129.735 E14.87889
G1 X88.380 Y131.044 E14.97350
G1 X88.082 Y131.068 E14.97801
G1 X87.923 Y131.227 E14.98139
G1 X82.077 Y131.227 E15.06922
G1 X81.918 Y131.068 E15.07260
G1 X81.620 Y131.044 E15.07710
G1 X75.461 Y129.735 E15.17171
G1 X75.239 Y129.663 E15.17522
G1 X69.487 Y127.102 E15.26983
G1 X69.285 Y126.985 E15.27334
G1 X64.192 Y123.285 E15.36795
G1 X64.018 Y123.128 E15.37146
G1 X59.805 Y118.449 E15.46607
G1 X59.668 Y118.261 E15.46958
G1 X56.520 Y112.808 E15.56419
G1 X56.425 Y112.595 E15.56770
G1 X54.479 Y106.607 E15.66232
G1 X54.431 Y106.378 E15.66582
G1 X54.102 Y103.252 E15.71306
G1 X53.773 Y102.923 E15.72006
G1 X53.773 Y97.077 E15.80790
G1 X54.102 Y96.748 E15.81490
G1 X54.431 Y93.622 E15.86214
G1 X54.479 Y93.393 E15.86565
G1 X56.425 Y87.405 E15.96026
G1 X56.520 Y87.192 E15.96377
G1 X59.668 Y81.739 E16.05838
G1 X59.805 Y81.551 E16.06189
G1 X64.018 Y76.872 E16.15650
G1 X64.146 Y76.756 E16.15910
G1 X64.447 Y77.031 F9000.000
G1 X69.506 Y73.355 F840.000 E16.25307
G1 X69.672 Y73.259 E16.25594
G1 X75.385 Y70.716 E16.34991
G1 X75.566 Y70.657 E16.35278
G1 X81.683 Y69.356 E16.44676
G1 X82.086 Y69.337 E16.45282
G1 X82.245 Y69.178 E16.45620
G1 X87.755 Y69.178 E16.53899
G1 X87.914 Y69.337 E16.54237
G1 X88.317 Y69.356 E16.54844
G1 X94.434 Y70.657 E16.64241
G1 X94.615 Y70.716 E16.64528
G1 X100.328 Y73.259 E16.73925
G1 X100.494 Y73.355 E16.74212
G1 X105.553 Y77.031 E16.83610
G1 X105.695 Y77.158 E16.83897
G1 X109.880 Y81.806 E16.93294
G1 X109.992 Y81.960 E16.93581
G1 X113.119 Y87.376 E17.02979
G1 X113.196 Y87.551 E17.03266
G1 X115.129 Y93.498 E17.12663
G1 X115.169 Y93.685 E17.12950
G1 X115.510 Y96.933 E17.17857
G1 X115.822 Y97.245 E17.18521
G1 X115.822 Y102.755 E17.26801
G1 X115.510 Y103.067 E17.27464
G1 X115.169 Y106.315 E17.32372
G1 X115.129 Y106.502 E17.32659
G1 X113.196 Y112.449 E17.42056
G1 X113.119 Y112.624 E17.42343
G1 X109.992 Y118.040 E17.51741
G1 X109.880 Y118.194 E17.52028
G1 X105.695 Y122.842 E17.61425
G1 X105.553 Y122.969 E17.61712
G1 X100.494 Y126.645 E17.71109
G1 X100.328 Y126.741 E17.71397
G1 X94.615 Y129.284 E17.80794
G1 X94.434 Y129.343 E17.81081
G1 X88.317 Y130.644 E17.90478
G1 X87.914 Y130.663 E17.91085
G1 X87.755 Y130.822 E17.91422
G1 X82.245 Y130.822 E17.99702
G1 X82.086 Y130.663 E18.00040
G1 X81.683 Y130.644 E18.00646
G1 X75.566 Y129.343 E18.10043
G1 X75.385 Y129.284 E18.10330
G1 X69.672 Y126.741 E18.19728
G1 X69.506 Y126.645 E18.20015
G1 X64.447 Y122.969 E18.29412
G1 X64.305 Y122.842 E18.29699
G1 X60.120 Y118.194 E18.39097
G1 X60.008 Y118.040 E18.39384
G1 X56.881 Y112.624 E18.48781
G1 X56.804 Y112.449 E18.49068
G1 X54.871 Y106.502 E18.58466
G1 X54.831 Y106.315 E18.58753
G1 X54.490 Y103.067 E18.63660
G1 X54.178 Y102.755 E18.64324
G1 X54.178 Y97.245 E18.72603
G1 X54.490 Y96.933 E18.73267
G1 X54.831 Y93.685 E18.78174
G1 X54.871 Y93.498 E18.78461
G1 X56.804 Y87.551 E18.87859
G1 X56.881 Y87.376 E18.88146
G1 X60.008 Y81.960 E18.97543
G1 X60.120 Y81.806 E18.97830
G1 X64.305 Y77.158 E19.07228
G1 X64.402 Y77.071 E19.07423
G1 X64.702 Y77.346 F9000.000
G1 X69.727 Y73.695 F840.000 E19.16757
G1 X69.856 Y73.621 E19.16980
G1 X75.530 Y71.094 E19.26314
G1 X75.671 Y71.048 E19.26537
G1 X81.747 Y69.757 E19.35871
G1 X82.254 Y69.741 E19.36633
G1 X82.413 Y69.583 E19.36971
G1 X87.587 Y69.583 E19.44746
G1 X87.746 Y69.741 E19.45084
G1 X88.253 Y69.757 E19.45847
G1 X94.329 Y71.048 E19.55181
G1 X94.470 Y71.094 E19.55404
G1 X100.144 Y73.621 E19.64737
G1 X100.273 Y73.695 E19.64961
G1 X105.298 Y77.346 E19.74294
G1 X105.408 Y77.445 E19.74518
G1 X109.565 Y82.061 E19.83851
G1 X109.652 Y82.181 E19.84074
G1 X112.757 Y87.560 E19.93408
G1 X112.818 Y87.696 E19.93631
G1 X114.737 Y93.603 E20.02965
G1 X114.768 Y93.749 E20.03188
G1 X115.122 Y97.118 E20.08279
G1 X115.417 Y97.413 E20.08906
G1 X115.417 Y102.587 E20.16682
G1 X115.122 Y102.882 E20.17309
G1 X114.768 Y106.251 E20.22400
G1 X114.737 Y106.397 E20.22623
G1 X112.818 Y112.304 E20.31957
G1 X112.757 Y112.440 E20.32180
G1 X109.652 Y117.819 E20.41513
G1 X109.565 Y117.939 E20.41737
G1 X105.408 Y122.555 E20.51070
G1 X105.298 Y122.654 E20.51293
G1 X100.273 Y126.305 E20.60627
G1 X100.144 Y126.379 E20.60850
G1 X94.470 Y128.906 E20.70184
G1 X94.329 Y128.952 E20.70407
G1 X88.253 Y130.243 E20.79741
G1 X87.746 Y130.259 E20.80504
G1 X87.587 Y130.417 E20.80841
G1 X82.413 Y130.417 E20.88617
G1 X82.254 Y130.259 E20.88954
G1 X81.747 Y130.243 E20.89717
G1 X75.671 Y128.952 E20.99051
G1 X75.530 Y128.906 E20.99274
G1 X69.856 Y126.379 E21.08608
G1 X69.727 Y126.305 E21.08831
G1 X64.702 Y122.654 E21.18164
G1 X64.592 Y122.555 E21.18388
G1 X60.435 Y117.939 E21.27721
G1 X60.348 Y117.819 E21.27944
G1 X57.243 Y112.440 E21.37278
G1 X57.182 Y112.304 E21.37501
G1 X55.263 Y106.397 E21.46835
G1 X55.232 Y106.251 E21.47058
G1 X54.878 Y102.882 E21.52149
G1 X54.583 Y102.587 E21.52776
G1 X54.583 Y97.413 E21.60552
G1 X54.878 Y97.118 E21.61179
G1 X55.232 Y93.749 E21.66270
G1 X55.263 Y93.603 E21.66493
G1 X57.182 Y87.696 E21.75827
G1 X57.243 Y87.560 E21.76050
G1 X60.348 Y82.181 E21.85383
G1 X60.435 Y82.061 E21.85607
G1 X64.657 Y77.386 E21.95072
G1 X64.957 Y77.661 F9000.000
G1 X69.948 Y74.035 F840.000 E22.04341
G1 X75.675 Y71.473 E22.13770
G1 X81.810 Y70.158 E22.23198
G1 X82.422 Y70.146 E22.24118
G1 X82.581 Y69.988 E22.24455
G1 X87.419 Y69.988 E22.31726
G1 X87.578 Y70.146 E22.32064
G1 X88.190 Y70.158 E22.32983
G1 X94.224 Y71.440 E22.42253
G1 X99.960 Y73.982 E22.51682
G1 X105.043 Y77.661 E22.61110
G1 X109.249 Y82.316 E22.70539
G1 X112.396 Y87.744 E22.79967
G1 X114.346 Y93.708 E22.89395
G1 X114.735 Y97.303 E22.94829
G1 X115.012 Y97.581 E22.95419
G1 X115.012 Y102.419 E23.02690
G1 X114.735 Y102.697 E23.03281
G1 X114.346 Y106.292 E23.08714
G1 X112.396 Y112.256 E23.18143
G1 X109.249 Y117.684 E23.27571
G1 X105.043 Y122.339 E23.36999
G1 X100.052 Y125.965 E23.46269
G1 X94.325 Y128.527 E23.55698
G1 X88.190 Y129.842 E23.65126
G1 X87.578 Y129.854 E23.66045
G1 X87.419 Y130.012 E23.66383
G1 X82.581 Y130.012 E23.73654
G1 X82.422 Y129.854 E23.73992
G1 X81.810 Y129.842 E23.74911
G1 X75.776 Y128.560 E23.84181
G1 X70.040 Y126.018 E23.93610
G1 X64.957 Y122.339 E24.03038
G1 X60.751 Y117.684 E24.12466
G1 X57.604 Y112.256 E24.21895
G1 X55.654 Y106.292 E24.31323
G1 X55.265 Y102.697 E24.36756
G1 X54.988 Y102.419 E24.37347
G1 X54.988 Y97.581 E24.44618
