; generated by Slic3r 0.9.9 on 2013-06-09 at 12:18:55

; layer_height = 0.21
; perimeters = 3
; top_solid_layers = 3
; bottom_solid_layers = 3
; fill_density = 0.2
; perimeter_speed = 35
; infill_speed = 45
; travel_speed = 150
; nozzle_diameter = 0.35
; filament_diameter = 2.8
; extrusion_multiplier = 1.088
; perimeters extrusion width = 0.49mm
; infill extrusion width = 0.49mm
; solid infill extrusion width = 0.49mm
; top infill extrusion width = 0.49mm
; first layer extrusion width = 0.42mm

G21 ; set units to millimeters
M190 S70 ; wait for bed temperature to be reached
M104 S200 ; set temperature
G28 ; home all axes
M109 S200 ; wait for temperature to be reached
G90 ; use absolute coordinates
G92 E0
M82 ; use absolute distances for extrusion
M106 S331
G1 F600.000 E-1.00000
G92 E0
G1 Z0.210 F9000.000
G1 X56.348 Y41.241
G1 F600.000 E1.00000
G1 X56.963 Y40.422 F840.000 E1.01539
G1 X57.600 Y39.620 E1.03077
G1 X58.224 Y38.879 E1.04533
G1 X58.905 Y38.115 E1.06071
G1 X59.607 Y37.370 E1.07610
G1 X60.370 Y36.607 E1.09231
G1 X61.115 Y35.905 E1.10769
G1 X61.879 Y35.224 E1.12308
G1 X62.663 Y34.565 E1.13846
G1 X63.422 Y33.963 E1.15302
G1 X64.285 Y33.316 E1.16922
G1 X65.122 Y32.727 E1.18461
G1 X65.930 Y32.192 E1.19917
G1 X66.798 Y31.650 E1.21455
G1 X67.682 Y31.133 E1.22994
G1 X68.580 Y30.642 E1.24532
G1 X69.492 Y30.176 E1.26071
G1 X70.467 Y29.714 E1.27691
G1 X71.405 Y29.303 E1.29230
G1 X72.302 Y28.938 E1.30686
G1 X73.261 Y28.580 E1.32224
G1 X74.230 Y28.249 E1.33763
G1 X75.260 Y27.930 E1.35384
G1 X76.247 Y27.657 E1.36922
G1 X77.241 Y27.411 E1.38461
G1 X78.241 Y27.195 E1.39999
G1 X79.193 Y27.016 E1.41455
G1 X80.204 Y26.855 E1.42993
G1 X81.220 Y26.723 E1.44532
G1 X82.238 Y26.620 E1.46070
G1 X83.314 Y26.543 E1.47691
G1 X84.337 Y26.500 E1.49229
G1 X85.306 Y26.486 E1.50685
G1 X86.329 Y26.500 E1.52223
G1 X87.353 Y26.543 E1.53762
G1 X88.428 Y26.620 E1.55383
G1 X89.424 Y26.720 E1.56886
G1 X90.406 Y26.847 E1.58374
G1 X91.419 Y27.006 E1.59916
G1 X92.425 Y27.195 E1.61454
G1 X93.479 Y27.424 E1.63075
G1 X94.473 Y27.671 E1.64613
G1 X95.459 Y27.946 E1.66152
G1 X96.437 Y28.249 E1.67690
G1 X97.354 Y28.562 E1.69146
G1 X98.313 Y28.919 E1.70685
G1 X99.313 Y29.324 E1.72305
G1 X100.250 Y29.737 E1.73844
G1 X101.174 Y30.176 E1.75382
G1 X102.038 Y30.616 E1.76838
G1 X102.937 Y31.106 E1.78377
G1 X103.868 Y31.650 E1.79998
G1 X104.737 Y32.192 E1.81536
G1 X105.590 Y32.758 E1.83075
G1 X106.426 Y33.348 E1.84613
G1 X107.202 Y33.929 E1.86068
G1 X108.004 Y34.565 E1.87607
G1 X108.829 Y35.260 E1.89228
G1 X109.593 Y35.942 E1.90766
G1 X110.297 Y36.607 E1.92222
G1 X111.021 Y37.330 E1.93761
G1 X111.746 Y38.098 E1.95347
G1 X112.443 Y38.879 E1.96919
G1 X113.067 Y39.620 E1.98376
G1 X113.704 Y40.422 E1.99914
G1 X114.318 Y41.241 E2.01453
G1 X114.940 Y42.122 E2.03074
G1 X115.505 Y42.976 E2.04612
G1 X116.045 Y43.845 E2.06150
G1 X116.534 Y44.682 E2.07606
G1 X117.015 Y45.561 E2.09112
G1 X117.490 Y46.491 E2.10681
G1 X117.953 Y47.467 E2.12304
G1 X118.364 Y48.405 E2.13843
G1 X118.748 Y49.353 E2.15381
G1 X119.087 Y50.261 E2.16837
G1 X119.418 Y51.230 E2.18375
G1 X119.721 Y52.208 E2.19914
G1 X119.996 Y53.194 E2.21452
G1 X120.243 Y54.187 E2.22990
G1 X120.472 Y55.241 E2.24611
G1 X120.660 Y56.248 E2.26150
G1 X120.816 Y57.236 E2.27653
G1 X120.944 Y58.218 E2.29141
G1 X121.047 Y59.238 E2.30682
G1 X121.121 Y60.259 E2.32221
G1 X121.165 Y61.282 E2.33759
G1 X121.181 Y62.361 E2.35380
G1 X121.167 Y63.329 E2.36836
G1 X121.124 Y64.353 E2.38375
G1 X121.051 Y65.374 E2.39913
G1 X120.950 Y66.392 E2.41451
G1 X120.812 Y67.462 E2.43072
G1 X120.651 Y68.473 E2.44611
G1 X120.461 Y69.479 E2.46149
G1 X120.255 Y70.426 E2.47605
G1 X120.010 Y71.420 E2.49143
G1 X119.736 Y72.406 E2.50682
G1 X119.435 Y73.385 E2.52220
G1 X119.087 Y74.406 E2.53841
G1 X118.728 Y75.364 E2.55379
G1 X118.342 Y76.313 E2.56918
G1 X117.930 Y77.250 E2.58457
G1 X117.514 Y78.126 E2.59913
G1 X117.040 Y79.058 E2.61485
G1 X116.561 Y79.937 E2.62989
G1 X116.017 Y80.868 E2.64610
G1 X115.475 Y81.737 E2.66148
G1 X114.909 Y82.590 E2.67687
G1 X114.318 Y83.426 E2.69225
G1 X113.704 Y84.245 E2.70764
G1 X113.102 Y85.004 E2.72220
G1 X112.443 Y85.787 E2.73758
G1 X111.725 Y86.593 E2.75379
G1 X111.021 Y87.336 E2.76917
G1 X110.297 Y88.060 E2.78456
G1 X109.552 Y88.762 E2.79994
G1 X108.829 Y89.407 E2.81450
G1 X108.046 Y90.067 E2.82988
G1 X107.245 Y90.704 E2.84527
G1 X106.426 Y91.318 E2.86065
G1 X105.590 Y91.909 E2.87603
G1 X104.691 Y92.505 E2.89225
G1 X103.821 Y93.045 E2.90763
G1 X102.937 Y93.561 E2.92301
G1 X102.038 Y94.051 E2.93840
G1 X101.174 Y94.491 E2.95296
G1 X100.250 Y94.930 E2.96834
G1 X99.313 Y95.342 E2.98373
G1 X98.313 Y95.748 E2.99993
G1 X97.354 Y96.105 E3.01532
G1 X96.437 Y96.418 E3.02988
G1 X95.459 Y96.721 E3.04526
G1 X94.474 Y96.996 E3.06063
G1 X95.971 Y97.401 E3.08394
G1 X96.978 Y97.712 E3.09979
G1 X98.029 Y98.069 E3.11646
G1 X99.069 Y98.456 E3.13313
G1 X100.097 Y98.873 E3.14980
G1 X101.163 Y99.341 E3.16730
G1 X102.165 Y99.817 E3.18396
G1 X103.104 Y100.296 E3.19981
G1 X104.127 Y100.854 E3.21732
G1 X105.037 Y101.386 E3.23316
G1 X105.979 Y101.971 E3.24983
G1 X106.904 Y102.584 E3.26650
G1 X107.812 Y103.222 E3.28317
G1 X108.738 Y103.916 E3.30056
G1 X109.569 Y104.576 E3.31651
G1 X110.419 Y105.290 E3.33319
G1 X111.247 Y106.028 E3.34986
G1 X112.054 Y106.789 E3.36653
G1 X112.878 Y107.612 E3.38403
G1 X113.639 Y108.419 E3.40070
G1 X114.377 Y109.248 E3.41737
G1 X115.091 Y110.097 E3.43404
G1 X115.746 Y110.923 E3.44989
G1 X116.444 Y111.855 E3.46739
G1 X117.083 Y112.762 E3.48406
G1 X117.695 Y113.687 E3.50073
G1 X118.281 Y114.630 E3.51740
G1 X118.840 Y115.588 E3.53407
G1 X119.371 Y116.562 E3.55075
G1 X119.849 Y117.502 E3.56659
G1 X120.325 Y118.504 E3.58326
G1 X120.772 Y119.519 E3.59993
G1 X121.210 Y120.598 E3.61743
G1 X121.597 Y121.638 E3.63410
G1 X121.938 Y122.636 E3.64995
G1 X122.264 Y123.689 E3.66651
G1 X122.564 Y124.764 E3.68329
G1 X122.844 Y125.895 E3.70079
G1 X123.079 Y126.979 E3.71746
G1 X123.274 Y128.015 E3.73331
G1 X123.456 Y129.165 E3.75080
G1 X123.659 Y130.885 E3.77683
G1 X123.847 Y131.073 E3.78082
G1 X123.847 Y138.260 E3.88882
G1 X123.659 Y138.448 E3.89282
G1 X123.448 Y140.222 E3.91967
G1 X123.274 Y141.318 E3.93634
G1 X123.079 Y142.355 E3.95219
G1 X122.842 Y143.446 E3.96897
G1 X122.564 Y144.569 E3.98635
G1 X122.266 Y145.638 E4.00302
G1 X121.954 Y146.645 E4.01887
G1 X121.597 Y147.695 E4.03554
G1 X121.190 Y148.786 E4.05304
G1 X120.772 Y149.814 E4.06971
G1 X120.325 Y150.829 E4.08638
G1 X119.849 Y151.831 E4.10305
G1 X119.345 Y152.820 E4.11973
G1 X118.813 Y153.793 E4.13640
G1 X118.281 Y154.704 E4.15224
G1 X117.695 Y155.646 E4.16891
G1 X117.083 Y156.571 E4.18559
G1 X116.412 Y157.523 E4.20308
G1 X115.746 Y158.410 E4.21976
G1 X115.056 Y159.279 E4.23643
G1 X114.341 Y160.127 E4.25310
G1 X113.639 Y160.914 E4.26894
G1 X112.839 Y161.760 E4.28644
G1 X112.054 Y162.544 E4.30311
G1 X111.247 Y163.306 E4.31978
G1 X110.419 Y164.043 E4.33645
G1 X109.612 Y164.723 E4.35230
G1 X108.744 Y165.413 E4.36897
G1 X107.856 Y166.079 E4.38565
G1 X106.904 Y166.749 E4.40314
G1 X105.979 Y167.362 E4.41982
G1 X105.037 Y167.948 E4.43648
G1 X104.127 Y168.479 E4.45233
G1 X103.153 Y169.012 E4.46900
G1 X102.165 Y169.516 E4.48568
G1 X101.113 Y170.015 E4.50317
G1 X100.097 Y170.460 E4.51984
G1 X99.069 Y170.877 E4.53651
G1 X98.081 Y171.246 E4.55236
G1 X97.031 Y171.604 E4.56903
G1 X95.971 Y171.933 E4.58570
G1 X94.902 Y172.231 E4.60238
G1 X93.826 Y172.498 E4.61905
G1 X92.688 Y172.746 E4.63654
G1 X91.597 Y172.950 E4.65322
G1 X90.556 Y173.115 E4.66906
G1 X88.782 Y173.326 E4.69591
G1 X88.594 Y173.514 E4.69991
G1 X81.406 Y173.514 E4.80791
G1 X81.218 Y173.326 E4.81190
G1 X79.498 Y173.122 E4.83793
G1 X78.403 Y172.950 E4.85459
G1 X77.312 Y172.746 E4.87127
G1 X76.228 Y172.511 E4.88794
G1 X75.097 Y172.231 E4.90544
G1 X74.075 Y171.946 E4.92139
G1 X73.022 Y171.621 E4.93796
G1 X71.919 Y171.246 E4.95545
G1 X70.880 Y170.857 E4.97213
G1 X69.903 Y170.460 E4.98797
G1 X68.837 Y169.992 E5.00547
G1 X67.835 Y169.516 E5.02213
G1 X66.847 Y169.012 E5.03881
G1 X65.921 Y168.506 E5.05466
G1 X64.963 Y167.948 E5.07133
G1 X63.974 Y167.332 E5.08883
G1 X63.050 Y166.719 E5.10550
G1 X62.188 Y166.111 E5.12134
G1 X61.294 Y165.442 E5.13813
G1 X60.430 Y164.757 E5.15469
G1 X59.581 Y164.043 E5.17136
G1 X58.753 Y163.306 E5.18803
G1 X57.906 Y162.506 E5.20553
G1 X57.122 Y161.721 E5.22220
G1 X56.398 Y160.954 E5.23804
G1 X55.659 Y160.127 E5.25471
G1 X54.944 Y159.279 E5.27139
G1 X54.216 Y158.361 E5.28899
G1 X53.556 Y157.478 E5.30556
G1 X52.917 Y156.571 E5.32223
G1 X52.305 Y155.646 E5.33890
G1 X51.747 Y154.751 E5.35475
G1 X51.187 Y153.793 E5.37141
G1 X50.655 Y152.820 E5.38809
G1 X50.151 Y151.831 E5.40476
G1 X49.675 Y150.829 E5.42143
G1 X49.206 Y149.763 E5.43893
G1 X48.790 Y148.735 E5.45560
G1 X48.403 Y147.695 E5.47227
G1 X48.046 Y146.645 E5.48894
G1 X47.734 Y145.638 E5.50479
G1 X47.436 Y144.569 E5.52146
G1 X47.169 Y143.492 E5.53813
G1 X46.921 Y142.354 E5.55563
G1 X46.726 Y141.318 E5.57148
G1 X46.552 Y140.222 E5.58815
G1 X46.341 Y138.448 E5.61500
G1 X46.153 Y138.260 E5.61899
G1 X46.153 Y131.073 E5.72699
G1 X46.341 Y130.885 E5.73099
G1 X46.544 Y129.165 E5.75701
G1 X46.717 Y128.070 E5.77368
G1 X46.921 Y126.979 E5.79035
G1 X47.156 Y125.895 E5.80703
G1 X47.436 Y124.765 E5.82452
G1 X47.734 Y123.696 E5.84119
G1 X48.046 Y122.688 E5.85704
G1 X48.421 Y121.586 E5.87454
G1 X48.810 Y120.547 E5.89121
G1 X49.228 Y119.519 E5.90788
G1 X49.675 Y118.504 E5.92455
G1 X50.151 Y117.502 E5.94122
G1 X50.655 Y116.514 E5.95790
G1 X51.187 Y115.540 E5.97457
G1 X51.719 Y114.629 E5.99041
G1 X52.305 Y113.687 E6.00708
G1 X52.917 Y112.762 E6.02376
G1 X53.556 Y111.855 E6.04043
G1 X54.254 Y110.923 E6.05793
G1 X54.944 Y110.054 E6.07460
G1 X55.659 Y109.206 E6.09127
G1 X56.398 Y108.379 E6.10794
G1 X57.161 Y107.573 E6.12461
G1 X57.946 Y106.789 E6.14128
G1 X58.712 Y106.065 E6.15713
G1 X59.540 Y105.326 E6.17380
G1 X60.388 Y104.611 E6.19047
G1 X61.300 Y103.887 E6.20797
G1 X62.188 Y103.222 E6.22464
G1 X63.096 Y102.584 E6.24131
G1 X64.021 Y101.971 E6.25799
G1 X64.916 Y101.414 E6.27383
G1 X65.873 Y100.854 E6.29050
G1 X66.847 Y100.322 E6.30717
G1 X67.884 Y99.793 E6.32467
G1 X68.837 Y99.341 E6.34052
G1 X69.853 Y98.894 E6.35719
G1 X70.880 Y98.476 E6.37386
G1 X71.919 Y98.088 E6.39053
G1 X72.969 Y97.729 E6.40720
G1 X74.022 Y97.403 E6.42377
G1 X75.097 Y97.103 E6.44054
G1 X75.879 Y96.908 E6.45264
G1 X74.282 Y96.435 E6.47767
G1 X73.313 Y96.105 E6.49306
G1 X72.353 Y95.748 E6.50844
G1 X71.405 Y95.364 E6.52382
G1 X70.467 Y94.953 E6.53921
G1 X69.541 Y94.514 E6.55460
G1 X68.609 Y94.040 E6.57032
G1 X67.730 Y93.561 E6.58536
G1 X66.845 Y93.045 E6.60075
G1 X65.930 Y92.475 E6.61695
G1 X65.077 Y91.909 E6.63234
G1 X64.241 Y91.318 E6.64772
G1 X63.422 Y90.704 E6.66311
G1 X62.620 Y90.067 E6.67849
G1 X61.836 Y89.406 E6.69390
G1 X61.058 Y88.710 E6.70959
G1 X60.330 Y88.021 E6.72464
G1 X59.645 Y87.336 E6.73920
G1 X58.942 Y86.593 E6.75459
G1 X58.260 Y85.829 E6.76997
G1 X57.600 Y85.046 E6.78535
G1 X56.963 Y84.245 E6.80074
G1 X56.348 Y83.426 E6.81612
G1 X55.758 Y82.590 E6.83150
G1 X55.192 Y81.737 E6.84689
G1 X54.650 Y80.868 E6.86227
G1 X54.133 Y79.985 E6.87766
G1 X53.642 Y79.086 E6.89304
G1 X53.176 Y78.174 E6.90843
G1 X52.737 Y77.250 E6.92381
G1 X52.324 Y76.313 E6.93920
G1 X51.938 Y75.364 E6.95458
G1 X51.562 Y74.354 E6.97079
G1 X51.232 Y73.385 E6.98617
G1 X50.930 Y72.406 E7.00156
G1 X50.657 Y71.420 E7.01694
G1 X50.411 Y70.426 E7.03233
G1 X50.195 Y69.425 E7.04771
G1 X50.006 Y68.419 E7.06309
G1 X49.847 Y67.406 E7.07851
G1 X49.714 Y66.370 E7.09419
G1 X49.615 Y65.374 E7.10925
G1 X49.546 Y64.407 E7.12380
G1 X49.501 Y63.384 E7.13919
G1 X49.486 Y62.361 E7.15457
G1 X49.500 Y61.337 E7.16996
G1 X49.543 Y60.314 E7.18534
G1 X49.615 Y59.293 E7.20072
G1 X49.717 Y58.274 E7.21611
G1 X49.847 Y57.259 E7.23149
G1 X50.006 Y56.248 E7.24688
G1 X50.205 Y55.188 E7.26308
G1 X50.424 Y54.187 E7.27847
G1 X50.671 Y53.194 E7.29385
G1 X50.946 Y52.208 E7.30924
G1 X51.249 Y51.230 E7.32462
G1 X51.580 Y50.261 E7.34001
G1 X51.938 Y49.302 E7.35539
G1 X52.324 Y48.354 E7.37077
G1 X52.737 Y47.417 E7.38616
G1 X53.176 Y46.492 E7.40154
G1 X53.642 Y45.580 E7.41693
G1 X54.133 Y44.682 E7.43231
G1 X54.650 Y43.798 E7.44770
G1 X55.192 Y42.930 E7.46308
G1 X55.727 Y42.122 E7.47764
G1 X56.313 Y41.290 E7.49293
G1 X56.646 Y41.521 F9000.000
G1 X57.281 Y40.671 F840.000 E7.50888
G1 X57.912 Y39.879 E7.52409
G1 X58.564 Y39.105 E7.53930
G1 X59.205 Y38.386 E7.55377
G1 X59.899 Y37.650 E7.56898
G1 X60.615 Y36.934 E7.58419
G1 X61.386 Y36.205 E7.60014
G1 X62.142 Y35.532 E7.61535
G1 X62.917 Y34.880 E7.63056
G1 X63.671 Y34.281 E7.64504
G1 X64.481 Y33.674 E7.66025
G1 X65.348 Y33.063 E7.67619
G1 X66.192 Y32.504 E7.69140
G1 X67.010 Y31.995 E7.70588
G1 X67.884 Y31.484 E7.72108
G1 X68.772 Y30.998 E7.73630
G1 X69.674 Y30.538 E7.75151
G1 X70.632 Y30.084 E7.76745
G1 X71.560 Y29.677 E7.78267
G1 X72.452 Y29.315 E7.79714
G1 X73.400 Y28.961 E7.81235
G1 X74.358 Y28.633 E7.82756
G1 X75.324 Y28.334 E7.84277
G1 X76.347 Y28.049 E7.85872
G1 X77.330 Y27.806 E7.87393
G1 X78.271 Y27.602 E7.88840
G1 X79.265 Y27.414 E7.90361
G1 X80.265 Y27.255 E7.91882
G1 X81.269 Y27.125 E7.93403
G1 X82.276 Y27.023 E7.94924
G1 X83.334 Y26.947 E7.96519
G1 X84.346 Y26.905 E7.98040
G1 X85.309 Y26.891 E7.99487
G1 X86.321 Y26.905 E8.01008
G1 X87.332 Y26.947 E8.02530
G1 X88.391 Y27.023 E8.04124
G1 X89.375 Y27.123 E8.05611
G1 X90.351 Y27.248 E8.07090
G1 X91.353 Y27.406 E8.08614
G1 X92.396 Y27.602 E8.10208
G1 X93.385 Y27.818 E8.11729
G1 X94.367 Y28.062 E8.13250
G1 X95.342 Y28.334 E8.14771
G1 X96.262 Y28.618 E8.16219
G1 X97.221 Y28.944 E8.17740
G1 X98.169 Y29.297 E8.19261
G1 X99.153 Y29.696 E8.20855
G1 X100.079 Y30.104 E8.22377
G1 X100.949 Y30.517 E8.23824
G1 X101.851 Y30.975 E8.25344
G1 X102.740 Y31.460 E8.26866
G1 X103.615 Y31.970 E8.28387
G1 X104.516 Y32.531 E8.29982
G1 X105.359 Y33.091 E8.31503
G1 X106.146 Y33.646 E8.32950
G1 X106.957 Y34.251 E8.34471
G1 X107.750 Y34.880 E8.35992
G1 X108.562 Y35.564 E8.37587
G1 X109.317 Y36.238 E8.39108
G1 X110.017 Y36.899 E8.40555
G1 X110.733 Y37.615 E8.42076
G1 X111.446 Y38.370 E8.43636
G1 X112.135 Y39.142 E8.45191
G1 X112.786 Y39.917 E8.46713
G1 X113.415 Y40.710 E8.48234
G1 X114.021 Y41.521 E8.49755
G1 X114.576 Y42.308 E8.51202
G1 X115.136 Y43.151 E8.52723
G1 X115.697 Y44.052 E8.54318
G1 X116.207 Y44.926 E8.55839
G1 X116.680 Y45.795 E8.57326
G1 X117.128 Y46.672 E8.58805
G1 X117.563 Y47.588 E8.60328
G1 X117.971 Y48.514 E8.61849
G1 X118.370 Y49.497 E8.63444
G1 X118.723 Y50.446 E8.64965
G1 X119.033 Y51.358 E8.66412
G1 X119.333 Y52.324 E8.67933
G1 X119.605 Y53.300 E8.69455
G1 X119.849 Y54.282 E8.70976
G1 X120.065 Y55.271 E8.72497
G1 X120.252 Y56.265 E8.74018
G1 X120.408 Y57.243 E8.75506
G1 X120.542 Y58.267 E8.77057
G1 X120.648 Y59.325 E8.78655
G1 X120.719 Y60.334 E8.80175
G1 X120.761 Y61.297 E8.81623
G1 X120.776 Y62.309 E8.83144
G1 X120.762 Y63.321 E8.84665
G1 X120.719 Y64.332 E8.86186
G1 X120.648 Y65.342 E8.87707
G1 X120.542 Y66.398 E8.89302
G1 X120.411 Y67.402 E8.90823
G1 X120.261 Y68.353 E8.92270
G1 X120.075 Y69.348 E8.93791
G1 X119.860 Y70.337 E8.95312
G1 X119.617 Y71.320 E8.96833
G1 X119.347 Y72.295 E8.98354
G1 X119.033 Y73.309 E8.99949
G1 X118.706 Y74.267 E9.01470
G1 X118.352 Y75.215 E9.02991
G1 X117.971 Y76.153 E9.04512
G1 X117.583 Y77.034 E9.05960
G1 X117.150 Y77.950 E9.07481
G1 X116.680 Y78.871 E9.09036
G1 X116.207 Y79.740 E9.10523
G1 X115.697 Y80.615 E9.12044
G1 X115.163 Y81.474 E9.13565
G1 X114.604 Y82.318 E9.15086
G1 X114.021 Y83.146 E9.16607
G1 X113.415 Y83.957 E9.18127
G1 X112.786 Y84.750 E9.19649
G1 X112.135 Y85.524 E9.21170
G1 X111.429 Y86.317 E9.22765
G1 X110.733 Y87.052 E9.24286
G1 X110.017 Y87.767 E9.25807
G1 X109.280 Y88.462 E9.27328
G1 X108.562 Y89.103 E9.28775
G1 X107.788 Y89.755 E9.30296
G1 X106.996 Y90.385 E9.31817
G1 X106.146 Y91.021 E9.33412
G1 X105.318 Y91.604 E9.34933
G1 X104.516 Y92.136 E9.36380
G1 X103.657 Y92.672 E9.37901
G1 X102.783 Y93.182 E9.39422
G1 X101.851 Y93.691 E9.41017
G1 X100.949 Y94.150 E9.42538
G1 X100.034 Y94.583 E9.44059
G1 X99.153 Y94.971 E9.45506
G1 X98.215 Y95.352 E9.47027
G1 X97.267 Y95.706 E9.48548
G1 X96.309 Y96.033 E9.50069
G1 X95.342 Y96.333 E9.51590
G1 X94.367 Y96.605 E9.53111
G1 X92.688 Y97.001 E9.55704
