; generated by Slic3r 0.9.9 on 2013-05-18 at 23:42:32

; layer_height = 0.21
; perimeters = 1
; top_solid_layers = 3
; bottom_solid_layers = 3
; fill_density = 0.2
; perimeter_speed = 35
; infill_speed = 45
; travel_speed = 150
; nozzle_diameter = 0.35
; filament_diameter = 2.8
; extrusion_multiplier = 1.088
; perimeters extrusion width = 0.49mm
; infill extrusion width = 0.49mm
; solid infill extrusion width = 0.49mm
; top infill extrusion width = 0.49mm
; first layer extrusion width = 0.70mm

G21 ; set units to millimeters
M190 S70 ; wait for bed temperature to be reached
M104 S200 ; set temperature
G28 ; home all axes
M109 S200 ; wait for temperature to be reached
G90 ; use absolute coordinates
G92 E0
M82 ; use absolute distances for extrusion
M106 S331
G1 F600.000 E-1.00000
G92 E0
G1 Z0.350 F9000.000
G1 X50.559 Y61.627
G1 F600.000 E1.00000
G1 X59.148 Y55.387 F840.000 E1.41028
G1 X59.290 Y55.305 E1.41661
G1 X68.989 Y50.987 E1.82689
G1 X69.144 Y50.936 E1.83322
G1 X79.529 Y48.729 E2.24349
G1 X79.692 Y48.712 E2.24982
G1 X90.308 Y48.712 E2.66010
G1 X90.471 Y48.729 E2.66643
G1 X100.856 Y50.936 E3.07671
G1 X101.011 Y50.987 E3.08303
G1 X110.710 Y55.305 E3.49331
G1 X110.852 Y55.387 E3.49964
G1 X119.441 Y61.627 E3.90992
G1 X119.563 Y61.737 E3.91625
G1 X126.667 Y69.626 E4.32652
G1 X126.763 Y69.759 E4.33285
G1 X132.071 Y78.953 E4.74314
G1 X132.138 Y79.103 E4.74946
G1 X135.420 Y89.211 E5.16018
G1 X142.400 Y118.439 E6.32146
G1 X142.562 Y119.918 E6.37897
G1 X142.562 Y120.082 E6.38529
G1 X142.414 Y121.492 E6.44010
G1 X142.380 Y121.652 E6.44642
G1 X141.942 Y123.001 E6.50122
G1 X141.875 Y123.151 E6.50755
G1 X141.166 Y124.379 E6.56236
G1 X141.070 Y124.511 E6.56868
G1 X140.121 Y125.565 E6.62348
G1 X139.999 Y125.675 E6.62981
G1 X138.866 Y126.497 E6.68391
G1 X110.691 Y144.704 E7.98031
G1 X101.011 Y149.013 E8.38977
G1 X100.856 Y149.064 E8.39610
G1 X90.471 Y151.271 E8.80637
G1 X90.308 Y151.288 E8.81270
G1 X79.692 Y151.288 E9.22298
G1 X79.529 Y151.271 E9.22931
G1 X69.144 Y149.064 E9.63959
G1 X68.989 Y149.013 E9.64591
G1 X59.203 Y144.646 E10.06004
G1 X31.099 Y126.473 E11.35341
G1 X30.001 Y125.675 E11.40587
G1 X29.879 Y125.565 E11.41220
G1 X28.930 Y124.511 E11.46700
G1 X28.834 Y124.379 E11.47333
G1 X28.125 Y123.151 E11.52813
G1 X28.058 Y123.001 E11.53446
G1 X27.620 Y121.652 E11.58926
G1 X27.586 Y121.492 E11.59559
G1 X27.438 Y120.082 E11.65039
G1 X27.438 Y119.918 E11.65672
G1 X27.600 Y118.439 E11.71422
G1 X34.597 Y89.151 E12.87790
G1 X37.862 Y79.103 E13.28622
G1 X37.929 Y78.953 E13.29255
G1 X43.237 Y69.759 E13.70283
G1 X43.333 Y69.626 E13.70916
G1 X50.489 Y61.690 E14.12212
G1 X50.880 Y62.179 F9000.000
G1 X59.574 Y55.862 F840.000 E14.53742
G1 X69.306 Y51.541 E14.94895
G1 X79.724 Y49.337 E15.36047
G1 X90.373 Y49.347 E15.77200
G1 X100.694 Y51.541 E16.17974
G1 X110.511 Y55.912 E16.59504
G1 X119.047 Y62.113 E17.00279
G1 X126.180 Y70.020 E17.41431
G1 X131.554 Y79.327 E17.82962
G1 X134.815 Y89.368 E18.23763
G1 X141.788 Y118.564 E19.39764
G1 X141.937 Y119.951 E19.45153
G1 X141.796 Y121.394 E19.50758
G1 X141.358 Y122.777 E19.56363
G1 X140.641 Y124.038 E19.61968
G1 X139.679 Y125.123 E19.67572
G1 X138.520 Y125.976 E19.73135
G1 X110.414 Y144.143 E21.02462
G1 X100.694 Y148.459 E21.43565
G1 X90.276 Y150.663 E21.84717
G1 X79.627 Y150.653 E22.25869
G1 X69.213 Y148.429 E22.67022
G1 X59.522 Y144.108 E23.08027
G1 X31.459 Y125.962 E24.37172
G1 X30.321 Y125.123 E24.42636
G1 X29.416 Y124.117 E24.47864
G1 X28.682 Y122.867 E24.53468
G1 X28.204 Y121.394 E24.59451
G1 X28.063 Y119.951 E24.65055
G1 X28.212 Y118.564 E24.70445
G1 X35.195 Y89.333 E25.86590
G1 X38.486 Y79.237 E26.27625
G1 X43.762 Y70.099 E26.68400
G1 X50.817 Y62.249 E27.09190
G1 X51.322 Y62.622 F9000.000
G1 X59.858 Y56.420 F840.000 E27.49963
G1 X69.468 Y52.145 E27.90611
G1 X79.725 Y49.965 E28.31132
G1 X90.275 Y49.965 E28.71906
G1 X100.563 Y52.155 E29.12553
G1 X110.170 Y56.436 E29.53201
G1 X118.678 Y62.622 E29.93848
G1 X125.694 Y70.414 E30.34369
G1 X130.969 Y79.551 E30.75143
G1 X134.210 Y89.526 E31.15674
G1 X141.175 Y118.690 E32.31548
G1 X141.312 Y119.984 E32.36576
G1 X141.178 Y121.296 E32.41676
G1 X140.773 Y122.553 E32.46776
G1 X140.116 Y123.697 E32.51876
G1 X139.236 Y124.680 E32.56976
G1 X138.173 Y125.456 E32.62061
G1 X110.138 Y143.582 E33.91075
G1 X100.532 Y147.855 E34.31706
G1 X90.243 Y150.039 E34.72353
G1 X79.725 Y150.035 E35.13001
G1 X69.437 Y147.845 E35.53648
G1 X59.841 Y143.570 E35.94247
G1 X31.820 Y125.451 E37.23199
G1 X30.764 Y124.680 E37.28252
G1 X29.903 Y123.724 E37.33226
G1 X29.227 Y122.553 E37.38452
G1 X28.822 Y121.296 E37.43552
G1 X28.688 Y120.016 E37.48526
G1 X28.821 Y118.710 E37.53602
G1 X35.794 Y89.514 E38.69602
G1 X39.044 Y79.521 E39.10211
G1 X44.287 Y70.440 E39.50733
G1 X51.260 Y62.691 E39.91018
G1 X51.754 Y63.076 F9000.000
G1 X60.157 Y56.971 F840.000 E40.31159
G1 X69.646 Y52.746 E40.71300
G1 X79.806 Y50.586 E41.11442
G1 X90.194 Y50.586 E41.51583
G1 X100.354 Y52.746 E41.91724
G1 X109.843 Y56.971 E42.31865
G1 X118.246 Y63.076 E42.72007
G1 X125.197 Y70.795 E43.12148
G1 X130.390 Y79.791 E43.52289
G1 X133.606 Y89.689 E43.92509
G1 X140.560 Y118.805 E45.08194
G1 X140.686 Y120.000 E45.12836
G1 X140.562 Y121.182 E45.17430
G1 X140.194 Y122.313 E45.22023
G1 X139.600 Y123.342 E45.26617
G1 X138.805 Y124.225 E45.31210
G1 X137.823 Y124.938 E45.35898
G1 X109.851 Y143.026 E46.64628
G1 X100.354 Y147.254 E47.04802
G1 X90.194 Y149.414 E47.44944
G1 X79.806 Y149.414 E47.85085
G1 X69.646 Y147.254 E48.25226
G1 X60.149 Y143.026 E48.65400
G1 X32.177 Y124.938 E49.94130
G1 X31.195 Y124.225 E49.98818
G1 X30.400 Y123.342 E50.03412
G1 X29.806 Y122.313 E50.08006
G1 X29.438 Y121.182 E50.12599
G1 X29.314 Y120.000 E50.17193
G1 X29.440 Y118.805 E50.21835
G1 X36.394 Y89.689 E51.37519
G1 X39.610 Y79.791 E51.77739
G1 X44.803 Y70.795 E52.17881
G1 X51.691 Y63.146 E52.57660
G1 X52.341 Y63.290 F9000.000
G1 X69.840 Y53.344
G1 X79.872 Y51.211 F840.000 E52.97293
G1 X90.128 Y51.211 E53.36927
G1 X100.160 Y53.344 E53.76560
G1 X109.529 Y57.515 E54.16194
G1 X117.826 Y63.543 E54.55828
G1 X124.688 Y71.165 E54.95461
G1 X129.816 Y80.047 E55.35095
G1 X133.004 Y89.858 E55.74965
G1 X139.943 Y118.911 E56.90396
G1 X140.058 Y120.000 E56.94628
G1 X139.947 Y121.052 E56.98714
G1 X139.620 Y122.057 E57.02800
G1 X139.092 Y122.973 E57.06886
G1 X138.384 Y123.758 E57.10972
G1 X137.470 Y124.423 E57.15340
G1 X109.552 Y142.475 E58.43817
G1 X100.160 Y146.656 E58.83550
G1 X90.128 Y148.789 E59.23183
G1 X79.872 Y148.789 E59.62817
G1 X69.840 Y146.656 E60.02450
G1 X60.448 Y142.475 E60.42183
G1 X32.530 Y124.423 E61.70660
G1 X31.616 Y123.758 E61.75028
G1 X30.908 Y122.973 E61.79114
G1 X30.380 Y122.057 E61.83200
G1 X30.053 Y121.052 E61.87286
G1 X29.942 Y120.000 E61.91372
G1 X30.057 Y118.911 E61.95604
G1 X36.996 Y89.858 E63.11035
G1 X40.184 Y80.047 E63.50905
G1 X45.312 Y71.165 E63.90539
G1 X52.174 Y63.543 E64.30172
G1 X60.471 Y57.515 E64.69806
G1 X69.755 Y53.382 E65.09077
G1 X83.160 Y59.181 F9000.000
G1 X83.371 Y58.816 F720.000 E65.10705
G1 X83.652 Y58.503 E65.12332
G1 X83.993 Y58.256 E65.13959
G1 X84.378 Y58.084 E65.15586
G1 X84.789 Y57.997 E65.17213
G1 X85.211 Y57.997 E65.18841
G1 X85.622 Y58.084 E65.20468
G1 X86.007 Y58.256 E65.22095
G1 X86.348 Y58.503 E65.23723
G1 X86.629 Y58.816 E65.25350
G1 X86.840 Y59.181 E65.26977
G1 X86.970 Y59.581 E65.28604
G1 X87.014 Y60.000 E65.30231
G1 X86.970 Y60.419 E65.31859
G1 X86.840 Y60.819 E65.33486
G1 X86.629 Y61.184 E65.35113
G1 X86.348 Y61.497 E65.36740
G1 X86.007 Y61.744 E65.38367
G1 X85.622 Y61.916 E65.39995
G1 X85.211 Y62.003 E65.41622
G1 X84.789 Y62.003 E65.43249
G1 X84.378 Y61.916 E65.44877
G1 X83.993 Y61.744 E65.46504
G1 X83.652 Y61.497 E65.48131
G1 X83.371 Y61.184 E65.49758
G1 X83.160 Y60.819 E65.51385
G1 X83.030 Y60.419 E65.53013
G1 X82.986 Y60.000 E65.54640
G1 X83.030 Y59.581 E65.56267
G1 X83.131 Y59.270 E65.57532
G1 X82.925 Y58.832 F9000.000
G1 X82.782 Y58.586
G1 X82.862 Y58.447 F720.000 E65.58153
G1 X83.232 Y58.036 E65.60288
G1 X83.679 Y57.712 E65.62422
G1 X84.183 Y57.487 E65.64557
G1 X84.724 Y57.372 E65.66693
G1 X85.276 Y57.372 E65.68827
G1 X85.817 Y57.487 E65.70963
G1 X86.321 Y57.712 E65.73098
G1 X86.768 Y58.036 E65.75232
G1 X87.138 Y58.447 E65.77367
G1 X87.414 Y58.925 E65.79502
G1 X87.585 Y59.451 E65.81637
G1 X87.642 Y60.000 E65.83771
G1 X87.585 Y60.549 E65.85906
G1 X87.414 Y61.075 E65.88042
G1 X87.138 Y61.553 E65.90176
G1 X86.768 Y61.964 E65.92311
G1 X86.321 Y62.288 E65.94446
G1 X85.817 Y62.513 E65.96581
G1 X85.276 Y62.628 E65.98716
G1 X84.724 Y62.628 E66.00851
G1 X84.183 Y62.513 E66.02986
G1 X83.679 Y62.288 E66.05121
G1 X83.232 Y61.964 E66.07255
G1 X82.862 Y61.553 E66.09390
G1 X82.586 Y61.075 E66.11525
G1 X82.415 Y60.549 E66.13660
G1 X82.358 Y60.000 E66.15795
G1 X82.415 Y59.451 E66.17929
G1 X82.586 Y58.925 E66.20065
G1 X82.735 Y58.667 E66.21216
G1 X84.697 Y68.017 F9000.000
G1 X84.789 Y67.997 F720.000 E66.21584
G1 X85.211 Y67.997 E66.23211
G1 X85.622 Y68.084 E66.24838
G1 X86.007 Y68.256 E66.26466
G1 X86.348 Y68.503 E66.28093
G1 X86.629 Y68.816 E66.29720
G1 X86.840 Y69.181 E66.31347
G1 X86.970 Y69.581 E66.32975
G1 X87.014 Y70.000 E66.34602
G1 X86.970 Y70.419 E66.36229
G1 X86.840 Y70.819 E66.37856
G1 X86.629 Y71.184 E66.39483
G1 X86.348 Y71.497 E66.41110
G1 X86.007 Y71.744 E66.42738
G1 X85.622 Y71.916 E66.44365
G1 X85.211 Y72.003 E66.45992
G1 X84.789 Y72.003 E66.47620
G1 X84.378 Y71.916 E66.49247
G1 X83.993 Y71.744 E66.50874
G1 X83.652 Y71.497 E66.52501
G1 X83.371 Y71.184 E66.54128
G1 X83.160 Y70.819 E66.55756
G1 X83.030 Y70.419 E66.57383
G1 X82.986 Y70.000 E66.59010
G1 X83.030 Y69.581 E66.60637
G1 X83.160 Y69.181 E66.62265
G1 X83.371 Y68.816 E66.63892
G1 X83.652 Y68.503 E66.65519
G1 X83.993 Y68.256 E66.67146
G1 X84.378 Y68.084 E66.68774
G1 X84.605 Y68.036 E66.69671
G1 X84.726 Y67.926 F9000.000
G1 X84.567 Y67.405
G1 X84.724 Y67.372 F720.000 E66.70293
G1 X85.276 Y67.372 E66.72427
G1 X85.817 Y67.487 E66.74563
G1 X86.321 Y67.712 E66.76697
G1 X86.768 Y68.036 E66.78832
G1 X87.138 Y68.447 E66.80967
G1 X87.414 Y68.925 E66.83102
G1 X87.585 Y69.451 E66.85237
G1 X87.642 Y70.000 E66.87371
G1 X87.585 Y70.549 E66.89506
G1 X87.414 Y71.075 E66.91642
G1 X87.138 Y71.553 E66.93776
G1 X86.768 Y71.964 E66.95911
G1 X86.321 Y72.288 E66.98046
G1 X85.817 Y72.513 E67.00181
G1 X85.276 Y72.628 E67.02316
G1 X84.724 Y72.628 E67.04451
G1 X84.183 Y72.513 E67.06586
G1 X83.679 Y72.288 E67.08721
G1 X83.232 Y71.964 E67.10855
G1 X82.862 Y71.553 E67.12990
G1 X82.586 Y71.075 E67.15125
G1 X82.415 Y70.549 E67.17260
G1 X82.358 Y70.000 E67.19395
G1 X82.415 Y69.451 E67.21529
G1 X82.586 Y68.925 E67.23665
G1 X82.862 Y68.447 E67.25799
G1 X83.232 Y68.036 E67.27934
G1 X83.679 Y67.712 E67.30069
G1 X84.183 Y67.487 E67.32204
G1 X84.475 Y67.425 E67.33355
G1 X85.146 Y67.714 F9000.000
G1 X86.818 Y68.679
G1 X87.219 Y70.567
G1 X86.072 Y74.538
G1 X83.922 Y74.742
G1 X86.078 Y74.742 F840.000 E67.41688
G1 X88.187 Y75.191 E67.50021
G1 X90.157 Y76.068 E67.58354
G1 X91.902 Y77.335 E67.66687
G1 X93.344 Y78.937 E67.75019
G1 X94.422 Y80.805 E67.83352
G1 X95.089 Y82.856 E67.91685
G1 X95.314 Y85.000 E68.00018
G1 X95.089 Y87.144 E68.08351
G1 X94.422 Y89.195 E68.16684
G1 X93.344 Y91.063 E68.25017
G1 X91.902 Y92.665 E68.33349
G1 X90.157 Y93.932 E68.41682
G1 X88.187 Y94.809 E68.50015
G1 X86.078 Y95.258 E68.58348
G1 X83.922 Y95.258 E68.66681
G1 X81.813 Y94.809 E68.75014
G1 X79.843 Y93.932 E68.83346
G1 X78.098 Y92.665 E68.91679
G1 X76.656 Y91.063 E69.00012
G1 X75.578 Y89.195 E69.08345
G1 X74.911 Y87.144 E69.16678
G1 X74.686 Y85.000 E69.25011
G1 X74.911 Y82.856 E69.33343
G1 X75.578 Y80.805 E69.41676
G1 X76.656 Y78.937 E69.50009
G1 X78.098 Y77.335 E69.58342
G1 X79.843 Y76.068 E69.66675
G1 X81.813 Y75.191 E69.75008
G1 X83.830 Y74.762 E69.82978
G1 X84.196 Y74.181 F9000.000
G1 X86.072 Y74.538
G1 X90.256 Y75.897
G1 X101.432 Y84.242
G1 X102.049 Y87.142
G1 X88.248 Y94.997
G1 X85.408 Y96.388
G1 X84.643 Y96.605
G1 X85.357 Y96.605 F720.000 E69.85737
G1 X86.055 Y96.753 E69.88495
G1 X86.707 Y97.043 E69.91253
G1 X87.285 Y97.463 E69.94012
G1 X87.762 Y97.993 E69.96770
G1 X88.119 Y98.611 E69.99528
G1 X88.340 Y99.290 E70.02287
G1 X88.414 Y100.000 E70.05045
G1 X88.340 Y100.710 E70.07803
G1 X88.119 Y101.389 E70.10561
G1 X87.762 Y102.007 E70.13320
G1 X87.285 Y102.537 E70.16078
G1 X86.707 Y102.957 E70.18836
G1 X86.055 Y103.247 E70.21595
G1 X85.357 Y103.395 E70.24353
G1 X84.643 Y103.395 E70.27111
G1 X83.945 Y103.247 E70.29870
G1 X83.293 Y102.957 E70.32628
G1 X82.715 Y102.537 E70.35386
G1 X82.238 Y102.007 E70.38145
G1 X81.881 Y101.389 E70.40903
G1 X81.660 Y100.710 E70.43661
G1 X81.586 Y100.000 E70.46420
G1 X81.660 Y99.290 E70.49178
G1 X81.881 Y98.611 E70.51936
G1 X82.238 Y97.993 E70.54694
G1 X82.715 Y97.463 E70.57453
G1 X83.293 Y97.043 E70.60211
G1 X83.945 Y96.753 E70.62969
G1 X84.551 Y96.624 E70.65365
G1 X84.917 Y96.043 F9000.000
G1 X83.943 Y96.070
G1 X83.925 Y95.897 F840.000 E70.66036
G1 X81.619 Y95.407 E70.75148
G1 X79.529 Y94.476 E70.83989
G1 X77.678 Y93.132 E70.92829
G1 X76.147 Y91.432 E71.01670
G1 X75.004 Y89.451 E71.10510
G1 X74.297 Y87.275 E71.19351
G1 X74.058 Y85.000 E71.28191
G1 X74.297 Y82.725 E71.37032
G1 X75.004 Y80.549 E71.45872
G1 X76.147 Y78.568 E71.54713
G1 X77.678 Y76.868 E71.63553
G1 X79.529 Y75.523 E71.72394
G1 X81.619 Y74.593 E71.81234
G1 X83.856 Y74.117 E71.90075
G1 X86.144 Y74.117 E71.98915
G1 X88.381 Y74.593 E72.07755
G1 X90.471 Y75.523 E72.16596
G1 X92.322 Y76.868 E72.25437
G1 X93.853 Y78.568 E72.34277
G1 X94.996 Y80.549 E72.43117
G1 X95.703 Y82.725 E72.51958
G1 X95.942 Y85.000 E72.60798
G1 X95.703 Y87.275 E72.69639
G1 X94.996 Y89.451 E72.78479
G1 X93.853 Y91.432 E72.87320
G1 X92.322 Y93.132 E72.96160
G1 X90.471 Y94.476 E73.05001
G1 X88.381 Y95.407 E73.13841
G1 X86.075 Y95.897 E73.22954
G1 X86.057 Y96.070 E73.23624
G1 X87.021 Y96.499 E73.27704
G1 X87.705 Y96.996 E73.30970
G1 X88.270 Y97.624 E73.34236
G1 X88.693 Y98.356 E73.37502
G1 X88.954 Y99.160 E73.40768
G1 X89.042 Y100.000 E73.44034
G1 X88.954 Y100.840 E73.47300
G1 X88.693 Y101.644 E73.50566
G1 X88.270 Y102.376 E73.53832
G1 X87.705 Y103.004 E73.57098
G1 X87.021 Y103.501 E73.60364
G1 X86.249 Y103.845 E73.63630
G1 X85.423 Y104.020 E73.66895
G1 X84.577 Y104.020 E73.70162
G1 X83.751 Y103.845 E73.73427
G1 X82.979 Y103.501 E73.76693
G1 X82.295 Y103.004 E73.79959
G1 X81.730 Y102.376 E73.83225
G1 X81.307 Y101.644 E73.86491
G1 X81.046 Y100.840 E73.89757
G1 X80.958 Y100.000 E73.93023
G1 X81.046 Y99.160 E73.96289
G1 X81.307 Y98.356 E73.99555
G1 X81.730 Y97.624 E74.02821
G1 X82.295 Y96.996 E74.06087
G1 X82.979 Y96.499 E74.09353
G1 X83.858 Y96.108 E74.13071
G1 X83.928 Y95.451 F9000.000
G1 X81.432 Y99.242
G1 X82.049 Y102.142
G1 X85.857 Y106.525
G1 X84.131 Y106.731
G1 X85.869 Y106.731 F840.000 E74.19788
G1 X87.569 Y107.093 E74.26505
G1 X89.157 Y107.800 E74.33222
G1 X90.563 Y108.821 E74.39939
G1 X91.726 Y110.113 E74.46656
G1 X92.595 Y111.618 E74.53373
G1 X93.132 Y113.271 E74.60090
G1 X93.280 Y114.676 E74.65549
G1 X93.314 Y115.000 E74.66807
G1 X93.132 Y116.729 E74.73524
G1 X92.595 Y118.382 E74.80241
G1 X91.726 Y119.887 E74.86958
G1 X90.563 Y121.179 E74.93675
G1 X89.157 Y122.200 E75.00392
G1 X87.569 Y122.907 E75.07109
G1 X85.869 Y123.269 E75.13826
G1 X84.131 Y123.269 E75.20543
G1 X82.431 Y122.907 E75.27260
G1 X80.843 Y122.200 E75.33977
G1 X79.437 Y121.179 E75.40694
G1 X78.274 Y119.887 E75.47411
G1 X77.405 Y118.382 E75.54128
G1 X76.868 Y116.729 E75.60845
G1 X76.686 Y115.000 E75.67563
G1 X76.868 Y113.271 E75.74280
G1 X77.405 Y111.618 E75.80997
G1 X78.274 Y110.113 E75.87714
G1 X79.437 Y108.821 E75.94431
G1 X80.843 Y107.800 E76.01148
G1 X82.431 Y107.093 E76.07865
G1 X84.039 Y106.751 E76.14219
G1 X84.405 Y106.170 F9000.000
G1 X84.065 Y106.106
G1 X85.935 Y106.106 F840.000 E76.21444
G1 X87.763 Y106.495 E76.28669
G1 X89.471 Y107.256 E76.35893
G1 X90.984 Y108.354 E76.43118
G1 X92.235 Y109.744 E76.50343
G1 X93.169 Y111.363 E76.57567
G1 X93.747 Y113.141 E76.64792
G1 X93.902 Y114.611 E76.70505
G1 X93.942 Y115.000 E76.72017
G1 X93.747 Y116.859 E76.79241
G1 X93.169 Y118.637 E76.86466
G1 X92.235 Y120.256 E76.93691
G1 X90.984 Y121.646 E77.00916
G1 X89.471 Y122.744 E77.08140
G1 X87.763 Y123.505 E77.15365
G1 X85.935 Y123.894 E77.22590
